snapseed-lut/snapseed-film-a03.cube
# Created by: G'MIC (https://gmic.eu)
TITLE "snapseed-fim-a03"
# LUT size
LUT_3D_SIZE 32
# Data domain
DOMAIN_MIN 0.0 0.0 0.0
DOMAIN_MAX 1.0 1.0 1.0
# LUT data points
0.024264706298708916 0.059191174805164337 0.11776960641145706
0 0.070649512112140656 0.12769608199596405
0 0.071425661444664001 0.12702205777168274
0 0.072222225368022919 0.12659314274787903
0.001776960794813931 0.06930147111415863 0.12732842564582825
0.0099468948319554329 0.070016339421272278 0.12751226127147675
0.039828430861234665 0.068504899740219116 0.12297794222831726
0.069689542055130005 0.071119286119937897 0.13049428164958954
0.11262255162000656 0.068137258291244507 0.13584558665752411
0.14544525742530823 0.062152780592441559 0.13316993415355682
0.18259803950786591 0.053492646664381027 0.13351716101169586
0.22044524550437927 0.047712419182062149 0.13897058367729187
0.25196078419685364 0.041053920984268188 0.13988970220088959
0.29293301701545715 0.039276961237192154 0.14632353186607361
0.3329043984413147 0.038848038762807846 0.15024510025978088
0.37461191415786743 0.041278593242168427 0.15555556118488312
0.40755718946456909 0.043504901230335236 0.16043710708618164
0.44632354378700256 0.045526959002017975 0.16605392098426819
0.47873774170875549 0.046098854392766953 0.16478759050369263
0.51262253522872925 0.048897057771682739 0.16991421580314636
0.54033911228179932 0.050142973661422729 0.17410130798816681
0.57984066009521484 0.051776960492134094 0.16887255012989044
0.61703431606292725 0.051736108958721161 0.17150735855102539
0.64613968133926392 0.056617647409439087 0.17745098471641541
0.68186277151107788 0.05667891725897789 0.18106617033481598
0.71311277151107788 0.058639705181121826 0.17824755609035492
0.75004082918167114 0.059538401663303375 0.18200573325157166
0.78204655647277832 0.060600489377975464 0.18658088147640228
0.81917893886566162 0.062745101749897003 0.18995098769664764
0.85100084543228149 0.063929744064807892 0.19017563760280609
0.86881124973297119 0.066237747669219971 0.19154411554336548
0.84270834922790527 0.084007352590560913 0.2082107812166214
0.032904412597417831 0.056678920984268188 0.12089461088180542
0 0.07236519455909729 0.13253676891326904
0 0.07265114039182663 0.13022877275943756
0 0.07352941483259201 0.12851308286190033
0.00091911765048280358 0.071691177785396576 0.12769608199596405
0.010498365387320518 0.072079241275787354 0.12751226127147675
0.043566174805164337 0.071384802460670471 0.1250612735748291
0.076041668653488159 0.071629904210567474 0.12943218648433685
0.11936274170875549 0.06930147111415863 0.13425244390964508
0.14920343458652496 0.063459962606430054 0.13004492223262787
0.18578431010246277 0.056066177785396576 0.13167892396450043
0.22710375487804413 0.049387253820896149 0.13735701143741608
0.25600489974021912 0.043872550129890442 0.13811273872852325
0.29372960329055786 0.04146241769194603 0.14258578419685364
0.33204656839370728 0.040992647409439087 0.1461397111415863
0.37293708324432373 0.041748363524675369 0.15379901230335236
0.40900734066963196 0.044015523046255112 0.1615196019411087
0.4478553831577301 0.043933823704719543 0.16746322810649872
0.48061683773994446 0.044648695737123489 0.16680964827537537
0.51513481140136719 0.046691175550222397 0.17046569287776947
0.54489374160766602 0.048651959747076035 0.17483660578727722
0.58125001192092896 0.049448531121015549 0.17267157137393951
0.61828029155731201 0.050959967076778412 0.17728759348392487
0.6465686559677124 0.055330883711576462 0.18302695453166962
0.68169933557510376 0.055310454219579697 0.18833741545677185
0.71299022436141968 0.058149509131908417 0.18388479948043823
0.74893784523010254 0.059824347496032715 0.18735703825950623
0.78033089637756348 0.061335783451795578 0.19203431904315948
0.81789213418960571 0.062479577958583832 0.19524101912975311
0.85112333297729492 0.062969774007797241 0.19873367249965668
0.86887252330780029 0.064154408872127533 0.20147058367729187
0.84099262952804565 0.082598038017749786 0.22009803354740143
0.024938724935054779 0.066401146352291107 0.13796976208686829
0 0.079084962606430054 0.14650735259056091
0 0.079895153641700745 0.14426742494106293
0 0.081141062080860138 0.14240878820419312
0.0005106209428049624 0.078165851533412933 0.14185048639774323
0.016714323312044144 0.0793028324842453 0.14249046146869659
0.056474670767784119 0.079330064356327057 0.14025735855102539
0.091305829584598541 0.078907951712608337 0.1411219984292984
0.13323120772838593 0.075592316687107086 0.13825573027133942
0.16658495366573334 0.07388344407081604 0.13543710112571716
0.20367647707462311 0.065992645919322968 0.13576389849185944
0.24332788586616516 0.054895155131816864 0.14249046146869659
0.27430558204650879 0.046834152191877365 0.14095179736614227
0.31337147951126099 0.042027503252029419 0.14048202335834503
0.35120508074760437 0.039052285254001617 0.14276960492134094
0.39170071482658386 0.034272879362106323 0.14674563705921173
0.43110021948814392 0.035743463784456253 0.15547387301921844
0.47193628549575806 0.033905230462551117 0.16223447024822235
0.50731205940246582 0.034810729324817657 0.16566583514213562
0.54146236181259155 0.03674427792429924 0.17150735855102539
0.5714256763458252 0.038228482007980347 0.17679737508296967
0.60688322782516479 0.038521241396665573 0.17510212957859039
0.64514565467834473 0.040611386299133301 0.18149510025978088
0.67250818014144897 0.042279411107301712 0.18451797962188721
0.70949757099151611 0.042374726384878159 0.19023013114929199
0.74183011054992676 0.043647877871990204 0.19189132750034332
0.77652502059936523 0.045404411852359772 0.19643247127532959
0.80604571104049683 0.04716094583272934 0.20085784792900085
0.84401547908782959 0.047869011759757996 0.20556236803531647
0.87702208757400513 0.04924427717924118 0.20934094488620758
0.89358657598495483 0.051695257425308228 0.2104983776807785
0.87359070777893066 0.06403186172246933 0.22432598471641541
0.043443627655506134 0.06515522301197052 0.16194853186607361
0 0.084946900606155396 0.17424426972866058
0 0.084803923964500427 0.1719362735748291
0 0.086097493767738342 0.16977123916149139
0.0015318627702072263 0.084640525281429291 0.16895423829555511
0.026770152151584625 0.0867442786693573 0.17134395241737366
0.071241825819015503 0.085866011679172516 0.17024101316928864
0.11013071238994598 0.08423883467912674 0.17012526094913483
0.15878269076347351 0.078799016773700714 0.1680963933467865
0.19931237399578094 0.071623094379901886 0.16373229026794434
0.2444852888584137 0.062561273574829102 0.16231617331504822
0.28788125514984131 0.050633173435926437 0.16062772274017334
0.32126224040985107 0.041380718350410461 0.15796568989753723
0.3623502254486084 0.034334149211645126 0.15912990272045135
0.40398284792900085 0.024530230090022087 0.15578022599220276
0.44474399089813232 0.018961057066917419 0.15710784494876862
0.47945943474769592 0.016435185447335243 0.15901418030261993
0.52132350206375122 0.01399101410061121 0.1617034375667572
0.55974262952804565 0.012683823704719543 0.16115877032279968
0.59697705507278442 0.013316994532942772 0.16772876679897308
0.62955480813980103 0.013357843272387981 0.17310048639774323
0.67136436700820923 0.010886438190937042 0.17005717754364014
0.71196216344833374 0.0088439537212252617 0.17532680928707123
0.74236112833023071 0.0089256539940834045 0.18078023195266724
0.78039896488189697 0.0072712423279881477 0.1866898238658905
0.81576800346374512 0.0064746728166937828 0.18658088147640228
0.85390794277191162 0.0063316994346678257 0.19328022003173828
0.88703024387359619 0.0061274510808289051 0.19801877439022064
0.92691314220428467 0.005582788959145546 0.20307734608650208
0.96029412746429443 0.0070193354040384293 0.20953838527202606
0.97618460655212402 0.0073529412038624287 0.21523691713809967
0.9407271146774292 0.027655228972434998 0.23635619878768921
0.04374999925494194 0.08541666716337204 0.17395833134651184
0 0.10692401975393295 0.18707108497619629
0 0.1078839898109436 0.18480391800403595
0 0.10874182730913162 0.18196485936641693
0.0010416667209938169 0.10741421580314636 0.18002450466156006
0.027042483910918236 0.10982435196638107 0.1825367659330368
0.072794117033481598 0.11121323704719543 0.18363970518112183
0.11501225829124451 0.10863970220088959 0.17839053273200989
0.16715686023235321 0.10392156988382339 0.17622548341751099
0.20992647111415863 0.10008169710636139 0.17099674046039581
0.2552083432674408 0.092892155051231384 0.17101715505123138
0.29887661337852478 0.082128264009952545 0.17275327444076538
0.33590686321258545 0.073651961982250214 0.16924019157886505
0.37834969162940979 0.065624997019767761 0.16535948216915131
0.41421568393707275 0.053737744688987732 0.15876226127147675
0.45410540699958801 0.044812090694904327 0.15870098769664764
0.48312908411026001 0.031760621815919876 0.15189951658248901
0.52218139171600342 0.023835783824324608 0.15171568095684052
0.55802696943283081 0.021139705553650856 0.1496119350194931
0.59613972902297974 0.018933823332190514 0.1563725471496582
0.62775737047195435 0.018116829916834831 0.16072304546833038
0.67058825492858887 0.018504902720451355 0.1617034375667572
0.70725077390670776 0.012826797552406788 0.16491013765335083
0.74019604921340942 0.015196078456938267 0.17352941632270813
0.78026962280273438 0.011866829358041286 0.17947304248809814
0.81433820724487305 0.011274510063230991 0.17843137681484222
0.8512459397315979 0.012704247608780861 0.18519198894500732
0.88357841968536377 0.012438725680112839 0.19099265336990356
0.92295747995376587 0.010416666977107525 0.19454656541347504
0.95667892694473267 0.011866829358041286 0.20163397490978241
0.97150737047195435 0.012990196235477924 0.20698529481887817
0.93560051918029785 0.03229166567325592 0.22689950466156006
0.036825980991125107 0.11182598024606705 0.19178920984268188
0 0.1302696019411087 0.20316584408283234
0 0.13133171200752258 0.2008918970823288
0 0.13280229270458221 0.19767837226390839
0.002062908373773098 0.13286355137825012 0.194567009806633
0.030739380046725273 0.13470178842544556 0.19524101912975311
0.076245911419391632 0.13549837470054626 0.19550652801990509
0.12133033573627472 0.13456563651561737 0.18818762898445129
0.17289625108242035 0.13090278208255768 0.18378269672393799
0.21486929059028625 0.12753267586231232 0.17659994959831238
0.26354166865348816 0.12340686470270157 0.17669525742530823
0.3111451268196106 0.11496459692716599 0.17649102210998535
0.34932598471641541 0.10682189464569092 0.17212009429931641
0.39176198840141296 0.09846813976764679 0.16756534576416016
0.4273284375667572 0.087520420551300049 0.16413398087024689
0.46572715044021606 0.075816988945007324 0.16215278208255768
0.49413809180259705 0.059095863252878189 0.15131399035453796
0.53237336874008179 0.048141341656446457 0.14934639632701874
0.56940358877182007 0.040427561849355698 0.14858385920524597
0.60412585735321045 0.037438724189996719 0.15102124214172363
0.63402783870697021 0.034681372344493866 0.15364924073219299
0.67201793193817139 0.032271243631839752 0.15561683475971222
0.70722359418869019 0.025285946205258369 0.1579248458147049
0.73807191848754883 0.022896241396665573 0.16158087551593781
0.77771645784378052 0.018777234479784966 0.1658632904291153
0.81162166595458984 0.0165236946195364 0.16785131394863129
0.84894466400146484 0.016823256388306618 0.17459830641746521
0.88131129741668701 0.017279412597417831 0.18092319369316101
0.92046570777893066 0.015863290056586266 0.18536899983882904
0.95345860719680786 0.015659041702747345 0.19237473607063293
0.9645424485206604 0.017483659088611603 0.19863152503967285
0.93782681226730347 0.032965686172246933 0.21762663125991821
0.045588236302137375 0.14546568691730499 0.20698529481887817
0 0.16734068095684052 0.21979166567325592
0 0.16793301701545715 0.21891339123249054
0 0.16977123916149139 0.21556372940540314
0.0011642157332971692 0.16966912150382996 0.21133577823638916
0.027205882593989372 0.17091503739356995 0.21299019455909729
0.072487741708755493 0.17162990570068359 0.21519607305526733
0.11948529630899429 0.17473447322845459 0.2031862735748291
0.17830882966518402 0.17162990570068359 0.19736519455909729
0.22473447024822235 0.16774918138980865 0.18960376083850861
0.27677696943283081 0.16421568393707275 0.18651960790157318
0.32289624214172363 0.15859885513782501 0.18308822810649872
0.36231619119644165 0.15202206373214722 0.17873774468898773
0.40526959300041199 0.14389297366142273 0.17489787936210632
0.44491422176361084 0.13786764442920685 0.17095588147640228
0.48335373401641846 0.1268586665391922 0.16764706373214722
0.51801472902297974 0.11744280904531479 0.16141749918460846
0.55680149793624878 0.10796568542718887 0.15851715207099915
0.58754080533981323 0.099877454340457916 0.15831290185451508
0.62181371450424194 0.09056372195482254 0.15459558367729187
0.64987742900848389 0.081147879362106323 0.15083742141723633
0.68124997615814209 0.068872548639774323 0.14993873238563538
0.71088641881942749 0.054044116288423538 0.14765113592147827
0.7344975471496582 0.040747549384832382 0.14215686917304993
0.77232438325881958 0.033047385513782501 0.14691583812236786
0.80202203989028931 0.027941176667809486 0.15202206373214722
0.84148281812667847 0.025571893900632858 0.15733252465724945
0.87524509429931641 0.02444852888584137 0.16305147111415863
0.91227531433105469 0.024489380419254303 0.16764706373214722
0.94266748428344727 0.026102941483259201 0.17524509131908417
0.95416665077209473 0.026348039507865906 0.18296568095684052
0.91531860828399658 0.047181371599435806 0.20649509131908417
0.046078432351350784 0.17859476804733276 0.22481617331504822
4.0849674405762926e-05 0.20134803652763367 0.23921568691730499
0 0.20214460790157318 0.23690086603164673
0 0.20356753468513489 0.23337417840957642
0.0023080066312104464 0.20259395241737366 0.22832924127578735
0.024809367954730988 0.2054125964641571 0.23026278614997864
0.063398696482181549 0.20780229568481445 0.23026961088180542
0.11345315724611282 0.20853757858276367 0.21990741789340973
0.17655228078365326 0.20761846005916595 0.21591094136238098
0.22647058963775635 0.20258033275604248 0.20696486532688141
0.28135213255882263 0.20040850341320038 0.20339052379131317
0.32658633589744568 0.19774645566940308 0.19416530430316925
0.37095588445663452 0.19191177189350128 0.18974673748016357
0.41904956102371216 0.18412990868091583 0.18238699436187744
0.45647469162940979 0.17902368307113647 0.18078023195266724
0.49559503793716431 0.17028185725212097 0.17635485529899597
0.53438180685043335 0.16510075330734253 0.17283496260643005
0.57336598634719849 0.15522874891757965 0.16936273872852325
0.6060253381729126 0.14704519510269165 0.16439270973205566
0.63964462280273438 0.13786764442920685 0.16200980544090271
0.66700708866119385 0.12666122615337372 0.15649509429931641
0.69379079341888428 0.11047793924808502 0.15298201143741608
0.72177970409393311 0.092279411852359772 0.14744009077548981
0.74309641122817993 0.07563316822052002 0.13925652205944061
0.77911221981048584 0.066033504903316498 0.1408088207244873
0.80694442987442017 0.060682192444801331 0.14340278506278992
0.84222495555877686 0.056910403072834015 0.14761029183864594
0.87322306632995605 0.054738566279411316 0.15063317120075226
0.91094774007797241 0.054227940738201141 0.15520833432674408
0.94209557771682739 0.055718958377838135 0.16292892396450043
0.95204246044158936 0.056086599826812744 0.17126224935054779
0.92105799913406372 0.07340686023235321 0.19372957944869995
0.036029413342475891 0.22555147111415863 0.24846813082695007
0.00061274511972442269 0.24368873238563538 0.26127451658248901
0.00061274511972442269 0.24426060914993286 0.25808823108673096
0.00030637255986221135 0.24548612534999847 0.25437092781066895
0.0027573530096560717 0.24601715803146362 0.24889706075191498
0.023856209591031075 0.24542485177516937 0.24738563597202301
0.060723040252923965 0.24283088743686676 0.2445465624332428
0.11362335830926895 0.24556779861450195 0.23576387763023376
0.17977941036224365 0.24840685725212097 0.23492647707462311
0.23016749322414398 0.24897873401641846 0.22614379227161407
0.28590685129165649 0.24810048937797546 0.22224265336990356
0.33794936537742615 0.24346406757831573 0.21595178544521332
0.38137254118919373 0.23995098471641541 0.21078431606292725
0.42810460925102234 0.23331290483474731 0.20351307094097137
0.46672794222831726 0.22769607603549957 0.1980392187833786
0.51041668653488159 0.22003675997257233 0.19583334028720856
0.55167484283447266 0.21419525146484375 0.19158497452735901
0.59503674507141113 0.20514705777168274 0.18878675997257233
0.62875819206237793 0.19805963337421417 0.18935865163803101
0.66360294818878174 0.19062499701976776 0.18615196645259857
0.69428098201751709 0.18280228972434998 0.18161764740943909
0.72481620311737061 0.17144608497619629 0.18272058665752411
0.754963219165802 0.15653593838214874 0.17749182879924774
0.7811887264251709 0.1457107812166214 0.17212009429931641
0.81774920225143433 0.13688725233078003 0.17228348553180695
0.84466910362243652 0.13118872046470642 0.17230391502380371
0.87830883264541626 0.12642973661422729 0.17322303354740143
0.90796566009521484 0.12218137085437775 0.17242647707462311
0.94315773248672485 0.11946486681699753 0.17679738998413086
0.9704861044883728 0.11901551485061646 0.18333333730697632
0.98008579015731812 0.12181372195482254 0.19313725829124451
0.93921566009521484 0.14172793924808502 0.21930147707462311
0.048284314572811127 0.2623366117477417 0.26194852590560913
0.00044934640754945576 0.28492647409439087 0.27937093377113342
0.0014705882640555501 0.28875952959060669 0.28115469217300415
0.00064678647322580218 0.28934505581855774 0.27694037556648254
0.0035947710275650024 0.28747960925102234 0.27183416485786438
0.019648691639304161 0.28491964936256409 0.2677287757396698
0.049285132437944412 0.28125 0.26047793030738831
0.10314542800188065 0.28619280457496643 0.25248503684997559
0.17406046390533447 0.28905227780342102 0.25014296174049377
0.23099809885025024 0.28846678137779236 0.24251769483089447
0.29046157002449036 0.28860294818878174 0.23888887465000153
0.3390318751335144 0.28935185074806213 0.22871732711791992
0.38547793030738831 0.2855188250541687 0.22442810237407684
0.43580472469329834 0.2800108790397644 0.21621051430702209
0.47455066442489624 0.2757965624332428 0.20888480544090271
0.51721131801605225 0.26895421743392944 0.20282542705535889
0.55736660957336426 0.26181915402412415 0.19381809234619141
0.59948933124542236 0.25428920984268188 0.18890930712223053
0.63354438543319702 0.2482026219367981 0.18974672257900238
0.67226302623748779 0.2414419949054718 0.18711191415786743
0.70621597766876221 0.23434777557849884 0.18380992114543915
0.74040037393569946 0.22534722089767456 0.18713235855102539
0.77404683828353882 0.21382081508636475 0.18553242087364197
0.80529004335403442 0.205351322889328 0.18319034576416016
0.8412853479385376 0.19615331292152405 0.18291802704334259
0.86936277151107788 0.18970587849617004 0.18715278804302216
0.90247142314910889 0.18438181281089783 0.18767021596431732
0.93151551485061646 0.18016748130321503 0.18568219244480133
0.96236377954483032 0.17741693556308746 0.18678513169288635
0.98830336332321167 0.17674291133880615 0.19206835329532623
0.99626225233078003 0.17794117331504822 0.2008374035358429
0.95292073488235474 0.19844771921634674 0.22859476506710052
0.037438724189996719 0.31519606709480286 0.28811275959014893
0.0016544117825105786 0.3328431248664856 0.30337008833885193
0.0026756536681205034 0.33531451225280762 0.30396243929862976
0.0024305554106831551 0.33786764740943909 0.30187910795211792
0.0042279413901269436 0.33627450466156006 0.29607844352722168
0.012030228041112423 0.3347017765045166 0.28905227780342102
0.03284313902258873 0.33161765336990356 0.28125
0.090808823704719543 0.33453842997550964 0.27577617764472961
0.16513480246067047 0.33682596683502197 0.27622547745704651
0.22530637681484222 0.33733657002449036 0.26793304085731506
0.28627452254295349 0.3385416567325592 0.26200979948043823
0.3398488461971283 0.34115606546401978 0.24977533519268036
0.39037990570068359 0.33976715803146362 0.24246323108673096
0.44424018263816833 0.33555960655212402 0.23464052379131317
0.4845588207244873 0.32996323704719543 0.22530637681484222
0.52810454368591309 0.32308006286621094 0.21785129606723785
0.56462419033050537 0.31597223877906799 0.20729166269302368
0.60686272382736206 0.30912989377975464 0.20238970220088959
0.63835781812667847 0.30465686321258545 0.19577205181121826
0.67702203989028931 0.29607844352722168 0.18946078419685364
0.71074342727661133 0.28923609852790833 0.18386438488960266
0.74613970518112183 0.28235295414924622 0.18670342862606049
0.78247547149658203 0.27379494905471802 0.18619279563426971
0.81390929222106934 0.26654410362243652 0.18216912448406219
0.85108256340026855 0.25927284359931946 0.18137255311012268
0.87689948081970215 0.2553921639919281 0.18174019455909729
0.91094768047332764 0.25032678246498108 0.18035131692886353
0.94087010622024536 0.24693627655506134 0.17800244688987732
0.97328430414199829 0.24395425617694855 0.18135212361812592
0.99556785821914673 0.242932990193367 0.18721406161785126
0.99914216995239258 0.24558822810649872 0.19479165971279144
0.96544116735458374 0.25919118523597717 0.21770833432674408
0.048366013914346695 0.36268383264541626 0.30343136191368103
0.001021241769194603 0.38437500596046448 0.32661354541778564
0.0019199345260858536 0.38709148764610291 0.32489109039306641
0.0014705882640555501 0.38869825005531311 0.3229166567325592
0.0029003268573433161 0.38890931010246277 0.31981205940246582
0.0069172116927802563 0.38724127411842346 0.31291529536247253
0.024080881848931313 0.38412991166114807 0.30522873997688293
0.081495098769664764 0.38534176349639893 0.30236929655075073
0.15482024848461151 0.38831695914268494 0.29918304085731506
0.21518246829509735 0.39034584164619446 0.29025736451148987
0.27518382668495178 0.39215686917304993 0.28400734066963196
0.33210101723670959 0.39346405863761902 0.27504086494445801
0.3852328360080719 0.3939133882522583 0.26836195588111877
0.441346675157547 0.39015522599220276 0.25984477996826172
0.48339459300041199 0.38668298721313477 0.24554739892482758
0.5293232798576355 0.38102534413337708 0.23421840369701385
0.56941717863082886 0.37251496315002441 0.21897467970848083
0.61213237047195435 0.36403185129165649 0.21068219840526581
0.64345043897628784 0.35637933015823364 0.20712827146053314
0.67955476045608521 0.35024508833885193 0.19763071835041046
0.71249997615814209 0.3435661792755127 0.18785403668880463
0.74889707565307617 0.33645832538604736 0.18270017206668854
0.78700977563858032 0.33137938380241394 0.18064406514167786
0.81709557771682739 0.32779818773269653 0.17440769076347351
0.85326802730560303 0.32197031378746033 0.17066311836242676
0.88061684370040894 0.31897470355033875 0.16997548937797546
0.91170340776443481 0.31703430414199829 0.16505990922451019
0.94042068719863892 0.31546160578727722 0.16021241247653961
0.97126907110214233 0.31239107251167297 0.1655501127243042
0.99534314870834351 0.31066858768463135 0.17192946374416351
0.99926471710205078 0.31178510189056396 0.17685864865779877
0.95437097549438477 0.33020833134651184 0.20608659088611603
0.049019608646631241 0.40851715207099915 0.31758579611778259
0.0004289215721655637 0.43002450466156006 0.34258577227592468
0.0018178105819970369 0.43280228972434998 0.34315767884254456
0.0013480392517521977 0.4342728853225708 0.34246322512626648
0.0033088235650211573 0.43412989377975464 0.34129902720451355
0.0073529412038624287 0.43286353349685669 0.33480390906333923
0.022610293701291084 0.42977941036224365 0.32487744092941284
0.077042482793331146 0.43145427107810974 0.32647058367729187
0.15012255311012268 0.4322916567325592 0.32346814870834351
0.21145834028720856 0.43122959136962891 0.31419527530670166
0.27426469326019287 0.43284314870834351 0.30857843160629272
0.33104577660560608 0.43592730164527893 0.29452615976333618
0.38149508833885193 0.43694853782653809 0.2860906720161438
0.43574345111846924 0.43670344352722168 0.2769199013710022
0.48265931010246277 0.43523284792900085 0.26599264144897461
0.53239375352859497 0.43131127953529358 0.25784313678741455
0.57136434316635132 0.4230596125125885 0.23837827146053314
