snapseed-lut/snapseed-film-a02.cube
# Created by: G'MIC (https://gmic.eu)
TITLE "snapseed-fim-a02"
# LUT size
LUT_3D_SIZE 32
# Data domain
DOMAIN_MIN 0.0 0.0 0.0
DOMAIN_MAX 1.0 1.0 1.0
# LUT data points
0.037561275064945221 0.11335784196853638 0.12438725680112839
0.011090686544775963 0.12408088147640228 0.13247549533843994
0.012867647223174572 0.12459149956703186 0.13120914995670319
0.015114379115402699 0.12608252465724945 0.13184233009815216
0.020772058516740799 0.12598039209842682 0.13278186321258545
0.03125 0.12837009131908417 0.13472221791744232
0.047794118523597717 0.12886029481887817 0.13443627953529358
0.061274509876966476 0.12796159088611603 0.13835784792900085
0.081740193068981171 0.12818627059459686 0.14166666567325592
0.094260618090629578 0.13145424425601959 0.1404411792755127
0.11519607901573181 0.12935048341751099 0.13688725233078003
0.14015524089336395 0.12955474853515625 0.13682597875595093
0.16611519455909729 0.12751226127147675 0.13774509727954865
0.20128676295280457 0.12614379823207855 0.13927696645259857
0.2398284375667572 0.1250612735748291 0.14405637979507446
0.28692808747291565 0.11783087998628616 0.14585377275943756
0.33584558963775635 0.11190767586231232 0.14697711169719696
0.38884803652763367 0.10680147260427475 0.15067401528358459
0.44232028722763062 0.10310456901788712 0.15330882370471954
0.50404411554336548 0.10183823853731155 0.15312500298023224
0.56325578689575195 0.10976306349039078 0.16143789887428284
0.62524509429931641 0.11268382519483566 0.17058824002742767
0.6767769455909729 0.11646242439746857 0.17620505392551422
0.71795344352722168 0.12365195900201797 0.17904411256313324
0.75774103403091431 0.12634803354740143 0.18368056416511536
0.7861519455909729 0.13088235259056091 0.18627451360225677
0.81241834163665771 0.13607025146484375 0.19017563760280609
0.83278185129165649 0.14203430712223053 0.1925245076417923
0.83944040536880493 0.14225898683071136 0.19726307690143585
0.84072709083557129 0.14052288234233856 0.19846813380718231
0.84166663885116577 0.14136029779911041 0.19650734961032867
0.80643379688262939 0.15716911852359772 0.2082107812166214
0.051593136042356491 0.10790441185235977 0.12279411405324936
0.017401961609721184 0.12187500298023224 0.13339461386203766
0.018872549757361412 0.12297794222831726 0.13267973065376282
0.021507352590560913 0.12369281798601151 0.13272058963775635
0.025306371971964836 0.12285539507865906 0.13094362616539001
0.039542481303215027 0.12616421282291412 0.13447710871696472
0.056249998509883881 0.12426470220088959 0.13437500596046448
0.065747551620006561 0.12606208026409149 0.14005309343338013
0.086580879986286163 0.12665441632270813 0.14344362914562225
0.096303105354309082 0.13071896135807037 0.1407475471496582
0.11746323853731155 0.12886029481887817 0.13792891800403595
0.14387254416942596 0.12824754416942596 0.14021651446819305
0.17003676295280457 0.12585784494876862 0.14031863212585449
0.20426878333091736 0.12495914846658707 0.14309641718864441
0.24301470816135406 0.1251838207244873 0.14411765336990356
0.2901756763458252 0.11887254565954208 0.14424020051956177
0.33721405267715454 0.11407271772623062 0.14534313976764679
0.38988971710205078 0.10784313827753067 0.14822304248809814
0.44509804248809814 0.10226715356111526 0.15594363212585449
0.50618875026702881 0.10122548788785934 0.15931372344493866
0.56446081399917603 0.10923202335834503 0.16883169114589691
0.62420344352722168 0.11262255162000656 0.17640931904315948
0.67379498481750488 0.11685048788785934 0.18137255311012268
0.71488970518112183 0.12457107752561569 0.18535539507865906
0.75400322675704956 0.12700164318084717 0.19080881774425507
0.78455883264541626 0.1302696019411087 0.19515931606292725
0.80984479188919067 0.1355392187833786 0.19918300211429596
0.83045345544815063 0.14166666567325592 0.20232842862606049
0.83674424886703491 0.14119690656661987 0.20328839123249054
0.83758169412612915 0.14029818773269653 0.2029411792755127
0.83799022436141968 0.14240196347236633 0.20355391502380371
0.80392158031463623 0.15723039209842682 0.21629901230335236
0.052736926823854446 0.11008987575769424 0.14015522599220276
0.027655227109789848 0.12036356329917908 0.14808006584644318
0.028873911127448082 0.1188589334487915 0.14692266285419464
0.030051741749048233 0.11999590694904327 0.14581972360610962
0.033762253820896149 0.12071078270673752 0.14432190358638763
0.047433275729417801 0.1216503232717514 0.14469633996486664
0.06486927717924118 0.12109886109828949 0.14677287638187408
0.07758033275604248 0.12418300658464432 0.14995914697647095
0.098590686917304993 0.12467320263385773 0.15410539507865906
0.11004221439361572 0.12652505934238434 0.15388073027133942
0.12939134240150452 0.12514297664165497 0.15320669114589691
0.15444581210613251 0.12461193650960922 0.15354709327220917
0.18108661472797394 0.12265114486217499 0.15396241843700409
0.21768110990524292 0.12164351344108582 0.1570533812046051
0.25508579611778259 0.12132352590560913 0.15898692607879639
0.30503132939338684 0.11461056023836136 0.16135621070861816
0.35599127411842346 0.10899373888969421 0.16265659034252167
0.40880310535430908 0.10167483985424042 0.16423612833023071
0.46322169899940491 0.095738023519515991 0.16547521948814392
0.52416259050369263 0.091993458569049835 0.17179331183433533
0.58258438110351562 0.096766062080860138 0.18263208866119385
0.64246320724487305 0.09979575127363205 0.19209559261798859
0.69398826360702515 0.10603894293308258 0.2002723217010498
0.7319035530090332 0.11121323704719543 0.20257352292537689
0.7734408974647522 0.11343953758478165 0.20803375542163849
0.80332928895950317 0.11656454205513 0.21241828799247742
0.8291735053062439 0.12303921580314636 0.21765387058258057
0.84885621070861816 0.12759396433830261 0.22087417542934418
0.85674703121185303 0.12745098769664764 0.22239923477172852
0.85723036527633667 0.12668165564537048 0.22335919737815857
0.8576388955116272 0.12818627059459686 0.22636847198009491
0.82920747995376587 0.1385825127363205 0.23398694396018982
0.081331700086593628 0.093586593866348267 0.1698325127363205
0.043280232697725296 0.11123365163803101 0.17808416485786438
0.043341506272554398 0.10909586399793625 0.17365877330303192
0.043436817824840546 0.11026008427143097 0.17288261651992798
0.04542483389377594 0.11047793924808502 0.17238563299179077
0.059810731559991837 0.11387526988983154 0.1766476035118103
0.079350493848323822 0.11486928164958954 0.17873774468898773
0.092919394373893738 0.11572711914777756 0.18287718296051025
0.11384803801774979 0.11503267288208008 0.18361927568912506
0.12758713960647583 0.11783768981695175 0.18238699436187744
0.14977534115314484 0.11468546092510223 0.18020834028720856
0.17759396135807037 0.11367101967334747 0.18271377682685852
0.20592319965362549 0.1114174872636795 0.18406862020492554
0.24400192499160767 0.11048474907875061 0.18498095870018005
0.28325164318084717 0.10686274617910385 0.18711191415786743
0.33750683069229126 0.099754899740219116 0.19331426918506622
0.39586737751960754 0.0921364426612854 0.19736519455909729
0.45408496260643005 0.083905227482318878 0.20234885811805725
0.50748914480209351 0.073658764362335205 0.20154547691345215
0.57128268480300903 0.065665856003761292 0.20394198596477509
0.63124316930770874 0.066550925374031067 0.21034857630729675
0.69848853349685669 0.066299021244049072 0.22416259348392487
0.75450032949447632 0.070942267775535583 0.23317673802375793
0.79464864730834961 0.074080884456634521 0.23713235557079315
0.83577072620391846 0.075149789452552795 0.24767836928367615
0.86770832538604736 0.076409310102462769 0.25508579611778259
0.89433550834655762 0.081277236342430115 0.26235023140907288
0.91499185562133789 0.087377451360225677 0.26795342564582825
0.91862064599990845 0.086322173476219177 0.27472767233848572
0.91829383373260498 0.084729030728340149 0.27907133102416992
0.91889303922653198 0.084763072431087494 0.28325164318084717
0.87955468893051147 0.10147058963775635 0.29285129904747009
0.083578430116176605 0.10036765038967133 0.16954657435417175
0.04374999925494194 0.11678921431303024 0.17622548341751099
0.045976307243108749 0.11664624512195587 0.17622548341751099
0.045690357685089111 0.11762663722038269 0.17553102970123291
0.047855392098426819 0.1196078434586525 0.17579656839370728
0.063235297799110413 0.12113970518112183 0.17849265038967133
0.08492647111415863 0.12046568840742111 0.17892156541347504
0.097916670143604279 0.12181372195482254 0.18263889849185944
0.11825980246067047 0.12107843160629272 0.18437500298023224
0.13186274468898773 0.1249387264251709 0.18296568095684052
0.15337009727954865 0.12377450615167618 0.18327206373214722
0.18214869499206543 0.12013889104127884 0.18511030077934265
0.21225489675998688 0.11844363063573837 0.18492646515369415
0.24938724935054779 0.1180555522441864 0.18656045198440552
0.2920343279838562 0.11378676444292068 0.18835784494876862
0.34799838066101074 0.10804738104343414 0.19156453013420105
0.40490195155143738 0.10165441036224365 0.19470997154712677
0.46219363808631897 0.093872547149658203 0.1976715624332428
0.51425647735595703 0.080902770161628723 0.19452613592147827
0.57757353782653809 0.072120100259780884 0.19932597875595093
0.63568222522735596 0.070098042488098145 0.20976307988166809
0.69932597875595093 0.07132352888584137 0.22089460492134094
0.75355392694473267 0.075347229838371277 0.23035129904747009
0.79105395078659058 0.077512256801128387 0.23468136787414551
0.83278185129165649 0.078553922474384308 0.24411764740943909
0.8653186559677124 0.080575980246067047 0.25214460492134094
0.88919520378112793 0.083925656974315643 0.25857841968536377
0.90962010622024536 0.087683826684951782 0.26415440440177917
0.91533905267715454 0.088112741708755493 0.27171161770820618
0.91576796770095825 0.087540850043296814 0.27661353349685669
0.9159926176071167 0.088296569883823395 0.28223040699958801
0.87616419792175293 0.10533088445663452 0.29307597875595093
0.075388073921203613 0.11088643223047256 0.17530637979507446
0.044444441795349121 0.12555147707462311 0.1824754923582077
0.045424837619066238 0.12465958297252655 0.18099810183048248
0.04507080465555191 0.12538807094097137 0.17955473065376282
0.0486111119389534 0.12708333134651184 0.17886029183864594
0.0642361119389534 0.1295274943113327 0.18180827796459198
0.087295755743980408 0.13100489974021912 0.18449755012989044
0.10041531175374985 0.13302014768123627 0.18233250081539154
0.12162990123033524 0.13131126761436462 0.18202613294124603
0.13617919385433197 0.13323801755905151 0.18219634890556335
0.1597834974527359 0.13176062703132629 0.18353757262229919
0.18896378576755524 0.12986791133880615 0.1840890645980835
0.22058823704719543 0.1269199401140213 0.18445670604705811
0.26175105571746826 0.12549020349979401 0.18632897734642029
0.30142974853515625 0.12561275064945221 0.18674428761005402
0.3580201268196106 0.12102396041154861 0.19112201035022736
0.41630584001541138 0.11132217198610306 0.1940767914056778
0.47510215640068054 0.1039828434586525 0.19844770431518555
0.52453023195266724 0.092810451984405518 0.19564950466156006
0.58768379688262939 0.082986116409301758 0.20095996558666229
0.64356619119644165 0.077308014035224915 0.20778867602348328
0.70216506719589233 0.07542891800403595 0.21345996856689453
0.75221270322799683 0.077893517911434174 0.22276006639003754
0.79246324300765991 0.080637253820896149 0.22998367249965668
0.83260482549667358 0.080562368035316467 0.23881399631500244
0.86307191848754883 0.082291670143604279 0.24695670604705811
0.88696897029876709 0.08519880473613739 0.2540985643863678
0.90535128116607666 0.088419117033481598 0.26086601614952087
0.9133715033531189 0.090679466724395752 0.26488971710205078
0.91550928354263306 0.092102393507957458 0.27069714665412903
0.91256129741668701 0.090665854513645172 0.27861520648002625
0.88343542814254761 0.10445261746644974 0.28923609852790833
0.082414217293262482 0.11752451211214066 0.17438726127147675
0.043259803205728531 0.13621322810649872 0.18290440738201141
0.043443627655506134 0.13496732711791992 0.18106617033481598
0.043321076780557632 0.13609068095684052 0.18137255311012268
0.047181371599435806 0.13713234663009644 0.18284313380718231
0.064133986830711365 0.13958333432674408 0.18560048937797546
0.086029410362243652 0.14197303354740143 0.18952205777168274
0.10294117778539658 0.14240196347236633 0.18553921580314636
0.12751226127147675 0.14142157137393951 0.18682597577571869
0.14532269537448883 0.14360703527927399 0.18439541757106781
0.17230391502380371 0.14203430712223053 0.18400734663009644
0.20238970220088959 0.1426674872636795 0.18864379823207855
0.23498775064945221 0.14105391502380371 0.18811275064945221
0.27888068556785583 0.13974672555923462 0.18588642776012421
0.31709557771682739 0.13995097577571869 0.18707108497619629
0.37526553869247437 0.1371527761220932 0.19640523195266724
0.43368056416511536 0.12792074680328369 0.19895833730697632
0.49387255311012268 0.12273284047842026 0.20428921282291412
0.54360705614089966 0.11560457199811935 0.20287990570068359
0.60545343160629272 0.10508578270673752 0.20649509131908417
0.65714865922927856 0.096364386379718781 0.20984476804733276
0.70925247669219971 0.088541664183139801 0.21390931308269501
0.75416666269302368 0.085518792271614075 0.21866829693317413
0.79522061347961426 0.085845589637756348 0.22469362616539001
0.83216911554336548 0.083946079015731812 0.23118872940540314
0.86384803056716919 0.084742650389671326 0.2344362735748291
0.88613152503967285 0.086723856627941132 0.24395425617694855
0.90453433990478516 0.089889705181121826 0.25324755907058716
0.90782266855239868 0.090829245746135712 0.25678107142448425
0.91013073921203613 0.093157671391963959 0.26321488618850708
0.90796566009521484 0.092647060751914978 0.27212008833885193
0.86973041296005249 0.11115196347236633 0.28811275959014893
0.079758994281291962 0.13006536662578583 0.17471405863761902
0.040706701576709747 0.14673201739788055 0.18255719542503357
0.041605390608310699 0.14671839773654938 0.18172658979892731
0.04090413823723793 0.1467660665512085 0.18100489675998688
0.04424019530415535 0.14720180630683899 0.18333333730697632
0.062425106763839722 0.14909449219703674 0.18733660876750946
0.085396245121955872 0.15132761001586914 0.19007353484630585
0.1046636700630188 0.15481345355510712 0.18757490813732147
0.13096404075622559 0.15406455099582672 0.18690769374370575
0.14694307744503021 0.15624319016933441 0.18254359066486359
0.17544935643672943 0.1577410101890564 0.18392564356327057
0.21073664724826813 0.15718273818492889 0.18692810833454132
0.24611927568912506 0.15720996260643005 0.18523284792900085
0.29181644320487976 0.15622957050800323 0.18491967022418976
0.33241420984268188 0.15714870393276215 0.18860293924808502
0.39127862453460693 0.15396241843700409 0.19507081806659698
0.44933962821960449 0.14784178137779236 0.20023147761821747
0.5085376501083374 0.14483250677585602 0.20602533221244812
0.55944311618804932 0.14033906161785126 0.20410539209842682
0.6183619499206543 0.12984068691730499 0.20831291377544403
0.66668033599853516 0.11952614784240723 0.2100081741809845
0.71521651744842529 0.10927287489175797 0.20718954503536224
0.75876909494400024 0.10460920631885529 0.21097496151924133
0.79436272382736206 0.10433007031679153 0.21656455099582672
0.83061003684997559 0.10101443529129028 0.2235226035118103
0.85674017667770386 0.1006331667304039 0.22810456156730652
0.88006538152694702 0.10331562906503677 0.23809231817722321
0.8971405029296875 0.10678104311227798 0.24611927568912506
0.90001362562179565 0.10598447918891907 0.24887664616107941
0.89945536851882935 0.10642020404338837 0.25302967429161072
0.89883577823638916 0.10790441185235977 0.26125410199165344
0.86762666702270508 0.12489786744117737 0.27649098634719849
0.065441176295280457 0.14901961386203766 0.18075980246067047
0.037071079015731812 0.16237744688987732 0.18676470220088959
0.037316177040338516 0.16235701739788055 0.18368054926395416
0.036437906324863434 0.16200980544090271 0.18202613294124603
0.039705883711576462 0.16286765038967133 0.18125000596046448
0.054963234812021255 0.16417482495307922 0.18359886109828949
0.078431375324726105 0.16599264740943909 0.18817402422428131
0.096303105354309082 0.17069034278392792 0.18688724935054779
0.12665441632270813 0.17487744987010956 0.18848039209842682
0.1472630649805069 0.17734885215759277 0.18625406920909882
0.17990195751190186 0.17763480544090271 0.18786764144897461
0.21613562107086182 0.17873774468898773 0.18774509429931641
0.25563725829124451 0.17818626761436462 0.18878675997257233
0.30520832538604736 0.17802289128303528 0.18872548639774323
0.34607842564582825 0.1822303980588913 0.18707108497619629
0.40363559126853943 0.18020834028720856 0.19087009131908417
0.4650939404964447 0.17747139930725098 0.1961805671453476
0.52518379688262939 0.17322303354740143 0.20232842862606049
0.57908499240875244 0.1687091588973999 0.20835375785827637
0.63823527097702026 0.16078431904315948 0.21262255311012268
0.684395432472229 0.15386030077934265 0.21507352590560913
0.73131126165390015 0.14901961386203766 0.21666666865348816
0.77399915456771851 0.14546568691730499 0.21866829693317413
0.80784314870834351 0.14362744987010956 0.22187499701976776
0.8405228853225708 0.13829657435417175 0.22830882668495178
0.86250001192092896 0.13658088445663452 0.23002451658248901
0.88080060482025146 0.13521240651607513 0.23645833134651184
0.89613968133926392 0.1356004923582077 0.24552695453166962
0.89810049533843994 0.13654004037380219 0.24487335979938507
0.89767158031463623 0.1383374035358429 0.24746730923652649
0.90287989377975464 0.14283087849617004 0.26151961088180542
0.86887252330780029 0.16458334028720856 0.28167891502380371
0.073182195425033569 0.16366422176361084 0.1768382340669632
0.034579247236251831 0.18053512275218964 0.18735703825950623
0.035280503332614899 0.18048748373985291 0.18636983633041382
0.034470316022634506 0.180058553814888 0.18473583459854126
0.036131534725427628 0.17937090992927551 0.18535539507865906
0.050333607941865921 0.17904411256313324 0.18693491816520691
0.069730393588542938 0.18063725531101227 0.19023691117763519
0.093579791486263275 0.18581153452396393 0.18734340369701385
0.12914624810218811 0.19001226127147675 0.19117647409439087
0.15586192905902863 0.19554057717323303 0.19136029481887817
0.18995098769664764 0.19675244390964508 0.19158495962619781
0.22839052975177765 0.19966639578342438 0.19372275471687317
0.26877039670944214 0.20095996558666229 0.1914011538028717
0.32058823108673096 0.20241692662239075 0.18977397680282593
0.36478754878044128 0.20381945371627808 0.19238153100013733
0.42338645458221436 0.2034381777048111 0.19805964827537537
0.48465415835380554 0.20217183232307434 0.204119011759758
0.54334151744842529 0.20022466778755188 0.20714868605136871
0.59476447105407715 0.20028594136238098 0.20780229568481445
0.6545138955116272 0.19470995664596558 0.21390931308269501
0.70068085193634033 0.18863017857074738 0.21749728918075562
0.74953025579452515 0.18472221493721008 0.22212009131908417
0.79151684045791626 0.18180827796459198 0.22751906514167786
0.8247753381729126 0.17937090992927551 0.23145425319671631
0.85546708106994629 0.17470043897628784 0.23509667813777924
0.87528592348098755 0.17299836874008179 0.23265931010246277
0.89357298612594604 0.17155501246452332 0.24009396135807037
0.90610706806182861 0.17079249024391174 0.24675245583057404
0.90875542163848877 0.17190222442150116 0.24785539507865906
0.91000139713287354 0.17499317228794098 0.25448665022850037
0.91448122262954712 0.17955474555492401 0.26979166269302368
0.88139301538467407 0.20210376381874084 0.29260620474815369
0.063786767423152924 0.19283087551593781 0.18388479948043823
0.036335784941911697 0.20557598769664764 0.1928921639919281
0.036213234066963196 0.2049223780632019 0.19172793626785278
0.03396650031208992 0.20379902422428131 0.19015522301197052
0.035355392843484879 0.20202206075191498 0.19056372344493866
0.047446895390748978 0.20316585898399353 0.19185048341751099
0.066360294818878174 0.20386029779911041 0.19307598471641541
0.089562907814979553 0.20970180630683899 0.19254495203495026
0.12659314274787903 0.21415440738201141 0.19479165971279144
0.15718954801559448 0.22283495962619781 0.19393382966518402
0.1976102888584137 0.22953431308269501 0.19650734961032867
0.24113562703132629 0.2322099506855011 0.19628266990184784
0.28468137979507446 0.23302696645259857 0.19479165971279144
0.33944037556648254 0.23523284494876862 0.19248366355895996
0.38780638575553894 0.23762254416942596 0.19448529183864594
0.44622138142585754 0.23864378035068512 0.19787582755088806
0.50206285715103149 0.2393995076417923 0.20069445669651031
0.56207108497619629 0.23921568691730499 0.20716911554336548
0.61556375026702881 0.23792892694473267 0.21209152042865753
0.67156863212585449 0.23651960492134094 0.21825979650020599
0.71503269672393799 0.23333333432674408 0.22101715207099915
0.76415443420410156 0.23216912150382996 0.22254902124404907
0.80624997615814209 0.23147466778755188 0.22918710112571716
0.83952206373214722 0.23167891800403595 0.23639705777168274
0.87156862020492554 0.23082107305526733 0.2426878958940506
0.88921570777893066 0.23204657435417175 0.24466912448406219
0.90696483850479126 0.23020833730697632 0.25132763385772705
0.92107844352722168 0.23118872940540314 0.25882354378700256
0.92436677217483521 0.23453840613365173 0.26356208324432373
0.92604166269302368 0.23841911554336548 0.26985293626785278
0.92928922176361084 0.24276961386203766 0.28075981140136719
0.90459561347961426 0.2602328360080719 0.29914215207099915
0.07228349894285202 0.22258986532688141 0.18884803354740143
0.035355392843484879 0.2377246767282486 0.20181781053543091
0.035743467509746552 0.23830339312553406 0.20001360774040222
0.034640524536371231 0.23651960492134094 0.19719497859477997
0.037336599081754684 0.2344362735748291 0.19609886407852173
0.044641882181167603 0.23285675048828125 0.19440358877182007
0.058292485773563385 0.23231209814548492 0.19503676891326904
0.084136709570884705 0.23892293870449066 0.19811409711837769
0.12408088147640228 0.2447916716337204 0.2013276219367981
0.15998093783855438 0.25461599230766296 0.20236247777938843
0.20555554330348969 0.26209151744842529 0.20692402124404907
0.2520357072353363 0.26721131801605225 0.20479302108287811
0.29989784955978394 0.26836195588111877 0.20014297962188721
0.3585103452205658 0.27109882235527039 0.19726307690143585
0.41213235259056091 0.27446892857551575 0.19742646813392639
0.469866544008255 0.27724671363830566 0.20059913396835327
0.52224266529083252 0.27909857034683228 0.19918301701545715
0.5805554986000061 0.27990195155143738 0.20014297962188721
0.63592052459716797 0.27796158194541931 0.20615467429161072
0.68721407651901245 0.28051471710205078 0.21194852888584137
0.72613018751144409 0.28120234608650208 0.21685731410980225
0.77252852916717529 0.2829248309135437 0.22034314274787903
0.8111383318901062 0.28387799859046936 0.22441448271274567
0.84485292434692383 0.28570261597633362 0.23022875189781189
0.87310731410980225 0.28645151853561401 0.23764976859092712
0.89187097549438477 0.29080882668495178 0.24007353186607361
0.91138339042663574 0.29169389605522156 0.2495030015707016
0.92575573921203613 0.2926061749458313 0.26013070344924927
0.92778456211090088 0.296875 0.26082515716552734
0.93022197484970093 0.30078977346420288 0.2662445604801178
0.93376225233078003 0.30437090992927551 0.2764706015586853
0.89997959136962891 0.32359069585800171 0.29932597279548645
0.076164215803146362 0.25600489974021912 0.19724264740943909
0.039460785686969757 0.27193626761436462 0.21243873238563538
0.039828430861234665 0.2710171639919281 0.21154004335403442
0.038276143372058868 0.26948529481887817 0.20882353186607361
0.036580882966518402 0.26746323704719543 0.20637254416942596
0.04236111044883728 0.26372548937797546 0.20418709516525269
0.055453430861234665 0.26176470518112183 0.20177696645259857
0.08122958242893219 0.27087417244911194 0.20428921282291412
0.12549020349979401 0.27873775362968445 0.2083946019411087
0.16219362616539001 0.28749999403953552 0.20931372046470642
0.20992647111415863 0.29528185725212097 0.21231617033481598
0.26215276122093201 0.29973447322845459 0.21131536364555359
