snapseed-lut/snapseed-film-x04.cube
# Created by: G'MIC (https://gmic.eu)
TITLE "snapseed-film-x04"
# LUT size
LUT_3D_SIZE 32
# Data domain
DOMAIN_MIN 0.0 0.0 0.0
DOMAIN_MAX 1.0 1.0 1.0
# LUT data points
0.016850490123033524 0.048039216548204422 0.0060661765746772289
0.006433823611587286 0.056495096534490585 0.0073529412038624287
0.009436274878680706 0.059293299913406372 0.0086397062987089157
0.01423611119389534 0.066830061376094818 0.012663397938013077
0.03388480469584465 0.071568630635738373 0.017892157658934593
0.072875812649726868 0.085763894021511078 0.027634803205728531
0.12732842564582825 0.10098039358854294 0.035723038017749786
0.17867647111415863 0.11703431606292725 0.05271650105714798
0.23633578419685364 0.13155637681484222 0.059803921729326248
0.27804332971572876 0.14287172257900238 0.068974681198596954
0.32322302460670471 0.15416666865348816 0.069424018263816833
0.36852532625198364 0.16321486234664917 0.074959151446819305
0.40821078419685364 0.17267157137393951 0.071384802460670471
0.4423406720161438 0.18002450466156006 0.06999591737985611
0.46660539507865906 0.18609069287776947 0.070404410362243652
0.49901959300041199 0.19044117629528046 0.070302292704582214
0.52113968133926392 0.1930147111415863 0.067544937133789062
0.54528188705444336 0.19601716101169586 0.071384802460670471
0.55692404508590698 0.20149102807044983 0.073386445641517639
0.57408088445663452 0.20422793924808502 0.07542891800403595
0.5873570442199707 0.20449347794055939 0.076940365135669708
0.60085785388946533 0.20912989974021912 0.078615196049213409
0.61280637979507446 0.21135620772838593 0.082700170576572418
0.62303918600082397 0.21568627655506134 0.087745100259780884
0.63035130500793457 0.21638073027133942 0.09138072282075882
0.63897061347961426 0.21758578717708588 0.097181372344493866
0.64795756340026855 0.21930147707462311 0.10040849447250366
0.65778183937072754 0.22058823704719543 0.10140931606292725
0.66546165943145752 0.22275325655937195 0.10575980693101883
0.67073124647140503 0.2239583283662796 0.10843544453382492
0.67965686321258545 0.22591911256313324 0.11133578419685364
0.66182595491409302 0.23817402124404907 0.12763480842113495
0.019424019381403923 0.050183825194835663 0.0039215688593685627
0.005759804043918848 0.06090686097741127 0.0062500000931322575
0.0087622553110122681 0.063276149332523346 0.0069852941669523716
0.013010620139539242 0.070383980870246887 0.011397059075534344
0.031924020498991013 0.072977937757968903 0.01666666753590107
0.071895420551300049 0.087663404643535614 0.026205066591501236
0.12647059559822083 0.10275734961032867 0.035784315317869186
0.17549020051956177 0.11883170157670975 0.053227126598358154
0.23143382370471954 0.13345588743686676 0.057720586657524109
0.27800244092941284 0.14428102970123291 0.069199346005916595
0.32371324300765991 0.15551470220088959 0.069975487887859344
0.36672794818878174 0.16676877439022064 0.070302292704582214
0.40600490570068359 0.17506127059459686 0.068566173315048218
0.44140112400054932 0.1821078360080719 0.068382352590560913
0.46525734663009644 0.1873774528503418 0.069546565413475037
0.49787583947181702 0.19158497452735901 0.070486105978488922
0.51956701278686523 0.19473038613796234 0.069076791405677795
0.54393380880355835 0.19883579015731812 0.072732843458652496
0.55467724800109863 0.20461602509021759 0.069546565413475037
0.57181370258331299 0.20772059261798859 0.071139708161354065
0.58566176891326904 0.20794525742530823 0.07352941483259201
0.59840685129165649 0.21200980246067047 0.076960787177085876
0.60847634077072144 0.21325571835041046 0.079881541430950165
0.62162989377975464 0.21899509429931641 0.086764708161354065
0.62773686647415161 0.21889297664165497 0.089767158031463623
0.63290441036224365 0.22058823704719543 0.092585787177085876
0.64432191848754883 0.2239583283662796 0.096834152936935425
0.65281862020492554 0.22444853186607361 0.097794115543365479
0.66100895404815674 0.22555147111415863 0.10120507329702377
0.66595184803009033 0.22602123022079468 0.10312499850988388
0.67598038911819458 0.22861519455909729 0.10735294222831726
0.65716910362243652 0.2398897111415863 0.12383578717708588
0.021078431978821754 0.053043298423290253 0.01066176500171423
0.010702614672482014 0.06104983389377594 0.012867647223174572
0.015223312191665173 0.061723854392766953 0.011846404522657394
0.022324346005916595 0.067980661988258362 0.016264978796243668
0.045016337186098099 0.072385616600513458 0.023529412224888802
0.086015798151493073 0.086601302027702332 0.029997276142239571
0.14029818773269653 0.10128676146268845 0.037479571998119354
0.18984887003898621 0.11614924669265747 0.052934370934963226
0.24885621666908264 0.1319444328546524 0.062111925333738327
0.29133307933807373 0.1418028324842453 0.073706425726413727
0.33843952417373657 0.15330882370471954 0.076429739594459534
0.38100489974021912 0.16260893642902374 0.075313180685043335
0.41785129904747009 0.17120097577571869 0.075878269970417023
0.45095998048782349 0.17926879227161407 0.078724130988121033
0.4734681248664856 0.18417075276374817 0.083782672882080078
0.50488156080245972 0.18686002492904663 0.085219226777553558
0.52691316604614258 0.19114924967288971 0.084987744688987732
0.55002045631408691 0.19372957944869995 0.086499184370040894
0.5626225471496582 0.20230120420455933 0.08647194504737854
0.5809028148651123 0.20575980842113495 0.088991008698940277
0.59404277801513672 0.20629766583442688 0.089270152151584625
0.60667890310287476 0.20898692309856415 0.091646239161491394
0.61714321374893188 0.21045070886611938 0.095772057771682739
0.62826794385910034 0.21433822810649872 0.10106208920478821
0.63703018426895142 0.21636711061000824 0.10433688014745712
0.64311677217483521 0.21736110746860504 0.10512664169073105
0.65298205614089966 0.22114652395248413 0.10916393995285034
0.66078430414199829 0.2222222238779068 0.11225490272045135
0.66699349880218506 0.22275327146053314 0.11534585803747177
0.67342734336853027 0.22511574625968933 0.11790577322244644
0.68302696943283081 0.22698122262954712 0.12097630649805069
0.67062902450561523 0.23688726127147675 0.13378268480300903
0.043831702321767807 0.037479575723409653 0.019424019381403923
0.024816175922751427 0.048856206238269806 0.026899509131908417
0.033932462334632874 0.049237471073865891 0.026293573901057243
0.050211057066917419 0.05534449964761734 0.031644880771636963
0.08202613890171051 0.058251630514860153 0.03590686246752739
0.12544934451580048 0.069553375244140625 0.040652234107255936
0.18466095626354218 0.082414217293262482 0.045853760093450546
0.23517157137393951 0.09380447119474411 0.059020970016717911
0.30183824896812439 0.10972222685813904 0.070710785686969757
0.34570395946502686 0.1189882904291153 0.083517156541347504
0.39048200845718384 0.13192401826381683 0.091503269970417023
0.42998364567756653 0.14053648710250854 0.10386709868907928
0.46243873238563538 0.14816176891326904 0.1059640496969223
0.49270150065422058 0.15576660633087158 0.11365740746259689
0.51088637113571167 0.16260211169719696 0.12248774617910385
0.53918838500976562 0.16708198189735413 0.12372004240751266
0.55765247344970703 0.17080610990524292 0.12299836426973343
0.57881951332092285 0.17389705777168274 0.13022877275943756
0.5920683741569519 0.18093682825565338 0.13510347902774811
0.61137664318084717 0.18651960790157318 0.13919524848461151
0.62504088878631592 0.18918164074420929 0.14202070236206055
0.63660132884979248 0.19317808747291565 0.14442402124404907
0.64646649360656738 0.1954997330904007 0.14810049533843994
0.65386027097702026 0.19548612833023071 0.14885622262954712
0.66256809234619141 0.19848857820034027 0.15231481194496155
0.66752451658248901 0.20116421580314636 0.15285947918891907
0.67767560482025146 0.20420750975608826 0.15454792976379395
0.68482440710067749 0.20488151907920837 0.15582108497619629
0.6911628246307373 0.20706699788570404 0.15777504444122314
0.69888341426849365 0.21054603159427643 0.16130173206329346
0.70763885974884033 0.2116217166185379 0.16276551783084869
0.68905234336853027 0.22195670008659363 0.17546975612640381
0.044730391353368759 0.05367647111415863 0.024938724935054779
0.024080881848931313 0.06556372344493866 0.034007351845502853
0.035396240651607513 0.067156866192817688 0.035825159400701523
0.049754902720451355 0.069607846438884735 0.038480393588542938
0.077818624675273895 0.069914214313030243 0.036887254565954208
0.12020017206668854 0.079391345381736755 0.039971403777599335
0.17794117331504822 0.091115199029445648 0.043382354080677032
0.23080065846443176 0.10161355882883072 0.056576799601316452
0.29773283004760742 0.11770833283662796 0.066115193068981171
0.34207513928413391 0.12491830438375473 0.080535136163234711
0.39240196347236633 0.14001224935054779 0.092463232576847076
0.42955473065376282 0.14934641122817993 0.093198530375957489
0.46176469326019287 0.1563725471496582 0.10067401826381683
0.49260619282722473 0.16358251869678497 0.11164215952157974
0.51231616735458374 0.17058824002742767 0.12138480693101883
0.53921568393707275 0.17506127059459686 0.12285539507865906
0.56023281812667847 0.18098448216915131 0.12549020349979401
0.58149510622024536 0.18357843160629272 0.13149510324001312
0.59183001518249512 0.19078840315341949 0.13457925617694855
0.61066174507141113 0.19626225531101227 0.13725490868091583
0.62555146217346191 0.1997140645980835 0.1373978853225708
0.63756126165390015 0.20416666567325592 0.14289215207099915
0.64509803056716919 0.20600490272045135 0.14581289887428284
0.65202206373214722 0.20637254416942596 0.14687499403953552
0.66307187080383301 0.21021242439746857 0.15140931308269501
0.66893380880355835 0.21415440738201141 0.14895834028720856
0.67834967374801636 0.21574755012989044 0.15191994607448578
0.68633580207824707 0.21550245583057404 0.15324755012989044
0.69360697269439697 0.21797387301921844 0.15600490570068359
0.69967323541641235 0.22120098769664764 0.15955881774425507
0.70569854974746704 0.22077205777168274 0.15974265336990356
0.6873774528503418 0.23045343160629272 0.1720588207244873
0.047406047582626343 0.077696077525615692 0.036785133183002472
0.030392156913876534 0.085886441171169281 0.046486925333738327
0.038453157991170883 0.085573256015777588 0.045091230422258377
0.051892701536417007 0.086832784116268158 0.045697171241044998
0.079554744064807892 0.0850081667304039 0.04438316822052002
0.12160947918891907 0.093702338635921478 0.04506399855017662
0.17753268778324127 0.10226715356111526 0.043423201888799667
0.22932326793670654 0.11446759104728699 0.051668033003807068
0.29336196184158325 0.12718544900417328 0.059906046837568283
0.34319853782653809 0.13707788288593292 0.076838232576847076
0.39142155647277832 0.15067401528358459 0.086846403777599335
0.43003812432289124 0.15952476859092712 0.094410404562950134
0.46258169412612915 0.16715686023235321 0.10067401826381683
0.49136030673980713 0.17578975856304169 0.10858523845672607
0.51299017667770386 0.1840277761220932 0.11750408262014389
0.54032540321350098 0.18828295171260834 0.12150054425001144
0.55923879146575928 0.1943831741809845 0.12625953555107117
0.58139300346374512 0.19783495366573334 0.13171976804733276
0.59485292434692383 0.20526280999183655 0.13278186321258545
0.61282676458358765 0.20943626761436462 0.13574346899986267
0.62645012140274048 0.2121119350194931 0.13704384863376617
0.63856214284896851 0.21544118225574493 0.14091093838214874
0.64896517992019653 0.21869555115699768 0.14464189112186432
0.65684229135513306 0.21954657137393951 0.14697712659835815
0.66610836982727051 0.22254902124404907 0.15045614540576935
0.67173206806182861 0.22526551783084869 0.14897875487804413
0.67999726533889771 0.22672930359840393 0.1516612321138382
0.68848037719726562 0.22679738700389862 0.15379901230335236
0.69481891393661499 0.2292279452085495 0.1563112735748291
0.70234888792037964 0.23413671553134918 0.15977670252323151
0.7079656720161438 0.23300653696060181 0.15931372344493866
0.69370919466018677 0.24170750379562378 0.16891339421272278
0.0625 0.11580882221460342 0.059620097279548645
0.041421569883823395 0.12634803354740143 0.071997545659542084
0.047508172690868378 0.12406045943498611 0.068218953907489777
0.058721404522657394 0.12408088147640228 0.066789217293262482
0.084007352590560913 0.1199754923582077 0.060049019753932953
0.12567402422428131 0.12365195900201797 0.057720586657524109
0.17830882966518402 0.12659314274787903 0.050122547894716263
0.2327614426612854 0.13688725233078003 0.05547386035323143
0.30042892694473267 0.1456495076417923 0.059681370854377747
0.35167485475540161 0.15516749024391174 0.073999188840389252
0.39816176891326904 0.16807597875595093 0.080882355570793152
0.43690767884254456 0.17830882966518402 0.087581701576709747
0.46825981140136719 0.1876225471496582 0.09632352739572525
0.49667075276374817 0.1963031142950058 0.11100899428129196
0.51758581399917603 0.20337009429931641 0.11899510025978088
0.54473036527633667 0.20835377275943756 0.1212826743721962
0.56166261434555054 0.21601308882236481 0.12113970518112183
0.5830269455909729 0.22089460492134094 0.12585784494876862
0.60108250379562378 0.22446896135807037 0.12949346005916595
0.61881124973297119 0.22959558665752411 0.13302695751190186
0.6313929557800293 0.23035131394863129 0.1356617659330368
0.64350491762161255 0.23406863212585449 0.14411765336990356
0.65312498807907104 0.23788806796073914 0.147692009806633
0.66439950466156006 0.23878677189350128 0.15006127953529358
0.67220175266265869 0.24285130202770233 0.15081700682640076
0.67622548341751099 0.24712009727954865 0.14865195751190186
0.68406862020492554 0.24732434749603271 0.15034721791744232
0.69258576631546021 0.24871324002742767 0.1512867659330368
0.69934642314910889 0.25136843323707581 0.15347221493721008
0.7075163722038269 0.25524917244911194 0.15772059559822083
0.71519607305526733 0.2552696168422699 0.15882353484630585
0.69546568393707275 0.26660540699958801 0.17340686917304993
0.077062904834747314 0.15142974257469177 0.083558008074760437
0.05430964007973671 0.16243872046470642 0.095179736614227295
0.06013072282075882 0.15975625813007355 0.090277783572673798
0.068852126598358154 0.15994690358638763 0.087384261190891266
0.091605395078659058 0.15616831183433533 0.081454239785671234
0.13065086305141449 0.15752996504306793 0.073774509131908417
0.18396651744842529 0.15931372344493866 0.064603760838508606
0.23961056768894196 0.16625136137008667 0.061560455709695816
0.30355390906333923 0.17379492521286011 0.057945262640714645
0.35582789778709412 0.17948664724826813 0.071357570588588715
0.40394195914268494 0.18668299913406372 0.077879898250102997
0.44430828094482422 0.19778731465339661 0.091278590261936188
0.47704246640205383 0.20714868605136871 0.098018787801265717
0.50615465641021729 0.21461738646030426 0.1082584485411644
0.5264706015586853 0.22267156839370728 0.11491012573242188
0.55471813678741455 0.22853349149227142 0.11732026934623718
0.57034313678741455 0.23579792678356171 0.1185525581240654
0.59048205614089966 0.24033904075622559 0.12542891502380371
0.60494959354400635 0.24389298260211945 0.13084830343723297
0.6227533221244812 0.24758985638618469 0.1320669949054718
0.63706427812576294 0.25032681226730347 0.13409584760665894
0.64865195751190186 0.25357434153556824 0.13978756964206696
0.65972900390625 0.25533771514892578 0.14375680685043335
0.66952615976333618 0.25812909007072449 0.14714051783084869
0.68049424886703491 0.26255449652671814 0.15027914941310883
0.68684637546539307 0.26452204585075378 0.15087826550006866
0.6940155029296875 0.26578161120414734 0.15263479948043823
0.70006126165390015 0.26719772815704346 0.15390112996101379
0.70701932907104492 0.27098309993743896 0.15380582213401794
0.71485567092895508 0.27479574084281921 0.15535131096839905
0.72395831346511841 0.27638891339302063 0.15700572729110718
0.70702618360519409 0.28572303056716919 0.16848446428775787
0.094607844948768616 0.20006127655506134 0.11593136936426163
0.077389702200889587 0.20698529481887817 0.1250612735748291
0.082005724310874939 0.2046772837638855 0.12036355584859848
0.090543307363986969 0.20410539209842682 0.11881127208471298
0.11256127804517746 0.20098039507865906 0.11562500149011612
0.15220588445663452 0.20714870095252991 0.11145833134651184
0.20539215207099915 0.2136642187833786 0.10189951211214066
0.25357434153556824 0.21386846899986267 0.09168708324432373
0.31562501192092896 0.21219362318515778 0.081801474094390869
0.36435866355895996 0.21292892098426819 0.081454247236251831
0.41384804248809814 0.22120098769664764 0.081801474094390869
0.45765930414199829 0.22828839719295502 0.091278597712516785
0.48774510622024536 0.23645833134651184 0.098651960492134094
0.51564538478851318 0.24375000596046448 0.11070261150598526
0.53890931606292725 0.24779412150382996 0.11911764740943909
0.56540036201477051 0.25318628549575806 0.12273284047842026
0.58208745718002319 0.26051881909370422 0.12520425021648407
0.60116422176361084 0.2657475471496582 0.13143382966518402
0.61670756340026855 0.26905637979507446 0.13116829097270966
0.63419115543365479 0.27218136191368103 0.13388480246067047
0.64736521244049072 0.27406048774719238 0.13729573786258698
0.661213219165802 0.27769607305526733 0.14515931904315948
0.67001634836196899 0.28300651907920837 0.15055146813392639
0.68137252330780029 0.28627452254295349 0.15551470220088959
0.69068628549575806 0.28686681389808655 0.15510620176792145
0.69705879688262939 0.29080882668495178 0.15465685725212097
0.70557600259780884 0.29348450899124146 0.15590277314186096
0.71421569585800171 0.29393380880355835 0.1563725471496582
0.71999591588973999 0.29742646217346191 0.15778186917304993
0.72508174180984497 0.30032676458358765 0.15988563001155853
0.73198527097702026 0.30073529481887817 0.16060048341751099
0.7128676176071167 0.31305146217346191 0.17665441334247589
0.11795343458652496 0.24089051783084869 0.14127857983112335
0.092687912285327911 0.24995914101600647 0.15263479948043823
0.098529413342475891 0.24690905213356018 0.14895151555538177
0.10431645065546036 0.24576523900032043 0.14622141420841217
0.12432598322629929 0.24348446726799011 0.1407475471496582
0.16507352888584137 0.24943491816520691 0.1367851197719574
0.21897466480731964 0.25567811727523804 0.1283496618270874
0.27024099230766296 0.25443899631500244 0.11444716900587082
0.32910540699958801 0.25089868903160095 0.094076797366142273
0.37643653154373169 0.24847494065761566 0.088827617466449738
0.4229983389377594 0.25122550129890442 0.08118872344493866
0.46528458595275879 0.25678786635398865 0.088636979460716248
0.49675244092941284 0.26233658194541931 0.097365193068981171
0.52519744634628296 0.26843681931495667 0.1104302778840065
0.54873365163803101 0.27318218350410461 0.1196691170334816
0.57523828744888306 0.27937772870063782 0.12150054425001144
0.59010082483291626 0.28694170713424683 0.12091502547264099
0.6110498309135437 0.29238152503967285 0.12743055820465088
0.62628674507141113 0.29286491870880127 0.13129766285419464
0.64293301105499268 0.29609885811805725 0.1324346512556076
0.65747547149658203 0.29752179980278015 0.13555964827537537
0.66954654455184937 0.30222630500793457 0.14264705777168274
0.68121594190597534 0.30647465586662292 0.14749455451965332
0.692463219165802 0.31045752763748169 0.15132761001586914
0.70018380880355835 0.31287446618080139 0.1529003232717514
0.70594364404678345 0.3159109354019165 0.15567810833454132
0.7150803804397583 0.31681644916534424 0.15601173043251038
0.72328430414199829 0.31772875785827637 0.15727125108242035
0.72822713851928711 0.32083332538604736 0.15810184180736542
0.73420482873916626 0.32320943474769592 0.16006262600421906
0.74299424886703491 0.3244689404964447 0.16225489974021912
0.72271239757537842 0.33776554465293884 0.18084152042865753
0.12769608199596405 0.29007354378700256 0.17481617629528046
0.10870098322629929 0.29773283004760742 0.18566176295280457
0.11460375040769577 0.29665032029151917 0.18265931308269501
0.11856617778539658 0.29632353782653809 0.17986111342906952
0.13462010025978088 0.29515931010246277 0.1717524528503418
0.16758579015731812 0.29714050889015198 0.1630106121301651
0.21562500298023224 0.30073529481887817 0.14963234961032867
0.27667480707168579 0.3036969006061554 0.13245505094528198
0.34607842564582825 0.30655637383460999 0.11482843011617661
0.39569038152694702 0.2987949550151825 0.10167483240365982
0.44099265336990356 0.29013481736183167 0.084620095789432526
0.47698119282722473 0.28862336277961731 0.09056372195482254
0.50900733470916748 0.29111519455909729 0.095710784196853638
0.54062497615814209 0.29636439681053162 0.10575980693101883
0.56329655647277832 0.30294117331504822 0.11139705777168274
0.59082931280136108 0.3090890645980835 0.11591095477342606
0.60586190223693848 0.31584969162940979 0.11921977251768112
0.62640929222106934 0.32071077823638916 0.12720587849617004
0.64033901691436768 0.32232436537742615 0.13043300807476044
0.6561274528503418 0.32450979948043823 0.13314950466156006
0.67075163125991821 0.32681781053543091 0.13723446428775787
0.68327206373214722 0.33039215207099915 0.14368872344493866
0.69522058963775635 0.33500814437866211 0.14873366057872772
0.70606619119644165 0.33719363808631897 0.15006127953529358
0.71405225992202759 0.33878675103187561 0.15155230462551117
0.71832108497619629 0.34123775362968445 0.15018382668495178
0.72628676891326904 0.3438112735748291 0.15285947918891907
0.73615193367004395 0.34589460492134094 0.15600490570068359
0.74111521244049072 0.34750819206237793 0.15486112236976624
0.74597632884979248 0.34932598471641541 0.15471813082695007
0.7549019455909729 0.35147058963775635 0.15802696347236633
0.74056375026702881 0.36158087849617004 0.1719975471496582
0.15051062405109406 0.33249592781066895 0.19930554926395416
0.12465277314186096 0.34354573488235474 0.21542073786258698
0.13104574382305145 0.34328702092170715 0.2139161229133606
0.13279548287391663 0.34285810589790344 0.20910267531871796
0.14360702037811279 0.34123775362968445 0.20181779563426971
0.16928786039352417 0.34216368198394775 0.1895492821931839
0.20845587551593781 0.34354576468467712 0.17326387763023376
0.27777096629142761 0.34961193799972534 0.15402369201183319
0.35741421580314636 0.35671976208686829 0.13694852590560913
0.40893247723579407 0.35010215640068054 0.11650326102972031
0.45422795414924622 0.34044116735458374 0.088357843458652496
0.49241560697555542 0.33065769076347351 0.083877995610237122
0.52228343486785889 0.32810458540916443 0.08666258305311203
0.55339729785919189 0.33039215207099915 0.10006127506494522
0.57726716995239258 0.33341503143310547 0.10974264889955521
0.60473179817199707 0.33808553218841553 0.11395697295665741
0.61921972036361694 0.34518653154373169 0.11806917190551758
0.63766336441040039 0.34910127520561218 0.12585784494876862
0.65119141340255737 0.35170885920524597 0.12647059559822083
0.66844362020492554 0.35414627194404602 0.13063725829124451
0.68193763494491577 0.35636577010154724 0.13651280105113983
0.69577205181121826 0.36031451821327209 0.13880719244480133
0.70739376544952393 0.36384120583534241 0.14131262898445129
0.71748369932174683 0.3640931248664856 0.14295342564582825
0.725333571434021 0.36603352427482605 0.14509804546833038
0.73133170604705811 0.36819854378700256 0.14658904075622559
0.73999184370040894 0.36930146813392639 0.14799836277961731
0.74758988618850708 0.37120097875595093 0.14897875487804413
0.75048339366912842 0.37354305386543274 0.14904683828353882
0.75560325384140015 0.37644335627555847 0.15059231221675873
0.7649918794631958 0.37777778506278992 0.15249183773994446
0.74430149793624878 0.39099264144897461 0.17232434451580048
0.16317401826381683 0.36850491166114807 0.22303920984268188
0.13492646813392639 0.37965685129165649 0.2393382340669632
0.14232024550437927 0.37912583351135254 0.23560048639774323
0.14430147409439087 0.37822714447975159 0.23176062107086182
0.15343137085437775 0.37677696347236633 0.22150735557079315
0.17551063001155853 0.37575572729110718 0.20718954503536224
0.21096813678741455 0.3751225471496582 0.19129902124404907
0.27589869499206543 0.38449755311012268 0.17845180630683899
0.35557597875595093 0.39797794818878174 0.15974265336990356
0.4133782684803009 0.39609882235527039 0.13398692011833191
0.47071078419685364 0.39252451062202454 0.10471813380718231
