snapseed-lut/snapseed-film-x02.cube
# Created by: G'MIC (https://gmic.eu)
TITLE "snapseed-film-x02"
# LUT size
LUT_3D_SIZE 32
# Data domain
DOMAIN_MIN 0.0 0.0 0.0
DOMAIN_MAX 1.0 1.0 1.0
# LUT data points
0.011580882593989372 0.032536763697862625 0.0015318627702072263
0.0013480392517521977 0.03958333283662796 0.0016544117825105786
0.004125816747546196 0.042381532490253448 0.00053104577818885446
0.008394608274102211 0.047875814139842987 0.0011029413435608149
0.014644607901573181 0.052205882966518402 0.0015318627702072263
0.020792484283447266 0.061621729284524918 0.00077614380279555917
0.036703430116176605 0.069424018263816833 0.00079656863817945123
0.06793300062417984 0.080535128712654114 0.0012867647456005216
0.10747548937797546 0.088235296308994293 0.0014093137579038739
0.15053103864192963 0.1008169949054718 0.00028594769537448883
0.20079657435417175 0.11666666716337204 0.00091911765048280358
0.25492238998413086 0.13492646813392639 0.0019607841968536377
0.3076593279838562 0.15422794222831726 0.0042279413901269436
0.37453022599220276 0.17444853484630585 0.0029207514598965645
0.4320465624332428 0.19283087551593781 0.0023897059727460146
0.49136030673980713 0.21303103864192963 0.0007557189092040062
0.54703843593597412 0.23149509727954865 0.0015931372763589025
0.60067403316497803 0.2446078360080719 0.0004289215721655637
0.64027774333953857 0.25602531433105469 0.00063316989690065384
0.68511027097702026 0.26311275362968445 0.00049019610742107034
0.71109068393707275 0.26697304844856262 0.0015727124409750104
0.7344975471496582 0.27426469326019287 0.00091911765048280358
0.75747549533843994 0.27849265933036804 0.00077614380279555917
0.77984070777893066 0.28149509429931641 6.1274513427633792e-05
0.79573124647140503 0.28259804844856262 0.00038807187229394913
0.80355393886566162 0.28462010622024536 0.00030637255986221135
0.81979167461395264 0.28462010622024536 8.1699348811525851e-05
0.83523285388946533 0.28541666269302368 0.00012254902685526758
0.84797793626785278 0.28923612833023071 0.00028594772447831929
0.86333739757537842 0.29389294981956482 0.00022467320377472788
0.87726718187332153 0.29479166865348816 0
0.85723036527633667 0.30827206373214722 0.018075980246067047
0.014215686358511448 0.034007351845502853 0.0020833334419876337
0.00061274511972442269 0.04374999925494194 0.0018382353009656072
0.0031250000465661287 0.046956699341535568 0.0006535947322845459
0.0071486933156847954 0.052103757858276367 0.0020220589358359575
0.013112745247781277 0.057291667908430099 0.0028186275158077478
0.01944444328546524 0.065808825194835663 0.0016339869471266866
0.032414216548204422 0.07401961088180542 0.0012254902394488454
0.063235297799110413 0.084763064980506897 0.0012254902394488454
0.10232843458652496 0.092524506151676178 0.00091911765048280358
0.14642566442489624 0.10698529332876205 0.00012254902685526758
0.19442401826381683 0.12242647260427475 0.00061274511972442269
0.24995915591716766 0.14037990570068359 0.0014705882640555501
0.30177697539329529 0.15955881774425507 0.0026960785035043955
0.36664626002311707 0.17967727780342102 0.0010620914399623871
0.42261028289794922 0.19944852590560913 0.001102941227145493
0.48406863212585449 0.21852533519268036 0.0001633986976230517
0.54027783870697021 0.235743448138237 0.0025326795876026154
0.59460783004760742 0.24840685725212097 0.00098039221484214067
0.63658088445663452 0.25829246640205383 0.0024918299168348312
0.67879903316497803 0.26740196347236633 0.00091911765048280358
0.70404410362243652 0.2726307213306427 0.00059232028434053063
0.72738969326019287 0.27947303652763367 0.00073529413202777505
0.75194031000137329 0.28343546390533447 0.00032679736614227295
0.77138477563858032 0.28504902124404907 0
0.78911358118057251 0.28756126761436462 6.1274513427633792e-05
0.79650735855102539 0.28921568393707275 6.1274513427633792e-05
0.81376630067825317 0.29011437296867371 0
0.82977938652038574 0.29099264740943909 0
0.84283089637756348 0.29434233903884888 0
0.8570670485496521 0.29832518100738525 0.0001633986976230517
0.87432599067687988 0.29914215207099915 6.1274513427633792e-05
0.85312497615814209 0.31341910362243652 0.018504902720451355
0.010457516647875309 0.038582514971494675 0.0068218959495425224
0.00079656863817945123 0.046895422041416168 0.0079861115664243698
0.0051198257133364677 0.049074076116085052 0.0043572988361120224
0.011206427589058876 0.054296024143695831 0.0059027774259448051
0.021119281649589539 0.060437094420194626 0.0073733660392463207
0.031726580113172531 0.068123631179332733 0.006209149956703186
0.047875817865133286 0.078758165240287781 0.0066789216361939907
0.079670481383800507 0.086798757314682007 0.0050245099700987339
0.12015931308269501 0.093218952417373657 0.0034722222480922937
0.16326934099197388 0.10747548937797546 0.00083741830894723535
0.21429739892482758 0.12222222983837128 0.0025939540937542915
0.27148011326789856 0.13992375135421753 0.0045138886198401451
0.32518380880355835 0.15874181687831879 0.0058210785500705242
0.38835784792900085 0.1782611608505249 0.0036696621682494879
0.44742646813392639 0.19597631692886353 0.0017973857466131449
0.51026690006256104 0.21534585952758789 0.00096677563851699233
0.56655091047286987 0.23110023140907288 0.0027982024475932121
0.62148690223693848 0.24458740651607513 0.0024509804788976908
0.66056644916534424 0.25326797366142273 0.002185457618907094
0.70243048667907715 0.2620302140712738 0.0011233660625293851
0.72713780403137207 0.26678922772407532 0.001102941227145493
0.74897879362106323 0.27389705181121826 0.0014705882640555501
0.76849806308746338 0.27845859527587891 0.00070125272031873465
0.78817403316497803 0.28002449870109558 0
0.80581426620483398 0.28225761651992798 0.00012254902685526758
0.81437903642654419 0.28629490733146667 0.00073529413202777505
0.83242106437683105 0.28665578365325928 0.00026552288909442723
0.84959149360656738 0.28760215640068054 0.00024509805371053517
0.86277914047241211 0.291544109582901 0.00030637255986221135
0.87463235855102539 0.2945193350315094 0
0.8904411792755127 0.29546567797660828 0
0.88035130500793457 0.30780228972434998 0.016360294073820114
0.034354574978351593 0.023754086345434189 0.015461600385606289
0.0056576794013381004 0.031515523791313171 0.017871733754873276
0.016428375616669655 0.03361927717924118 0.014522058889269829
0.029139433056116104 0.036029413342475891 0.014147602953016758
0.049060460180044174 0.040747549384832382 0.013194444589316845
0.072521790862083435 0.050714865326881409 0.010852396488189697
0.099285133183002472 0.060212418437004089 0.012479574419558048
0.13374863564968109 0.06674155592918396 0.0080405781045556068
0.17904411256313324 0.076000817120075226 0.008067810907959938
0.22332516312599182 0.0861859992146492 0.0025735294912010431
0.27475491166114807 0.098999179899692535 0.0030228758696466684
0.3389773964881897 0.11629901826381683 0.0062023419886827469
0.39648693799972534 0.13112744688987732 0.0070261438377201557
0.46818488836288452 0.14678649604320526 0.0064678648486733437
0.52914619445800781 0.15976306796073914 0.0046977121382951736
0.59549975395202637 0.18087553977966309 0.0063385074026882648
0.65313863754272461 0.19430147111415863 0.0072508165612816811
0.71037584543228149 0.20984476804733276 0.0055759805254638195
0.7463303804397583 0.21889297664165497 0.004908769391477108
0.78590685129165649 0.22669525444507599 0.0037377451080828905
0.80810189247131348 0.23215550184249878 0.0039147599600255489
0.82963639497756958 0.23872548341751099 0.0048611108213663101
0.84841370582580566 0.24157816171646118 0.0018722766544669867
0.86366420984268188 0.24444445967674255 6.1274513427633792e-05
0.87825435400009155 0.24855664372444153 0.00046977124293334782
0.88709151744842529 0.25418710708618164 0.0034926470834761858
0.90305006504058838 0.25596404075622559 0.0015931372763589025
0.9194035530090332 0.25696486234664917 0.00055147061357274652
0.92870372533798218 0.26081836223602295 0.0022194988559931517
0.94023007154464722 0.26329657435417175 0.0019403595943003893
0.9564133882522583 0.26756536960601807 0.0016952615696936846
0.9350695013999939 0.28071895241737366 0.029636438935995102
0.038296569138765335 0.038786765187978745 0.025245098397135735
0.01017156895250082 0.052879903465509415 0.032475490123033524
0.019097223877906799 0.053022880107164383 0.027471404522657394
0.029207518324255943 0.053410947322845459 0.025306371971964836
0.046446077525615692 0.054901961237192154 0.021568628028035164
0.067585781216621399 0.063010618090629578 0.01944444328546524
0.095526963472366333 0.075306370854377747 0.020220588892698288
0.12404002994298935 0.081025324761867523 0.014093136414885521
0.16924019157886505 0.090134806931018829 0.011029412038624287
0.21198937296867371 0.099550656974315643 0.0052083334885537624
0.26507353782653809 0.11182598024606705 0.0045955884270370007
0.3294321596622467 0.1283496618270874 0.0051062093116343021
0.38774511218070984 0.14258578419685364 0.0065563726238906384
0.45825165510177612 0.15849672257900238 0.0047794119454920292
0.51832109689712524 0.1719975471496582 0.0027573530096560717
0.58560049533843994 0.1929534375667572 0.0044321892783045769
0.64352536201477051 0.20704656839370728 0.0092933010309934616
0.70343136787414551 0.22071078419685364 0.0082107847556471825
0.7419934868812561 0.22873774170875549 0.0062704244628548622
0.78094363212585449 0.23780637979507446 0.0056372550316154957
0.80334967374801636 0.24432191252708435 0.0050040846690535545
0.82530635595321655 0.25153186917304993 0.0058823530562222004
0.84370911121368408 0.2547181248664856 0.0030637255404144526
0.86084556579589844 0.25600489974021912 6.1274513427633792e-05
0.87595999240875244 0.26058006286621094 0.0013480392517521977
0.88321077823638916 0.26721814274787903 0.0049019609577953815
0.90124589204788208 0.26970994472503662 0.0036151960957795382
0.91574752330780029 0.26948529481887817 0.00073529413202777505
0.92559230327606201 0.27230390906333923 0.0023692811373621225
0.93637657165527344 0.27440765500068665 0.0034109475091099739
0.95410537719726562 0.27751225233078003 0.0039828433655202389
0.93094360828399658 0.2916053831577301 0.031004901975393295
0.033803101629018784 0.063500814139842987 0.039705883711576462
0.010947711765766144 0.074918299913406372 0.048284314572811127
0.019675923511385918 0.07504766434431076 0.042939815670251846
0.027001636102795601 0.074257902801036835 0.038357842713594437
0.038602940738201141 0.073999181389808655 0.030923204496502876
0.05979711189866066 0.080194719135761261 0.027096949517726898
0.086029410362243652 0.090032681822776794 0.02618463896214962
0.11742237955331802 0.097126901149749756 0.020383985713124275
0.16213235259056091 0.10402368754148483 0.018341502174735069
0.20544663071632385 0.11322168260812759 0.010695805773139
0.25861930847167969 0.12606209516525269 0.010723039507865906
0.32199075818061829 0.14069989323616028 0.0076252720318734646
0.37732842564582825 0.1542075127363205 0.0072508170269429684
0.44629630446434021 0.17138479650020599 0.0049155778251588345
0.50482028722763062 0.18457925319671631 0.0033496732357889414
0.57278728485107422 0.20329521596431732 0.0038739105220884085
0.63415712118148804 0.2186206579208374 0.0067810462787747383
0.69470995664596558 0.23308824002742767 0.0050245099700987339
0.73359888792037964 0.24185729026794434 0.0057938452810049057
0.77171158790588379 0.25071486830711365 0.0051470589824020863
0.79419940710067749 0.2573188841342926 0.0073937908746302128
0.81915843486785889 0.26488971710205078 0.006107026245445013
0.83598178625106812 0.26824617385864258 0.0032203160226345062
0.85194039344787598 0.27152779698371887 0.0020424835383892059
0.86690491437911987 0.27489110827445984 0.0049836602993309498
0.87698125839233398 0.27908498048782349 0.0077205882407724857
0.89404952526092529 0.28176060318946838 0.0055759805254638195
0.91098862886428833 0.28398695588111877 0.0047794119454920292
0.92266476154327393 0.28693494200706482 0.0045751635916531086
0.93372821807861328 0.28796979784965515 0.0039419936947524548
0.95063322782516479 0.29078838229179382 0.0028186275158077478
0.9374387264251709 0.30194035172462463 0.023631535470485687
0.043995097279548645 0.08964461088180542 0.053308822214603424
0.014889705926179886 0.10202205926179886 0.069178923964500427
0.023202614858746529 0.10157270729541779 0.063725493848323822
0.029575165361166 0.10208333283662796 0.059027776122093201
0.039644606411457062 0.10269607603549957 0.051348038017749786
0.053635623306035995 0.10620914399623871 0.041421569883823395
0.073774509131908417 0.11078431457281113 0.035600490868091583
0.109375 0.11907680332660675 0.03263888880610466
0.15465685725212097 0.12849265336990356 0.031372550874948502
0.19871322810649872 0.13827614486217499 0.02500000037252903
0.24963235855102539 0.14950980246067047 0.019301470369100571
0.30884397029876709 0.15892565250396729 0.009436274878680706
0.36439952254295349 0.17064951360225677 0.0087009808048605919
0.43388479948043823 0.184395432472229 0.0046568629331886768
0.49344363808631897 0.19840686023235321 0.0059436275623738766
0.55702614784240723 0.21517565846443176 0.0055964048951864243
0.61968952417373657 0.231270432472229 0.0088235298171639442
0.68063724040985107 0.24564951658248901 0.0048406864516437054
0.72218137979507446 0.25494280457496643 0.0018178105819970369
0.75925242900848389 0.26366421580314636 0.0037990196142345667
0.78270018100738525 0.27142566442489624 0.0097834961488842964
0.80900734663009644 0.28020831942558289 0.0055759805254638195
0.82951384782791138 0.28394606709480286 0.0034926470834761858
0.84264707565307617 0.28780636191368103 0.0040441178716719151
0.85584151744842529 0.29146245121955872 0.0074550658464431763
0.86703431606292725 0.29436275362968445 0.0053308825008571148
0.88525331020355225 0.29738560318946838 0.0051470589824020863
0.90042895078659058 0.30000001192092896 0.0054534315131604671
0.91601306200027466 0.30343136191368103 0.0052287578582763672
0.93139296770095825 0.30639299750328064 0.0046772873029112816
0.9471813440322876 0.3077206015586853 0.0024509804788976908
0.92450982332229614 0.3226715624332428 0.031740196049213409
0.04797794297337532 0.11654412001371384 0.066687092185020447
0.019321894273161888 0.12926879525184631 0.088153593242168427
0.028656044974923134 0.13001769781112671 0.0827750563621521
0.03430691733956337 0.12954111397266388 0.077757351100444794
0.042177289724349976 0.1300245076417923 0.070710785686969757
0.054581969976425171 0.12925516068935394 0.059007354080677032
0.07236519455909729 0.13184231519699097 0.049285132437944412
0.10030636936426163 0.14293982088565826 0.045574616640806198
0.14315769076347351 0.14987744390964508 0.040420748293399811
0.18872548639774323 0.16068220138549805 0.035981759428977966
0.23931781947612762 0.17232435941696167 0.028982842341065407
0.2990468442440033 0.18050789833068848 0.017858115956187248
0.35688316822052002 0.19099265336990356 0.014705882407724857
0.42542892694473267 0.20216503739356995 0.0058823530562222004
0.48192402720451355 0.21576796472072601 0.0070874183438718319
0.54502993822097778 0.23253676295280457 0.0047521782107651234
0.60690361261367798 0.24716094136238098 0.0056644878350198269
0.66772878170013428 0.26154005527496338 0.0023488563019782305
0.70956563949584961 0.27137798070907593 0.0010076251346617937
0.7494281530380249 0.28096404671669006 0.0040032682009041309
0.77417612075805664 0.28913396596908569 0.0080746179446578026
0.80355393886566162 0.29714050889015198 0.0039828433655202389
0.82219499349594116 0.30012938380241394 0.0026620370335876942
0.83801060914993286 0.30441176891326904 0.0033496730029582977
0.85276418924331665 0.30696490406990051 0.0057734204456210136
0.86250001192092896 0.31037580966949463 0.0042892158962786198
0.87991559505462646 0.31297656893730164 0.0058687371201813221
0.89644604921340942 0.31464460492134094 0.0072916671633720398
0.913432776927948 0.31809639930725098 0.0073461327701807022
0.92894881963729858 0.3219907283782959 0.0070193354040384293
0.94542479515075684 0.32430556416511536 0.0056576798669993877
0.92818629741668701 0.33713236451148987 0.030514705926179886
0.048345588147640228 0.15196079015731812 0.09221813827753067
0.028063725680112839 0.16225489974021912 0.11305147409439087
0.036887254565954208 0.16329656541347504 0.10857842862606049
0.043239377439022064 0.16523692011833191 0.10496323555707932
0.050428923219442368 0.16746322810649872 0.097732841968536377
0.060580063611268997 0.16540034115314484 0.084232032299041748
0.073774509131908417 0.16378676891326904 0.070772059261798859
0.096548207104206085 0.16746322810649872 0.059313725680112839
0.13069853186607361 0.17101715505123138 0.049754902720451355
0.17694035172462463 0.18566176295280457 0.048815362155437469
0.23131127655506134 0.20447303354740143 0.048958335071802139
0.29058414697647095 0.21621732413768768 0.034293297678232193
0.34454655647277832 0.22622549533843994 0.030024509876966476
0.41000816226005554 0.23521243035793304 0.019281044602394104
0.46905636787414551 0.2447303980588913 0.012316176667809486
0.53437501192092896 0.25859886407852173 0.0077818627469241619
0.59630310535430908 0.27071079611778259 0.0068627451546490192
0.65778183937072754 0.28180146217346191 0.0033088235650211573
0.70445257425308228 0.29180961847305298 0.0031250000465661287
0.74485296010971069 0.30202206969261169 0.0055147060193121433
0.76791262626647949 0.30921158194541931 0.0092933010309934616
0.79895836114883423 0.31519606709480286 0.0055147060193121433
0.81803518533706665 0.3191380500793457 0.005392157007008791
0.83253675699234009 0.32346814870834351 0.0072303921915590763
0.84632354974746704 0.32771649956703186 0.011008987203240395
0.86194854974746704 0.33063724637031555 0.010477941483259201
0.87906450033187866 0.33380308747291565 0.010641340166330338
0.89240193367004395 0.33492645621299744 0.0096813729032874107
0.91100895404815674 0.33927696943283081 0.0072508170269429684
0.92822712659835815 0.3439338207244873 0.0087009808048605919
0.94325977563858032 0.34638479351997375 0.0079656867310404778
0.92034316062927246 0.36047795414924622 0.037928920239210129
0.064133986830711365 0.18214869499206543 0.10714869946241379
0.035334963351488113 0.1949346512556076 0.13762255012989044
0.045792482793331146 0.19673202931880951 0.13389842212200165
0.053370099514722824 0.19985701143741608 0.13090957701206207
0.058026961982250214 0.20134803652763367 0.1231413334608078
0.066285401582717896 0.19891749322414398 0.10809504240751266
0.075857840478420258 0.19495505094528198 0.093892976641654968
0.092817269265651703 0.19556780159473419 0.078118190169334412
0.12154820561408997 0.19503676891326904 0.065584152936935425
0.16379357874393463 0.20922522246837616 0.060021784156560898
0.21595180034637451 0.22959558665752411 0.059967320412397385
0.28121596574783325 0.24608524143695831 0.053009256720542908
0.33676469326019287 0.25418707728385925 0.047691993415355682
0.40435731410980225 0.26298338174819946 0.036962147802114487
0.46225491166114807 0.27252861857414246 0.027042483910918236
0.52687913179397583 0.2850354015827179 0.017783224582672119
0.58843958377838135 0.29642567038536072 0.013010622002184391
0.65077608823776245 0.30688315629959106 0.005167483352124691
0.69549965858459473 0.31762662529945374 0.0039011435583233833
0.73768383264541626 0.32653185725212097 0.0058619282208383083
0.76269066333770752 0.33250272274017334 0.011022603139281273
0.79301470518112183 0.33868461847305298 0.0069648693315684795
0.81365740299224854 0.34230664372444153 0.006243191659450531
0.82718539237976074 0.34675246477127075 0.0090073533356189728
0.84170752763748169 0.34937360882759094 0.012976579368114471
0.85714870691299438 0.35287991166114807 0.0096405232325196266
0.87347495555877686 0.35558280348777771 0.010573255829513073
0.88919526338577271 0.35708743333816528 0.012030228041112423
0.90791803598403931 0.36118599772453308 0.010934095829725266
0.92420345544815063 0.36501908302307129 0.010845588520169258
0.94178920984268188 0.36897468566894531 0.010151144117116928
0.9174836277961731 0.38286355137825012 0.040236927568912506
0.064522057771682739 0.2240196019411087 0.14178921282291412
0.044914215803146362 0.2343137264251709 0.16470588743686676
0.055535133928060532 0.23631535470485687 0.16131535172462463
0.063337422907352448 0.23872548341751099 0.15927287936210632
0.069362744688987732 0.24148283898830414 0.15367646515369415
0.076021246612071991 0.23909313976764679 0.13986928761005402
0.08541666716337204 0.23645833134651184 0.12383578717708588
0.092075169086456299 0.23553921282291412 0.10369689017534256
0.11262255162000656 0.23235294222831726 0.084742650389671326
0.14679330587387085 0.23997139930725098 0.074693627655506134
0.19283087551593781 0.25594362616539001 0.069240197539329529
0.25759804248809814 0.27589872479438782 0.062397874891757965
0.32365196943283081 0.2916666567325592 0.063051469624042511
0.39801880717277527 0.30138888955116272 0.052328430116176605
0.45747548341751099 0.3123774528503418 0.042585782706737518
0.52377450466156006 0.32512253522872925 0.032271239906549454
0.58668297529220581 0.3335784375667572 0.02450980432331562
0.64718139171600342 0.34258577227592468 0.013970588333904743
0.69109481573104858 0.35108253359794617 0.012561274692416191
0.7344975471496582 0.35796567797660828 0.014767156913876534
0.76098859310150146 0.36397057771682739 0.018300652503967285
0.79374998807907104 0.36850491166114807 0.010906863026320934
0.81435865163803101 0.37263068556785583 0.011478757485747337
0.82922792434692383 0.37616422772407532 0.013786764815449715
0.84117645025253296 0.37610295414924622 0.014399509876966476
0.854411780834198 0.37702205777168274 0.010906863026320934
0.8715890645980835 0.37937089800834656 0.013255719095468521
0.88749998807907104 0.38223040103912354 0.015502450987696648
0.90549421310424805 0.38639706373214722 0.016115196049213409
0.92244690656661987 0.39170750975608826 0.016503266990184784
0.9375612735748291 0.39350488781929016 0.014705882407724857
0.92340683937072754 0.40533089637756348 0.039828430861234665
0.085028588771820068 0.26037582755088806 0.16092728078365326
0.056862745434045792 0.27448937296867371 0.19268791377544403
0.067081965506076813 0.27584421634674072 0.18960374593734741
0.07352941483259201 0.27946621179580688 0.18873231112957001
0.078839868307113647 0.28345587849617004 0.18284313380718231
0.085838779807090759 0.28082790970802307 0.16928105056285858
0.093811273574829102 0.2774713933467865 0.15622958540916443
0.094662308692932129 0.27656590938568115 0.13341502845287323
0.10557597875595093 0.27285540103912354 0.11154003441333771
0.1297726035118103 0.27735567092895508 0.094485297799110413
0.1631331592798233 0.2877042293548584 0.083129093050956726
0.22669526934623718 0.30680829286575317 0.07354302704334259
0.29703840613365173 0.32514294981956482 0.07708333432674408
0.37704929709434509 0.33931100368499756 0.070806100964546204
0.44675245881080627 0.35214459896087646 0.053860295563936234
0.51824617385864258 0.36648285388946533 0.039767157286405563
0.58428645133972168 0.37440085411071777 0.030766613781452179
0.64758986234664917 0.38278186321258545 0.020649509504437447
0.6910402774810791 0.38804465532302856 0.02444172091782093
0.73598861694335938 0.39248368144035339 0.022508168593049049
0.76469224691390991 0.39718136191368103 0.02368600107729435
0.79720175266265869 0.40110293030738831 0.018382353708148003
0.81855255365371704 0.40428921580314636 0.019464870914816856
0.83218950033187866 0.40741422772407532 0.021997548639774323
0.84411084651947021 0.40684911608695984 0.02319580502808094
0.85741418600082397 0.40639299154281616 0.018198529258370399
0.87489789724349976 0.40964731574058533 0.017960239201784134
0.89142155647277832 0.41190770268440247 0.017258988693356514
0.90776145458221436 0.41676199436187744 0.018593410030007362
0.922385573387146 0.42118057608604431 0.021684367209672928
0.93788808584213257 0.4235498309135437 0.021854573860764503
0.91352123022079468 0.43692812323570251 0.053921569138765335
0.092279411852359772 0.29620099067687988 0.18560048937797546
0.064522057771682739 0.31023284792900085 0.21917891502380371
0.075306370854377747 0.31254082918167114 0.2165849506855011
0.08347630500793457 0.31562501192092896 0.21584966778755188
0.089093133807182312 0.31819853186607361 0.20962010324001312
