snapseed-lut/snapseed-film-b02.cube
# Created by: G'MIC (https://gmic.eu)
TITLE "snapseed-film-b02"
# LUT size
LUT_3D_SIZE 32
# Data domain
DOMAIN_MIN 0.0 0.0 0.0
DOMAIN_MAX 1.0 1.0 1.0
# LUT data points
0.037928920239210129 0.050857841968536377 0.028186274692416191
0.012132353149354458 0.060355391353368759 0.032598040997982025
0.015890523791313171 0.056556373834609985 0.02798202820122242
0.026307189837098122 0.056086596101522446 0.031188724562525749
0.040502451360225677 0.054901961237192154 0.035784315317869186
0.057741012424230576 0.053839873522520065 0.033517155796289444
0.079411767423152924 0.052205882966518402 0.029840685427188873
0.095751628279685974 0.050428923219442368 0.034803923219442368
0.1196078434586525 0.045710783451795578 0.038725491613149643
0.14160539209842682 0.043361924588680267 0.039808008819818497
0.17120097577571869 0.036764707416296005 0.040808822959661484
0.19914215803146362 0.034824348986148834 0.045241016894578934
0.22689950466156006 0.03541666641831398 0.051225490868091583
0.25966095924377441 0.037745099514722824 0.057352941483259201
0.28633579611778259 0.040318626910448074 0.055085785686969757
0.32207924127578735 0.039991829544305801 0.059906050562858582
0.35341095924377441 0.042667485773563385 0.068075977265834808
0.39123773574829102 0.042401961982250214 0.073651961982250214
0.42771649360656738 0.044015523046255112 0.072017975151538849
0.46678921580314636 0.044669117778539658 0.082291670143604279
0.50163400173187256 0.045486114919185638 0.089113563299179077
0.54332107305526733 0.049571078270673752 0.087867647409439087
0.58590686321258545 0.051654413342475891 0.08956291526556015
0.62352943420410156 0.054840687662363052 0.09797794371843338
0.66568624973297119 0.056107021868228912 0.10232843458652496
0.70765930414199829 0.058517158031463623 0.1041053906083107
0.75704658031463623 0.060028593987226486 0.10933414846658707
0.79785537719726562 0.062254901975393295 0.1147058829665184
0.83811277151107788 0.065032683312892914 0.12044526636600494
0.87011849880218506 0.066625811159610748 0.12624593079090118
0.88174021244049072 0.066299021244049072 0.13057598471641541
0.85024511814117432 0.083578430116176605 0.14638480544090271
0.047549020498991013 0.045649509876966476 0.028492646291851997
0.012561274692416191 0.058823529630899429 0.035294119268655777
0.019771242514252663 0.057495918124914169 0.031903591006994247
0.027879901230335236 0.058476310223340988 0.032373368740081787
0.03958333283662796 0.059129901230335236 0.03437500074505806
0.063010625541210175 0.055392153561115265 0.033762253820896149
0.089276961982250214 0.051164217293262482 0.029963234439492226
0.1027369350194931 0.050510618835687637 0.034313727170228958
0.12303921580314636 0.045526959002017975 0.034987743943929672
0.14468953013420105 0.04401552677154541 0.036172382533550262
0.17371323704719543 0.037561275064945221 0.037867646664381027
0.20022466778755188 0.035334963351488113 0.043586604297161102
0.22843137383460999 0.036642156541347504 0.049142155796289444
0.26166257262229919 0.037990197539329529 0.05396241694688797
0.29172793030738831 0.036825980991125107 0.057046569883823395
0.32871732115745544 0.036356210708618164 0.062683820724487305
0.35892567038536072 0.038337420672178268 0.068974681198596954
0.39687499403953552 0.040870096534490585 0.074754901230335236
0.42906451225280762 0.044158495962619781 0.070343136787414551
0.46985295414924622 0.04424019530415535 0.081985294818878174
0.50582104921340942 0.044199343770742416 0.092769607901573181
0.54430145025253296 0.049632351845502853 0.091973036527633667
0.58594769239425659 0.051736112684011459 0.095751635730266571
0.62267154455184937 0.053615197539329529 0.10392156988382339
0.66505306959152222 0.055187907069921494 0.11019199341535568
0.70508581399917603 0.058762256056070328 0.10998774319887161
0.75398284196853638 0.060457520186901093 0.11531862616539001
0.79509806632995605 0.062438726425170898 0.12285539507865906
0.83662170171737671 0.062561273574829102 0.13408906757831573
0.86887252330780029 0.064195267856121063 0.13923612236976624
0.87873774766921997 0.065502449870109558 0.1406862735748291
0.84797793626785278 0.083149507641792297 0.15674020349979401
0.046854577958583832 0.052022058516740799 0.042422384023666382
0.02305964007973671 0.06119280681014061 0.046854574233293533
0.033939268440008163 0.060260076075792313 0.043178103864192963
0.043375547975301743 0.061022605746984482 0.042184095829725266
0.056699350476264954 0.060866013169288635 0.040339056402444839
0.078308820724487305 0.057448256760835648 0.037942539900541306
0.10283904522657394 0.054534312337636948 0.03506944328546524
0.11763343960046768 0.053090959787368774 0.037132352590560913
0.14021651446819305 0.047528591006994247 0.037642974406480789
0.16394336521625519 0.043974675238132477 0.035879630595445633
0.19336192309856415 0.035375818610191345 0.034068629145622253
0.21964868903160095 0.032713782042264938 0.04131944477558136
0.24758987128734589 0.030044933781027794 0.043770425021648407
0.28171297907829285 0.028438182547688484 0.046772878617048264
0.31341910362243652 0.029330067336559296 0.05222630500793457
0.35071486234664917 0.029044117778539658 0.059729024767875671
0.3822576105594635 0.031835511326789856 0.066544115543365479
0.41905638575553894 0.031883168965578079 0.072181373834609985
0.45660400390625 0.032244004309177399 0.071160122752189636
0.49662989377975464 0.031924020498991013 0.079799830913543701
0.53272056579589844 0.032543569803237915 0.087438724935054779
0.5732843279838562 0.035661764442920685 0.08993055671453476
0.61469221115112305 0.036349397152662277 0.094349130988121033
0.65287989377975464 0.039419934153556824 0.10400327295064926
0.69466912746429443 0.040264159440994263 0.1114242896437645
0.73480391502380371 0.042585782706737518 0.11384803801774979
0.78451114892959595 0.044791664928197861 0.12391067296266556
0.82506126165390015 0.045608662068843842 0.1338030993938446
0.86580884456634521 0.046943079680204391 0.13790850341320038
0.89634394645690918 0.049339596182107925 0.14425380527973175
0.90537172555923462 0.04959150031208992 0.15202206373214722
0.88104569911956787 0.060682192444801331 0.16560456156730652
0.081147871911525726 0.047610294073820114 0.053349673748016357
0.043913397938013077 0.061478760093450546 0.061683010309934616
0.05680827796459198 0.059027776122093201 0.058558009564876556
0.069961875677108765 0.058809917420148849 0.058183550834655762
0.086111105978488922 0.05639297142624855 0.057393789291381836
0.10468409210443497 0.053771790117025375 0.054316449910402298
0.12863563001155853 0.051674839109182358 0.053084153681993484
0.14807327091693878 0.048529412597417831 0.052117373794317245
0.17524509131908417 0.043995097279548645 0.052144609391689301
0.19809368252754211 0.036206427961587906 0.048120912164449692
0.22990195453166962 0.028696894645690918 0.04701797291636467
0.26057326793670654 0.022841775789856911 0.049332786351442337
0.29103350639343262 0.01805555634200573 0.049142155796289444
0.32544252276420593 0.013875272125005722 0.048032410442829132
0.35814949870109558 0.010886437259614468 0.048815358430147171
0.39650052785873413 0.0096405232325196266 0.054105393588542938
0.43041938543319702 0.01107706967741251 0.057713780552148819
0.47089460492134094 0.010273692198097706 0.061478756368160248
0.51160812377929688 0.0088439546525478363 0.061458330601453781
0.55502450466156006 0.0072099678218364716 0.07228349894285202
0.59326660633087158 0.0045479307882487774 0.081733390688896179
0.63662177324295044 0.0052696079947054386 0.077839046716690063
0.68375545740127563 0.0058755446225404739 0.083510346710681915
0.72401958703994751 0.0048815361224114895 0.094219774007797241
0.77265793085098267 0.0045411223545670509 0.10318627208471298
0.815093994140625 0.0040441178716719151 0.10345179587602615
0.86924701929092407 0.0043981480412185192 0.11559776216745377
0.91315352916717529 0.0046364380978047848 0.12720587849617004
0.95358115434646606 0.001647603465244174 0.13821485638618469
0.98461329936981201 0.002342047868296504 0.14883577823638916
0.99415844678878784 0.0038602938875555992 0.1579861044883728
0.95265519618988037 0.022589867934584618 0.17457108199596405
0.08082108199596405 0.06354166567325592 0.067401960492134094
0.045404411852359772 0.084129899740219116 0.077879898250102997
0.055861927568912506 0.078329242765903473 0.071854569017887115
0.067361116409301758 0.078737743198871613 0.069485291838645935
0.081556372344493866 0.078431375324726105 0.064889706671237946
0.10747548937797546 0.074877448379993439 0.065318629145622253
0.13713234663009644 0.071139708161354065 0.062683820724487305
0.1542687863111496 0.070159316062927246 0.060763891786336899
0.18174019455909729 0.06825980544090271 0.06145833432674408
0.20496323704719543 0.061580881476402283 0.056781042367219925
0.2396446019411087 0.052328430116176605 0.053125001490116119
0.2675449550151825 0.046977121382951736 0.05234885960817337
0.29485294222831726 0.040931373834609985 0.048590686172246933
0.32769608497619629 0.032393787056207657 0.045690357685089111
0.35802695155143738 0.02242647111415863 0.043443627655506134
0.39532271027565002 0.015747549012303352 0.044975489377975464
0.43082109093666077 0.015216504223644733 0.046160131692886353
0.46985295414924622 0.014460784383118153 0.05000000074505806
0.50763893127441406 0.016319442540407181 0.04965277761220932
0.55226713418960571 0.012683823704719543 0.057107843458652496
0.59346407651901245 0.010437091812491417 0.065482020378112793
0.63547796010971069 0.011519608087837696 0.068321079015731812
0.68212831020355225 0.01100898627191782 0.075674019753932953
0.72261029481887817 0.011090686544775963 0.087806373834609985
0.7706494927406311 0.010416666977107525 0.095649510622024536
0.81109070777893066 0.010110294446349144 0.095220588147640228
0.86380720138549805 0.0086805559694766998 0.10690359026193619
0.90710783004760742 0.0077205882407724857 0.1199754923582077
0.95218539237976074 0.0051266341470181942 0.12971813976764679
0.98267978429794312 0.007128268014639616 0.13948120176792145
0.98976713418960571 0.0079656867310404778 0.14871323108673096
0.94754904508590698 0.026838235557079315 0.1664215624332428
0.070976309478282928 0.0867442786693573 0.080330885946750641
0.042483657598495483 0.10396242141723633 0.089624181389808655
0.056815087795257568 0.10146377980709076 0.086104296147823334
0.069362744688987732 0.10036765038967133 0.082604847848415375
0.087111935019493103 0.097732841968536377 0.075388073921203613
0.10878948867321014 0.095812909305095673 0.074264705181121826
0.13508987426757812 0.093218952417373657 0.071936272084712982
0.15729847550392151 0.093259803950786591 0.067224942147731781
0.18729573488235474 0.090175658464431763 0.067463234066963196
0.21363699436187744 0.087220855057239532 0.063071899116039276
0.24695670604705811 0.07965686172246933 0.058864377439022064
0.27717182040214539 0.072617098689079285 0.056086599826812744
0.30541256070137024 0.064828433096408844 0.051021240651607513
0.33770427107810974 0.056604031473398209 0.045002724975347519
0.36423608660697937 0.04242238774895668 0.039133984595537186
0.40074893832206726 0.035389434546232224 0.038732297718524933
0.43333333730697632 0.03257080540060997 0.03660130500793457
0.4735906720161438 0.02916666679084301 0.040032677352428436
0.51461058855056763 0.024571077898144722 0.043041940778493881
0.55755716562271118 0.020322714000940323 0.04979575052857399
0.59521377086639404 0.01638752780854702 0.056188724935054779
0.6383783221244812 0.015379901975393295 0.05986519530415535
0.68587279319763184 0.01471949927508831 0.065795212984085083
0.7270628809928894 0.013398692011833191 0.075980395078659058
0.77371323108673096 0.011478758417069912 0.083946079015731812
0.8142973780632019 0.011825980618596077 0.088174022734165192
0.86656457185745239 0.0096132894977927208 0.10211056470870972
0.90937501192092896 0.0071282675489783287 0.11472630500793457
0.95226716995239258 0.0056304465979337692 0.12271241843700409
0.98271375894546509 0.0086737480014562607 0.13233251869678497
0.98860293626785278 0.0089869285002350807 0.14436274766921997
0.95798617601394653 0.022406047210097313 0.16125407814979553
0.071078434586524963 0.11887254565954208 0.094485297799110413
0.037377450615167618 0.13915440440177917 0.10661764442920685
0.058905228972434998 0.1334967166185379 0.10457516461610794
0.074734479188919067 0.12879902124404907 0.099754899740219116
0.090134806931018829 0.12659314274787903 0.093259803950786591
0.10947712510824203 0.12610293924808502 0.091278590261936188
0.13265931606292725 0.1249387264251709 0.088051468133926392
0.16043710708618164 0.12430555373430252 0.07965686172246933
0.19399510324001312 0.12285539507865906 0.075490199029445648
0.2209150493144989 0.12138480693101883 0.072875812649726868
0.25624999403953552 0.11654412001371384 0.069975487887859344
0.28749999403953552 0.11147875338792801 0.059334147721529007
0.31868872046470642 0.10625000298023224 0.054473038762807846
0.35263481736183167 0.098835781216621399 0.047283492982387543
0.38131126761436462 0.089399509131908417 0.047365196049213409
0.41848447918891907 0.081535950303077698 0.045424837619066238
0.44989785552024841 0.076266348361968994 0.038807190954685211
0.48811274766921997 0.068321079015731812 0.036151960492134094
0.52032268047332764 0.054881531745195389 0.036540035158395767
0.55962008237838745 0.042034313082695007 0.035171568393707275
0.59542489051818848 0.032516341656446457 0.035477939993143082
0.63504904508590698 0.025919117033481598 0.039828430861234665
0.68059641122817993 0.021180557087063789 0.046262253075838089
0.72279411554336548 0.020159313455224037 0.058149509131908417
0.77062904834747314 0.016850490123033524 0.067708335816860199
0.8125 0.015625 0.075000002980232239
0.8668709397315979 0.011907679028809071 0.088745914399623871
0.9109681248664856 0.0092524513602256775 0.10324754565954208
0.95210373401641846 0.0069444440305233002 0.11480800807476044
0.97982019186019897 0.0086805559694766998 0.12530636787414551
0.98363971710205078 0.010539215989410877 0.13958333432674408
0.93982845544815063 0.033149510622024536 0.16102941334247589
0.065216504037380219 0.1474469006061554 0.10794525593519211
0.03235294297337532 0.16803513467311859 0.12040441483259201
0.054493464529514313 0.16507352888584137 0.11921296268701553
0.069417215883731842 0.16081836819648743 0.11578840017318726
0.086356207728385925 0.15504494309425354 0.11170343309640884
0.10690359026193619 0.15301606059074402 0.10964052379131317
0.13092319667339325 0.15044935047626495 0.10569852590560913
0.15828567743301392 0.15288670361042023 0.095077618956565857
0.19064544141292572 0.15218546986579895 0.090155228972434998
0.21994826197624207 0.15190631151199341 0.087295755743980408
0.25676059722900391 0.14910131692886353 0.08131127804517746
0.29106074571609497 0.14720180630683899 0.072208598256111145
0.32661357522010803 0.14193220436573029 0.066544115543365479
0.36486247181892395 0.13435457646846771 0.058775871992111206
0.39389294385910034 0.12890113890171051 0.05569852888584137
0.43168574571609497 0.12147331237792969 0.051136981695890427
0.46555012464523315 0.11378676444292068 0.042783223092556
0.50255304574966431 0.10412582010030746 0.039072711020708084
0.53063040971755981 0.090461604297161102 0.035648148506879807
0.56819850206375122 0.07522466778755188 0.032148692756891251
0.60226714611053467 0.062207240611314774 0.02861519530415535
0.6378471851348877 0.053656041622161865 0.030821077525615692
0.68219637870788574 0.049319174140691757 0.035716231912374496
0.72179323434829712 0.044566996395587921 0.041217315942049026
0.76755177974700928 0.040979031473398209 0.048434097319841385
0.80531042814254761 0.03937908262014389 0.055330883711576462
0.85685592889785767 0.035246461629867554 0.065781585872173309
0.90034723281860352 0.031433824449777603 0.079146243631839752
0.93786764144897461 0.027546297758817673 0.087997004389762878
0.96258848905563354 0.028315631672739983 0.097630716860294342
0.96623772382736206 0.031352125108242035 0.11399101465940475
0.93067806959152222 0.050347223877906799 0.13784722983837128
0.054473038762807846 0.18351715803146362 0.13186274468898773
0.03125 0.20140931010246277 0.1458333283662796
0.049183003604412079 0.20034722983837128 0.14581289887428284
0.06278594583272934 0.19748774170875549 0.13972631096839905
0.080208331346511841 0.19485294818878174 0.13033087551593781
0.10232843458652496 0.19011437892913818 0.1267973780632019
0.12916666269302368 0.18578431010246277 0.12224264442920685
0.15723039209842682 0.18480391800403595 0.11454248428344727
0.1926470547914505 0.18474264442920685 0.11084558814764023
0.2238357812166214 0.18658088147640228 0.10798611491918564
0.26378676295280457 0.18639706075191498 0.10306372493505478
0.30016341805458069 0.18474264442920685 0.095833331346511841
0.3333946168422699 0.1822303980588913 0.088419117033481598
0.36989381909370422 0.17904411256313324 0.081331700086593628
0.40992647409439087 0.17285539209842682 0.081433825194835663
0.45059230923652649 0.16517564654350281 0.07555147260427475
0.48566177487373352 0.16219362616539001 0.066360294818878174
0.52499997615814209 0.15465685725212097 0.061519607901573181
0.56004899740219116 0.14509804546833038 0.062724679708480835
0.59926468133926392 0.13437500596046448 0.057536765933036804
0.63335371017456055 0.12442809343338013 0.051511436700820923
0.67077207565307617 0.11360294371843338 0.051164217293262482
0.71305149793624878 0.10674019902944565 0.051736112684011459
0.74816179275512695 0.09846813976764679 0.051348038017749786
0.78913402557373047 0.090073525905609131 0.050796568393707275
0.82230395078659058 0.083639703691005707 0.053247548639774323
0.86548197269439697 0.072549022734165192 0.05674019455909729
0.90183824300765991 0.063909314572811127 0.064093135297298431
0.93319040536880493 0.055004086345434189 0.068443626165390015
0.95443218946456909 0.051715686917304993 0.07555147260427475
0.96470588445663452 0.060600489377975464 0.096874997019767761
0.92359066009521484 0.08694852888584137 0.12806372344493866
0.056576795876026154 0.21595180034637451 0.14395426213741302
0.022732842713594437 0.2376021146774292 0.16119280457496643
0.042790036648511887 0.23411628603935242 0.15973582863807678
0.05985838919878006 0.23137255012989044 0.15789079666137695
0.078431375324726105 0.22726716101169586 0.15234886109828949
0.095227397978305817 0.22505448758602142 0.1480051726102829
0.11828022450208664 0.22230392694473267 0.14264705777168274
0.15087826550006866 0.2196214497089386 0.13052831590175629
0.18858250975608826 0.21652369201183319 0.12459150701761246
0.2218477725982666 0.21932190656661987 0.12197712808847427
0.2640727162361145 0.2205473780632019 0.11725898087024689
0.30258035659790039 0.22247412800788879 0.10710784047842026
0.33845999836921692 0.22122141718864441 0.099816173315048218
0.37962281703948975 0.21829384565353394 0.091169662773609161
0.41327616572380066 0.21593137085437775 0.087622545659542084
0.45511981844902039 0.21110430359840393 0.081889986991882324
0.49424019455909729 0.20742782950401306 0.071466505527496338
0.53600895404815674 0.20116421580314636 0.067524507641792297
0.57395833730697632 0.19328702986240387 0.073658764362335205
0.61748361587524414 0.18435455858707428 0.068933822214603424
0.65447306632995605 0.17452341318130493 0.063126355409622192
0.69370919466018677 0.16476716101169586 0.060804735869169235
0.73470866680145264 0.15670615434646606 0.058966506272554398
0.76789218187332153 0.14783495664596558 0.057087413966655731
0.80807459354400635 0.13854847848415375 0.056651689112186432
0.84080880880355835 0.12892156839370728 0.05937499925494194
0.88215553760528564 0.11719090491533279 0.060913670808076859
0.91550242900848389 0.10729166865348816 0.064848847687244415
0.94396787881851196 0.097916670143604279 0.066966235637664795
0.96300381422042847 0.095663122832775116 0.073114104568958282
0.97193628549575806 0.105780228972435 0.095976300537586212
0.93235296010971069 0.1337418407201767 0.13141340017318726
0.042034313082695007 0.2658088207244873 0.17218136787414551
0.0143382353708148 0.27922794222831726 0.18161764740943909
0.028901142999529839 0.27616420388221741 0.17918708920478821
0.044383171945810318 0.2748570442199707 0.17859476804733276
0.066237747669219971 0.27230390906333923 0.17849265038967133
0.088582523167133331 0.26770833134651184 0.17524509131908417
0.11507353186607361 0.26397058367729187 0.17120097577571869
0.14548611640930176 0.26045754551887512 0.15863969922065735
0.18161764740943909 0.25612744688987732 0.15042892098426819
0.21392972767353058 0.25819039344787598 0.14428102970123291
0.25606617331504822 0.26047793030738831 0.13688725233078003
0.29728350043296814 0.26397058367729187 0.12540850043296814
0.33762255311012268 0.26623773574829102 0.1197303906083107
0.38147470355033875 0.26695260405540466 0.11266340315341949
0.41874998807907104 0.26421567797660828 0.10220587998628616
0.461192786693573 0.25994688272476196 0.093709148466587067
0.50134807825088501 0.25624999403953552 0.080882355570793152
0.54356616735458374 0.25073528289794922 0.074325978755950928
0.58171975612640381 0.24650734663009644 0.072834976017475128
0.62395834922790527 0.2397671639919281 0.06519608199596405
0.66174429655075073 0.23253676295280457 0.056781042367219925
0.70104163885116577 0.22567401826381683 0.056311275810003281
0.74419939517974854 0.21997548639774323 0.052879903465509415
0.78333336114883423 0.21507352590560913 0.050061274319887161
0.82624590396881104 0.20859886705875397 0.049366828054189682
0.8594975471496582 0.20392157137393951 0.054473038762807846
0.90339058637619019 0.19750818610191345 0.058067809790372849
0.93927693367004395 0.19191177189350128 0.061642155051231384
0.96995502710342407 0.18811275064945221 0.073202617466449738
0.9903186559677124 0.18868464231491089 0.086989380419254303
0.99534314870834351 0.19669117033481598 0.10845588147640228
0.9639093279838562 0.21819852292537689 0.14093136787414551
0.050510622560977936 0.30526959896087646 0.18956290185451508
0.0063521242700517178 0.32352942228317261 0.2097630649805069
0.014726307243108749 0.32265794277191162 0.20654276013374329
0.025367647409439087 0.3219839334487915 0.20612064003944397
0.046160131692886353 0.31950569152832031 0.20547387003898621
0.072310730814933777 0.3145357072353363 0.20173612236976624
0.1041053906083107 0.30790442228317261 0.19707925617694855
0.13715279102325439 0.30292072892189026 0.19132624566555023
0.17459149658679962 0.29936686158180237 0.18439541757106781
0.20902776718139648 0.297991544008255 0.17458468675613403
0.25153186917304993 0.29707923531532288 0.16580882668495178
0.29005312919616699 0.30414623022079468 0.15171568095684052
0.3328431248664856 0.30851715803146362 0.14722220599651337
0.37773013114929199 0.31145152449607849 0.13774509727954865
0.41805553436279297 0.31154003739356995 0.12401960790157318
0.46349400281906128 0.31009665131568909 0.1104915514588356
0.50277101993560791 0.30619555711746216 0.090250544250011444
0.5468137264251709 0.3021446168422699 0.081678919494152069
0.58335375785827637 0.29751500487327576 0.077450983226299286
0.62471407651901245 0.2937091588973999 0.065461605787277222
0.66157406568527222 0.29007354378700256 0.052457787096500397
0.70641344785690308 0.2848447859287262 0.043014705181121826
0.75034040212631226 0.28135213255882263 0.036574076861143112
0.78858250379562378 0.28190359473228455 0.034048199653625488
0.83101171255111694 0.27854710817337036 0.031209148466587067
0.86844360828399658 0.2745506763458252 0.036887254565954208
0.91286766529083252 0.27196350693702698 0.042524509131908417
0.94979572296142578 0.2722630500793457 0.050653595477342606
0.97977256774902344 0.27235159277915955 0.061587687581777573
0.99662989377975464 0.27495911717414856 0.074557468295097351
0.99893784523010254 0.28178107738494873 0.091870911419391632
0.95608663558959961 0.30631127953529358 0.13149510324001312
0.051409315317869186 0.34754902124404907 0.21390931308269501
0.0075367647223174572 0.36537989974021912 0.23743872344493866
0.012418300844728947 0.36317402124404907 0.23278185725212097
0.018688725307583809 0.3626633882522583 0.22971813380718231
0.034068629145622253 0.36041668057441711 0.22708334028720856
0.057128265500068665 0.35612744092941284 0.22314132750034332
