snapseed-lut/snapseed-film-l05.cube
# Created by: G'MIC (https://gmic.eu)
TITLE "snapseed-film-l05"
# LUT size
LUT_3D_SIZE 5
# Data domain
# LUT data points
DOMAIN_MIN 0.000000 0.000000 0.000000
DOMAIN_MAX 0.903226 0.903226 0.903226
0.07493872195482254 0.13799019157886505 0.15802696347236633
0.11936274170875549 0.15945670008659363 0.16407270729541779
0.27432596683502197 0.1612745076417923 0.17346814274787903
0.50220590829849243 0.12450980395078659 0.18192401528358459
0.75339049100875854 0.061274509876966476 0.18345588445663452
0.091911762952804565 0.19714052975177765 0.2030637264251709
0.13848039507865906 0.21887937188148499 0.21157406270503998
0.35418707132339478 0.21680963039398193 0.18727533519268036
0.62152779102325439 0.19758987426757812 0.18225082755088806
0.88040578365325928 0.17269198596477509 0.18799020349979401
0.043504901230335236 0.40796568989753723 0.31102940440177917
0.0695057213306427 0.42698118090629578 0.32085376977920532
0.36709558963775635 0.42996323108673096 0.28370097279548645
0.66384804248809814 0.42046567797660828 0.24123774468898773
0.89023691415786743 0.42453020811080933 0.2065359503030777
0.10061274468898773 0.67365193367004395 0.49718138575553894
0.23059640824794769 0.70627045631408691 0.53292489051818848
0.41954657435417175 0.70422792434692383 0.49656862020492554
0.64485293626785278 0.69681370258331299 0.42653185129165649
0.8781658411026001 0.70708745718002319 0.36127451062202454
0.55998772382736206 0.91419523954391479 0.78265929222106934
0.60526961088180542 0.91838920116424561 0.79614651203155518
0.69021648168563843 0.91938322782516479 0.796364426612854
0.77032274007797241 0.91313314437866211 0.7813725471496582
0.86722493171691895 0.91553652286529541 0.73097085952758789
0.056311275810003281 0.1579861044883728 0.17806372046470642
0.096473313868045807 0.17411492764949799 0.17744417488574982
0.2548406720161438 0.17810457944869995 0.18094362318515778
0.47314134240150452 0.15868055820465088 0.18705065548419952
0.69677287340164185 0.085178375244140625 0.17618465423583984
0.093879356980323792 0.1938861608505249 0.22428514063358307
0.14511165022850037 0.21452432870864868 0.23690769076347351
0.34155774116516113 0.21289487183094025 0.21282678842544556
0.59912174940109253 0.19793708622455597 0.19756263494491577
0.87346816062927246 0.1869235634803772 0.19880175590515137
0.044403593987226486 0.39493462443351746 0.34426063299179077
0.11949209868907928 0.42060187458992004 0.36195534467697144
0.37242648005485535 0.41758579015731812 0.32567402720451355
0.65171569585800171 0.40696486830711365 0.27769607305526733
0.88142019510269165 0.41235023736953735 0.24107435345649719
0.079003259539604187 0.66358250379562378 0.5340278148651123
0.22960920631885529 0.69513207674026489 0.56071621179580688
0.44695669412612915 0.69470995664596558 0.54225891828536987
0.64413809776306152 0.69103354215621948 0.47428515553474426
0.87873774766921997 0.69901961088180542 0.41476714611053467
0.49921703338623047 0.9125136137008667 0.79148966073989868
0.56376403570175171 0.91553878784179688 0.80672657489776611
0.68710511922836304 0.91335785388946533 0.80757081508636475
0.77181375026702881 0.91265654563903809 0.79812777042388916
0.87034767866134644 0.91260892152786255 0.75456154346466064
0.054656863212585449 0.16531862318515778 0.20643381774425507
0.090400323271751404 0.17645014822483063 0.20357434451580048
0.25275734066963196 0.1771446019411087 0.20888480544090271
0.47977942228317261 0.16991421580314636 0.20759804546833038
0.71333742141723633 0.13508987426757812 0.19281044602394104
0.085600487887859344 0.19765114784240723 0.26125410199165344
0.14736519753932953 0.22055418789386749 0.27873092889785767
0.34148284792900085 0.20506535470485687 0.25077614188194275
0.59556776285171509 0.18829657137393951 0.23049429059028625
0.8673815131187439 0.17905773222446442 0.21121323108673096
0.042401961982250214 0.38376224040985107 0.38131126761436462
0.1251838207244873 0.4115196168422699 0.39959147572517395
0.39160540699958801 0.41562500596046448 0.3851715624332428
0.64993870258331299 0.39975491166114807 0.33805146813392639
0.88008576631546021 0.3994280993938446 0.29411765933036804
0.096568629145622253 0.66678923368453979 0.588786780834198
0.23862338066101074 0.69812095165252686 0.61290848255157471
0.47518381476402283 0.69883579015731812 0.60245096683502197
0.66243875026702881 0.69638478755950928 0.54522061347961426
0.88029009103775024 0.70285946130752563 0.4895833432674408
0.51058000326156616 0.9136233925819397 0.82820665836334229
0.54593539237976074 0.91904956102371216 0.83329927921295166
0.66844362020492554 0.91441988945007324 0.82973861694335938
0.78259801864624023 0.91648286581039429 0.82843136787414551
0.87745100259780884 0.91793298721313477 0.79115599393844604
0.057046569883823395 0.1717524528503418 0.24148283898830414
0.097957521677017212 0.18521241843700409 0.24517972767353058
0.2657475471496582 0.18100489675998688 0.24908088147640228
0.47665441036224365 0.14037990570068359 0.23492647707462311
0.71278595924377441 0.11011029779911041 0.22316177189350128
0.08118872344493866 0.2069036066532135 0.31793302297592163
0.15620914101600647 0.23105256259441376 0.3352532684803009
0.36848446726799011 0.22890113294124603 0.32093545794487
0.59736520051956177 0.16008986532688141 0.27553105354309082
0.8594975471496582 0.13712553679943085 0.25704658031463623
0.043504901230335236 0.38229167461395264 0.44485294818878174
0.10720997303724289 0.40330880880355835 0.45904818177223206
0.39736518263816833 0.41593137383460999 0.45098039507865906
0.64166665077209473 0.38259804248809814 0.40680146217346191
0.87369275093078613 0.371895432472229 0.35269609093666077
0.063051469624042511 0.63952207565307617 0.62113970518112183
0.20349264144897461 0.67485696077346802 0.65257352590560913
0.47077205777168274 0.69785541296005249 0.65563726425170898
0.67212009429931641 0.6924019455909729 0.62248772382736206
0.88174021244049072 0.68794935941696167 0.55804735422134399
0.51429736614227295 0.91576796770095825 0.86160135269165039
0.55629080533981323 0.92340004444122314 0.86245238780975342
0.65482020378112793 0.91844362020492554 0.85974264144897461
0.78674429655075073 0.9159926176071167 0.85584151744842529
0.88238704204559326 0.91661220788955688 0.83157002925872803
0.052798204123973846 0.18482434749603271 0.30283904075622559
0.10163398832082748 0.20068763196468353 0.3064882755279541
0.26176470518112183 0.20406454801559448 0.30202206969261169
0.49133989214897156 0.10964051634073257 0.2674223780632019
0.70366966724395752 0.073454521596431732 0.25730529427528381
0.090087153017520905 0.21390931308269501 0.39531591534614563
0.17352941632270813 0.23883214592933655 0.40173158049583435
0.36418163776397705 0.23888209462165833 0.38240060210227966
0.64301472902297974 0.18544389307498932 0.36375954747200012
0.83489012718200684 0.035811547189950943 0.28458377718925476
0.045261438935995102 0.38016748428344727 0.51309233903884888
0.064195260405540466 0.39644607901573181 0.52139842510223389
0.39850899577140808 0.41133579611778259 0.51548206806182861
0.66958737373352051 0.41742238402366638 0.51149922609329224
0.87173879146575928 0.31784448027610779 0.41884532570838928
0.047038398683071136 0.63631540536880493 0.6876225471496582
0.11136982589960098 0.64914900064468384 0.6887391209602356
0.41260215640068054 0.6628880500793457 0.68807190656661987
0.66742241382598877 0.68263882398605347 0.6859477162361145
0.87271243333816528 0.65479981899261475 0.62107163667678833
0.45268246531486511 0.89218407869338989 0.87206566333770752
0.49952796101570129 0.90549200773239136 0.88129311800003052
0.6364787220954895 0.91014432907104492 0.87917351722717285
0.77227669954299927 0.91660541296005249 0.88559365272521973
0.88832825422286987 0.91789895296096802 0.86981207132339478
