snapseed-lut/snapseed-film-l04.cube
# Created by: G'MIC (https://gmic.eu)
TITLE "snapseed-film-l04"
# LUT size
LUT_3D_SIZE 32
# Data domain
DOMAIN_MIN 0.0 0.0 0.0
DOMAIN_MAX 1.0 1.0 1.0
# LUT data points
0.030943626537919044 0.087254904210567474 0.018995098769664764
0.016053922474384308 0.10171568393707275 0.02242647111415863
0.019138071686029434 0.10294117778539658 0.022160949185490608
0.022283498197793961 0.1057802215218544 0.022834965959191322
0.028247548267245293 0.10330882668495178 0.022671569138765335
0.050102122128009796 0.10408497601747513 0.022671569138765335
0.085110291838645935 0.10312499850988388 0.022487744688987732
0.12444853037595749 0.10647467523813248 0.023406865075230598
0.17346814274787903 0.109375 0.025490196421742439
0.22489789128303528 0.11544117331504822 0.027675654739141464
0.2867647111415863 0.11746323853731155 0.031004901975393295
0.35218545794487 0.12001634389162064 0.035723038017749786
0.41335785388946533 0.12352941185235977 0.04221813753247261
0.47502043843269348 0.12354983389377594 0.043586604297161102
0.51685047149658203 0.1248161792755127 0.043382354080677032
0.56252038478851318 0.12514297664165497 0.043872550129890442
0.60377860069274902 0.12628675997257233 0.042626630514860153
0.64154410362243652 0.12824754416942596 0.044301468878984451
0.66874998807907104 0.12910538911819458 0.044403601437807083
0.69773286581039429 0.12849265336990356 0.044914215803146362
0.71619695425033569 0.12759396433830261 0.044342320412397385
0.73602938652038574 0.12818627059459686 0.045220587402582169
0.75106215476989746 0.13059641420841217 0.047732844948768616
0.76464462280273438 0.13075980544090271 0.049142155796289444
0.77461189031600952 0.13278186321258545 0.050571892410516739
0.78455883264541626 0.13235294818878174 0.050612743943929672
0.79319852590560913 0.1334354430437088 0.051960784941911697
0.79908090829849243 0.13180147111415863 0.049571078270673752
0.80892562866210938 0.13122957944869995 0.05138888955116272
0.81535941362380981 0.13312907516956329 0.051552284508943558
0.81979167461395264 0.1352328360080719 0.051654413342475891
0.786213219165802 0.15367646515369415 0.066973038017749786
0.035661764442920685 0.088541664183139801 0.016973039135336876
0.0143382353708148 0.10575980693101883 0.02083333395421505
0.018035130575299263 0.10708742588758469 0.020853759720921516
0.020996730774641037 0.10857842862606049 0.021405227482318878
0.027512254193425179 0.10649509727954865 0.02242647111415863
0.04667074978351593 0.10704656690359116 0.022651143372058868
0.082107841968536377 0.10674019902944565 0.022058824077248573
0.12622548639774323 0.11039624363183975 0.022855391725897789
0.17573529481887817 0.11390931159257889 0.025674019008874893
0.2261846512556076 0.118300661444664 0.02708333358168602
0.28835785388946533 0.12144608050584793 0.030147058889269829
0.3551061749458313 0.12414215505123138 0.032516341656446457
0.41562500596046448 0.12689951062202454 0.03694852814078331
0.47667482495307922 0.12700164318084717 0.039419937878847122
0.51819854974746704 0.12861520051956177 0.038174018263816833
0.5656658411026001 0.12818627059459686 0.041441991925239563
0.6052899956703186 0.12935048341751099 0.038480393588542938
0.64301472902297974 0.13088235259056091 0.038970589637756348
0.67030233144760132 0.13363970816135406 0.039052288979291916
0.69871324300765991 0.13259804248809814 0.038909312337636948
0.7171364426612854 0.13167892396450043 0.039338234812021255
0.73602938652038574 0.13314950466156006 0.040379900485277176
0.75053101778030396 0.13539624214172363 0.041850488632917404
0.76599264144897461 0.13713234663009644 0.043688725680112839
0.77518379688262939 0.13766340911388397 0.043709147721529007
0.78584557771682739 0.13707107305526733 0.044975489377975464
0.79493468999862671 0.13713234663009644 0.045138891786336899
0.80091911554336548 0.13682597875595093 0.044730391353368759
0.80868053436279297 0.13711191713809967 0.045077614486217499
0.81366419792175293 0.13833741843700409 0.045077614486217499
0.81795340776443481 0.14215686917304993 0.045036762952804565
0.78480392694473267 0.16109068691730499 0.061090685427188873
0.040870096534490585 0.088643796741962433 0.03590686246752739
0.026082515716552734 0.10294117778539658 0.039072711020708084
0.030514705926179886 0.1046023964881897 0.038623366504907608
0.035879630595445633 0.10467728227376938 0.039488017559051514
0.046895422041416168 0.10189951211214066 0.040645428001880646
0.071684367954730988 0.10521513968706131 0.041135624051094055
0.11053921282291412 0.10714869946241379 0.042933005839586258
0.15443898737430573 0.10953159630298615 0.043307460844516754
0.20772059261798859 0.11139705777168274 0.045915029942989349
0.26179873943328857 0.11623093485832214 0.049489378929138184
0.32632759213447571 0.11909722536802292 0.053125001490116119
0.38977396488189697 0.12283497303724289 0.05680147185921669
0.4497140645980835 0.12591911852359772 0.060600489377975464
0.51224809885025024 0.12561275064945221 0.063922934234142303
0.55678099393844604 0.12718544900417328 0.063133172690868378
0.60369008779525757 0.12736926972866058 0.064453974366188049
0.64262664318084717 0.12813180685043335 0.062030225992202759
0.67922794818878174 0.12855392694473267 0.064379088580608368
0.70283907651901245 0.12922793626785278 0.063357844948768616
0.73120921850204468 0.12814542651176453 0.063725493848323822
0.7482026219367981 0.12870369851589203 0.064576528966426849
0.76376628875732422 0.12806372344493866 0.067585781216621399
0.77776420116424561 0.12947985529899597 0.068790853023529053
0.79168713092803955 0.13049426674842834 0.069444447755813599
0.80123913288116455 0.13151551783084869 0.070370368659496307
0.80888479948043823 0.13073939085006714 0.068402774631977081
0.81781721115112305 0.13199210166931152 0.068852126598358154
0.82383579015731812 0.13233251869678497 0.068892978131771088
0.82999730110168457 0.13166530430316925 0.070969492197036743
0.83489924669265747 0.13350354135036469 0.071541391313076019
0.83811277151107788 0.13700979948043823 0.070200160145759583
0.81321483850479126 0.15224672853946686 0.081699348986148834
0.090012252330780029 0.054820261895656586 0.078492648899555206
0.059844769537448883 0.073325164616107941 0.094566985964775085
0.072215422987937927 0.074659585952758789 0.095356747508049011
0.08485838770866394 0.074754901230335236 0.095581427216529846
0.11092729121446609 0.070118464529514313 0.095710784196853638
0.14222492277622223 0.07243327796459198 0.098046019673347473
0.18400734663009644 0.076000817120075226 0.10145016014575958
0.22826798260211945 0.076776959002017975 0.10347903519868851
0.28186273574829102 0.079718135297298431 0.10827206075191498
0.33592730760574341 0.084483936429023743 0.11145833134651184
0.40314540266990662 0.088459961116313934 0.11680963635444641
0.4719771146774292 0.089385896921157837 0.12182053178548813
0.53180146217346191 0.091768793761730194 0.12485701590776443
0.59238147735595703 0.090577341616153717 0.12659314274787903
0.63588637113571167 0.092524506151676178 0.12853348255157471
0.68165844678878784 0.09340958297252655 0.13161084055900574
0.71860700845718384 0.095458880066871643 0.12877179682254791
0.75365602970123291 0.095976300537586212 0.12947304546833038
0.77721267938613892 0.094247005879878998 0.13075299561023712
0.80437088012695312 0.093586601316928864 0.13169935345649719
0.82149368524551392 0.094151690602302551 0.13149510324001312
0.83686685562133789 0.093586593866348267 0.13153594732284546
0.84933280944824219 0.095220588147640228 0.13188998401165009
0.86002856492996216 0.093974679708480835 0.13096405565738678
0.86730664968490601 0.096296302974224091 0.13284994661808014
0.87624597549438477 0.096874997019767761 0.13382352888584137
0.88457930088043213 0.097337968647480011 0.13466775417327881
0.89270836114883423 0.096977122128009796 0.13457924127578735
0.89977532625198364 0.095778867602348328 0.13530772924423218
0.90403729677200317 0.096663951873779297 0.13474945724010468
0.90598446130752563 0.09950980544090271 0.1332516223192215
0.87375402450561523 0.11964868754148483 0.1493055522441864
0.092585787177085876 0.074448525905609131 0.080759800970554352
0.062745101749897003 0.093688726425170898 0.097732841968536377
0.074448525905609131 0.095036767423152924 0.097283504903316498
0.088684640824794769 0.095894604921340942 0.097385622560977936
0.1144607812166214 0.093688726425170898 0.095710784196853638
0.14497548341751099 0.096548199653625488 0.098999187350273132
0.18621324002742767 0.099142156541347504 0.10477941483259201
0.23086193203926086 0.098876640200614929 0.10367646813392639
0.28498774766921997 0.10049019753932953 0.1092524528503418
0.33811274170875549 0.10265522450208664 0.10935457795858383
0.40588235855102539 0.10710784047842026 0.11709558963775635
0.47436684370040894 0.10833333432674408 0.12075164169073105
0.53357845544815063 0.1094362735748291 0.1246936246752739
0.59417891502380371 0.10872140526771545 0.12530636787414551
0.64093136787414551 0.11017157137393951 0.12910538911819458
0.68776553869247437 0.10998774319887161 0.13141338527202606
0.72665441036224365 0.11168301105499268 0.13037173449993134
0.7607843279838562 0.11109068989753723 0.13192401826381683
0.78261846303939819 0.11245914548635483 0.1300857812166214
0.8065563440322876 0.11194852739572525 0.12886029481887817
0.82469362020492554 0.11190767586231232 0.13094362616539001
0.84172791242599487 0.11286764591932297 0.13302695751190186
0.85386031866073608 0.11299019306898117 0.13447710871696472
0.86292892694473267 0.1092524528503418 0.13075980544090271
0.87201797962188721 0.11100899428129196 0.13274101912975311
0.8809436559677124 0.11053921282291412 0.13382352888584137
0.88788807392120361 0.11203022301197052 0.1332516223192215
0.89319854974746704 0.11194852739572525 0.13186274468898773
0.89861106872558594 0.11156046390533447 0.13118872046470642
0.90300244092941284 0.11423611640930176 0.13129083812236786
0.90778183937072754 0.11948529630899429 0.13290441036224365
0.87408089637756348 0.13915440440177917 0.14938725531101227
0.087050661444664001 0.099366836249828339 0.08803105354309082
0.063255719840526581 0.11572711914777756 0.10106208920478821
0.07546977698802948 0.11759940534830093 0.10104847699403763
0.089474394917488098 0.11926742643117905 0.10170207172632217
0.11366421729326248 0.11950571089982986 0.10040849447250366
0.14297385513782501 0.12066993117332458 0.10261437296867371
0.18327206373214722 0.12130310386419296 0.10524918884038925
0.22963644564151764 0.12124183773994446 0.10661084204912186
0.28533494472503662 0.12091503292322159 0.11209150403738022
0.34176880121231079 0.12290304899215698 0.11363699287176132
0.41013073921203613 0.12424428015947342 0.11813725531101227
0.47083333134651184 0.1261778324842453 0.12028186023235321
0.53080064058303833 0.12757353484630585 0.12432598322629929
0.59307599067687988 0.12750545144081116 0.12641611695289612
0.643729567527771 0.12765522301197052 0.12977941334247589
0.69142156839370728 0.12862880527973175 0.13174702227115631
0.72784590721130371 0.12888072431087494 0.13056915998458862
0.76268380880355835 0.12845179438591003 0.13114789128303528
0.78606337308883667 0.12730118632316589 0.13156320154666901
0.81282675266265869 0.12571486830711365 0.13253676891326904
0.82945936918258667 0.12644335627555847 0.1344226598739624
0.84613972902297974 0.12706291675567627 0.13617239892482758
0.85717594623565674 0.12869690358638763 0.13598856329917908
0.86658495664596558 0.12657271325588226 0.13343545794487
0.87491148710250854 0.12778457999229431 0.13408224284648895
0.88290441036224365 0.12930963933467865 0.13537582755088806
0.89051610231399536 0.12989515066146851 0.13583877682685852
0.89550650119781494 0.12973856925964355 0.13545751571655273
0.89908772706985474 0.13129083812236786 0.13626769185066223
0.90195393562316895 0.13274101912975311 0.13572986423969269
0.90694445371627808 0.13848039507865906 0.13660131394863129
0.88370096683502197 0.15543299913406372 0.14975489675998688
0.092340685427188873 0.12843137979507446 0.08645833283662796
0.062867648899555206 0.14883577823638916 0.10294117778539658
0.07708333432674408 0.15130719542503357 0.1059640571475029
0.090665854513645172 0.15488153696060181 0.10706698894500732
0.1145220622420311 0.15539215505123138 0.10649509727954865
0.14146241545677185 0.15304328501224518 0.10551470518112183
0.17800244688987732 0.1511029452085495 0.10514705628156662
0.22504083812236786 0.15196079015731812 0.10819036513566971
0.27922794222831726 0.15159313380718231 0.11249999701976776
0.3345792293548584 0.1530228853225708 0.11370506882667542
0.4014093279838562 0.15398284792900085 0.11856617778539658
0.46472629904747009 0.15287990868091583 0.12064950913190842
0.52334558963775635 0.15459558367729187 0.12377450615167618
0.58621323108673096 0.15369690954685211 0.12514297664165497
0.64013481140136719 0.15232843160629272 0.12984068691730499
0.6896854043006897 0.15202206373214722 0.13466094434261322
0.72479575872421265 0.15140931308269501 0.13122957944869995
0.75949752330780029 0.15091912448406219 0.13272058963775635
0.78517156839370728 0.14934641122817993 0.1353553980588913
0.81023281812667847 0.14828431606292725 0.1353553980588913
0.82747143507003784 0.1492442786693573 0.13647875189781189
0.84785538911819458 0.14656862616539001 0.13768382370471954
0.86011028289794922 0.14761029183864594 0.13670343160629272
0.8700980544090271 0.14810049533843994 0.13719362020492554
0.87845182418823242 0.15112337470054626 0.13944035768508911
0.88627451658248901 0.15312500298023224 0.13854166865348816
0.8933415412902832 0.1530228853225708 0.13762255012989044
0.90079659223556519 0.15269607305526733 0.13639706373214722
0.90394198894500732 0.15498366951942444 0.13782680034637451
0.90661764144897461 0.15849673748016357 0.13874591886997223
0.91133576631546021 0.16439950466156006 0.13829657435417175
0.879963219165802 0.18615196645259857 0.15692402422428131
0.093382351100444794 0.16235701739788055 0.087561272084712982
0.062663398683071136 0.18296568095684052 0.10388071835041046
0.077886708080768585 0.18745915591716766 0.10774100571870804
0.090802013874053955 0.19176878035068512 0.10867373645305634
0.11198937892913818 0.19234068691730499 0.10588235408067703
0.13734340667724609 0.18967865407466888 0.10332243889570236
0.17395833134651184 0.1855187863111496 0.10259395092725754
0.2174496203660965 0.18574348092079163 0.10585512965917587
0.27079245448112488 0.18398693203926086 0.10861928761005402
0.32809096574783325 0.18444988131523132 0.10994008183479309
0.39405637979507446 0.18449755012989044 0.11540032178163528
0.45605936646461487 0.18332652747631073 0.1198529377579689
0.51372551918029785 0.18345588445663452 0.12124183773994446
0.57713776826858521 0.18206018209457397 0.12366557121276855
0.63090282678604126 0.1800653487443924 0.12783905863761902
0.6803513765335083 0.17936410009860992 0.13088235259056091
0.71729308366775513 0.17771649360656738 0.12912581861019135
0.75339049100875854 0.17589870095252991 0.1303921639919281
0.78065770864486694 0.17334559559822083 0.13055554032325745
0.80602532625198364 0.17152777314186096 0.12920752167701721
0.82216775417327881 0.17126907408237457 0.1300245076417923
0.84252452850341797 0.170138880610466 0.13171976804733276
0.85471129417419434 0.16940358281135559 0.13136574625968933
0.86860698461532593 0.17150735855102539 0.13333334028720856
0.87642979621887207 0.17310048639774323 0.13404139876365662
0.88594764471054077 0.17344769835472107 0.13484477996826172
0.8919798731803894 0.17463235557079315 0.13468137383460999
0.89691579341888428 0.17636847496032715 0.13466094434261322
0.90163391828536987 0.17952069640159607 0.13568900525569916
0.90537852048873901 0.18251635134220123 0.13563454151153564
0.91241830587387085 0.19005309045314789 0.13799019157886505
0.88582509756088257 0.21051877737045288 0.15304328501224518
0.09270833432674408 0.20986519753932953 0.10367646813392639
0.071629904210567474 0.22647058963775635 0.11740195751190186
0.085539214313030243 0.23090279102325439 0.12017973512411118
0.09918300062417984 0.23482435941696167 0.12218137085437775
0.12107843160629272 0.23468136787414551 0.12046568840742111
0.14705882966518402 0.23388479650020599 0.12022058665752411
0.18014705181121826 0.23063725233078003 0.11862745136022568
0.22132353484630585 0.22708334028720856 0.11574754863977432
0.27199754118919373 0.22156862914562225 0.11703431606292725
0.32771646976470947 0.22122141718864441 0.11533904820680618
0.39405637979507446 0.22071078419685364 0.11954656988382339
0.45571893453598022 0.22009803354740143 0.12181372195482254
0.51145833730697632 0.21850490570068359 0.12248774617910385
0.57446891069412231 0.21774919331073761 0.12393791228532791
0.62910538911819458 0.21403186023235321 0.12800244987010956
0.6789623498916626 0.21190768480300903 0.12867647409439087
0.71544116735458374 0.21188725531101227 0.12669526040554047
0.75220590829849243 0.2083333283662796 0.12879902124404907
0.77863568067550659 0.20369689166545868 0.12898284196853638
0.80392158031463623 0.20165440440177917 0.12640930712223053
0.82103759050369263 0.20157270133495331 0.12689951062202454
0.84191179275512695 0.20000000298023224 0.12879902124404907
0.85484069585800171 0.20044936239719391 0.1284109354019165
0.86636030673980713 0.20122548937797546 0.12910538911819458
0.87301880121231079 0.20247142016887665 0.13018789887428284
0.88167893886566162 0.20484068989753723 0.13235294818878174
0.88915443420410156 0.20627044141292572 0.13265931606292725
0.89742648601531982 0.20667892694473267 0.13308823108673096
0.89940774440765381 0.21170343458652496 0.13429328799247742
0.90177696943283081 0.21552287042140961 0.13431373238563538
0.90900737047195435 0.22303920984268188 0.13676470518112183
0.87708336114883423 0.24601715803146362 0.15569852292537689
0.10674019902944565 0.25026553869247437 0.10692401975393295
0.076286762952804565 0.27122139930725098 0.12346813827753067
0.09061819314956665 0.27513620257377625 0.12642292678356171
0.10347222536802292 0.27936410903930664 0.12788672745227814
0.1234477162361145 0.27992236614227295 0.12540850043296814
0.14884939789772034 0.27957513928413391 0.12450980395078659
0.18310865759849548 0.27663397789001465 0.12293709069490433
0.2195533812046051 0.2711397111415863 0.12157543748617172
0.26803511381149292 0.26503264904022217 0.12091502547264099
0.32261711359024048 0.26301741600036621 0.12039760500192642
0.38592725992202759 0.26070263981819153 0.12203840166330338
0.44878816604614258 0.26069581508636475 0.12615740299224854
0.50445258617401123 0.25831294059753418 0.12532679736614227
0.56628537178039551 0.25593680143356323 0.12707652151584625
0.6228145956993103 0.25116422772407532 0.1300245076417923
0.67493873834609985 0.24828431010246277 0.13370779156684875
0.71324211359024048 0.24750816822052002 0.1312568187713623
0.7498774528503418 0.24375000596046448 0.1304534375667572
0.77811819314956665 0.23774509131908417 0.1313248872756958
0.80296158790588379 0.23562093079090118 0.12971813976764679
0.81906318664550781 0.23417074978351593 0.12898965179920197
0.84140115976333618 0.23163808882236481 0.13220995664596558
0.85363560914993286 0.23157680034637451 0.13246868550777435
0.86566579341888428 0.23169934749603271 0.13302695751190186
0.87235158681869507 0.23385757207870483 0.13340142369270325
0.87998366355895996 0.23445668816566467 0.13243463635444641
0.88868468999862671 0.23615196347236633 0.13459287583827972
0.89440363645553589 0.23825572431087494 0.13494691252708435
0.8985634446144104 0.24221813678741455 0.13611112534999847
0.90275055170059204 0.24669118225574493 0.13714596629142761
0.90972226858139038 0.25453430414199829 0.13988970220088959
0.87816578149795532 0.27890112996101379 0.15861926972866058
0.10477941483259201 0.3125 0.11881127208471298
0.08235294371843338 0.32922795414924622 0.13155637681484222
0.093913398683071136 0.3336397111415863 0.13243463635444641
0.10723039507865906 0.33688724040985107 0.13425244390964508
0.12665441632270813 0.33743873238563538 0.13272058963775635
0.1507352888584137 0.335682213306427 0.13139298558235168
0.18382352590560913 0.33216911554336548 0.13106617331504822
0.21699348092079163 0.32822713255882263 0.12781862914562225
0.26366421580314636 0.32199755311012268 0.12745098769664764
0.31513479351997375 0.31809639930725098 0.12420342862606049
0.37745097279548645 0.31292891502380371 0.1251225471496582
0.43997138738632202 0.31035539507865906 0.12863563001155853
0.49736520648002625 0.30863970518112183 0.1301470547914505
0.56072306632995605 0.30684232711791992 0.13198529183864594
0.61685049533843994 0.3023284375667572 0.1351102888584137
0.6696283221244812 0.30081698298454285 0.1372140496969223
0.7090686559677124 0.29989784955978394 0.13582515716552734
0.74736517667770386 0.29589459300041199 0.13713234663009644
0.77743053436279297 0.28956291079521179 0.13607025146484375
0.80435049533843994 0.28535538911819458 0.13247549533843994
0.82183414697647095 0.283476322889328 0.13253676891326904
0.84375 0.27898284792900085 0.13437500596046448
0.8569445013999939 0.27763479948043823 0.13419117033481598
0.86813724040985107 0.27610293030738831 0.13290441036224365
0.87604165077209473 0.27714461088180542 0.13163807988166809
0.88339459896087646 0.27812498807907104 0.13204656541347504
0.89140111207962036 0.27971813082695007 0.13272058963775635
0.89767158031463623 0.28161764144897461 0.13376225531101227
0.90161353349685669 0.28574347496032715 0.13484476506710052
0.90571892261505127 0.29084965586662292 0.13506945967674255
0.9121936559677124 0.29877451062202454 0.13731618225574493
0.88921570777893066 0.31881126761436462 0.15196079015731812
0.12064950913190842 0.36505308747291565 0.12240605056285858
0.087826795876026154 0.38539624214172363 0.13627451658248901
0.09952341765165329 0.38920885324478149 0.13800381124019623
0.11119962483644485 0.3924291729927063 0.13942675292491913
0.13037173449993134 0.39232024550437927 0.14029818773269653
0.15202206373214722 0.39108797907829285 0.1390114426612854
0.18082107603549957 0.38780638575553894 0.13619279861450195
0.21317401528358459 0.38518518209457397 0.134177565574646
0.25902774930000305 0.37959557771682739 0.13361926376819611
0.30936139822006226 0.37433955073356628 0.12958197295665741
0.36946484446525574 0.36819854378700256 0.12851308286190033
0.43141338229179382 0.36537310481071472 0.13068491220474243
0.48792892694473267 0.36331698298454285 0.13071896135807037
0.55160677433013916 0.36217322945594788 0.13178785145282745
0.6069445013999939 0.35882353782653809 0.1351102888584137
0.66128134727478027 0.35597085952758789 0.13850761950016022
0.70563042163848877 0.35469770431518555 0.13781318068504333
0.74730390310287476 0.34989786148071289 0.13796976208686829
0.77681094408035278 0.3425041139125824 0.13713917136192322
0.80461603403091431 0.33815360069274902 0.13455882668495178
0.82262390851974487 0.33568897843360901 0.13309505581855774
0.84193217754364014 0.33125001192092896 0.13543710112571716
0.85419386625289917 0.32995641231536865 0.13514433801174164
0.8664623498916626 0.32843136787414551 0.13406862318515778
0.87315493822097778 0.32822713255882263 0.13432733714580536
0.88008576631546021 0.32808414101600647 0.13513071835041046
0.88773149251937866 0.32976576685905457 0.13602940738201141
0.89448529481887817 0.33110702037811279 0.13764296472072601
0.89805281162261963 0.33653321862220764 0.13799700140953064
0.90236926078796387 0.3428853452205658 0.13933824002742767
0.9095383882522583 0.35044935345649719 0.14176879823207855
0.87716507911682129 0.37305966019630432 0.1595383882522583
0.12450980395078659 0.41256126761436462 0.12984068691730499
0.091666668653488159 0.43449753522872925 0.14540441334247589
0.10138888657093048 0.43829655647277832 0.14587417244911194
0.1129085049033165 0.44064542651176453 0.14746731519699097
0.13174019753932953 0.43799018859863281 0.14761029183864594
0.15118464827537537 0.43568217754364014 0.14554738998413086
0.17800244688987732 0.43247547745704651 0.14319853484630585
0.21333740651607513 0.43133172392845154 0.1439133882522583
0.2608456015586853 0.42794117331504822 0.14417892694473267
0.30888479948043823 0.42318218946456909 0.13921569287776947
0.36525735259056091 0.41519609093666077 0.13743872940540314
0.42465275526046753 0.41203024983406067 0.13504901528358459
