snapseed-lut/snapseed-film-l01.cube
# Created by: G'MIC (https://gmic.eu)
TITLE "snapseed-film-l01"
# LUT size
LUT_3D_SIZE 5
# Data domain
# LUT data points
DOMAIN_MIN 0.000000 0.000000 0.000000
DOMAIN_MAX 0.903226 0.903226 0.903226
0.2342524528503418 0.27904412150382996 0.21446079015731812
0.23433414101600647 0.28468137979507446 0.22577613592147827
0.45502451062202454 0.33131128549575806 0.26587009429931641
0.71225488185882568 0.38909313082695007 0.26801469922065735
0.7845996618270874 0.39303511381149292 0.27085375785827637
0.28680557012557983 0.28531453013420105 0.2607843279838562
0.27357023954391479 0.29168707132339478 0.26646241545677185
0.47743058204650879 0.32634803652763367 0.27724674344062805
0.76033490896224976 0.37418302893638611 0.31217318773269653
0.82975220680236816 0.38732978701591492 0.32184094190597534
0.34644606709480286 0.45906862616539001 0.32536765933036804
0.33092322945594788 0.46499183773994446 0.33631539344787598
0.47150734066963196 0.4896446168422699 0.30067402124404907
0.76102942228317261 0.52340686321258545 0.30625000596046448
0.84385210275650024 0.53133165836334229 0.32081294059753418
0.40661764144897461 0.66207104921340942 0.40600490570068359
0.39456701278686523 0.66323530673980713 0.41452205181121826
0.49295341968536377 0.68026959896087646 0.38939949870109558
0.7765318751335144 0.74810051918029785 0.31341910362243652
0.87945264577865601 0.74822306632995605 0.31811684370040894
0.43558007478713989 0.75026553869247437 0.4311683177947998
0.42433962225914001 0.75299561023712158 0.44988426566123962
0.51613563299179077 0.76893383264541626 0.44189134240150452
0.77032268047332764 0.86695259809494019 0.32301878929138184
0.87898963689804077 0.86653727293014526 0.31724536418914795
0.23149509727954865 0.30535128712654114 0.2792687714099884
0.22379492223262787 0.3071078360080719 0.27517703175544739
0.44105392694473267 0.33368057012557983 0.30044934153556824
0.68866419792175293 0.37645018100738525 0.29272878170013428
0.76412028074264526 0.38257759809494019 0.29253816604614258
0.29106757044792175 0.31476715207099915 0.34737884998321533
0.27725806832313538 0.31758123636245728 0.3461487889289856
0.48470181226730347 0.3304193913936615 0.3454793393611908
0.76043033599853516 0.36594498157501221 0.36169660091400146
0.83051013946533203 0.37647512555122375 0.36628088355064392
0.32305964827537537 0.50337010622024536 0.4152982234954834
0.30885076522827148 0.49921706318855286 0.4151756763458252
0.48576390743255615 0.50639301538467407 0.42203840613365173
0.77020019292831421 0.5469362735748291 0.41335785388946533
0.85339057445526123 0.55441856384277344 0.41725900769233704
0.38504901528358459 0.69808006286621094 0.48839870095252991
0.37832921743392944 0.69146239757537842 0.49000546336174011
0.52624589204788208 0.70441174507141113 0.51055967807769775
0.7844158411026001 0.76781046390533447 0.44579246640205383
0.88255715370178223 0.76765388250350952 0.43588647246360779
0.41673475503921509 0.76576799154281616 0.50620913505554199
0.40782496333122253 0.7704157829284668 0.5239061713218689
0.54688864946365356 0.78888887166976929 0.55802011489868164
0.78074616193771362 0.87010484933853149 0.46481481194496155
0.88729345798492432 0.87601220607757568 0.45287308096885681
0.24160538613796234 0.34454655647277832 0.41225489974021912
0.23284313082695007 0.3485906720161438 0.40692400932312012
0.43658089637756348 0.33020833134651184 0.42107844352722168
0.69068628549575806 0.36746323108673096 0.41550245881080627
0.76597219705581665 0.37516340613365173 0.41249999403953552
0.32512253522872925 0.34714049100875854 0.48602941632270813
0.30913671851158142 0.3491421639919281 0.485859215259552
0.49229982495307922 0.33041256666183472 0.48843953013420105
0.76715683937072754 0.36276552081108093 0.48574343323707581
0.83651959896087646 0.37087419629096985 0.48062363266944885
0.31311273574829102 0.54160541296005249 0.55949753522872925
0.29642564058303833 0.54274916648864746 0.55300247669219971
0.49344363808631897 0.54240196943283081 0.55729168653488159
0.78265929222106934 0.56709557771682739 0.55919116735458374
0.8690563440322876 0.57783907651901245 0.55876225233078003
0.33094361424446106 0.75790441036224365 0.61084556579589844
0.32191586494445801 0.75959962606430054 0.61296981573104858
0.5156862735748291 0.7441176176071167 0.61966913938522339
0.791911780834198 0.7860906720161438 0.60582107305526733
0.89037990570068359 0.78811275959014893 0.59411764144897461
0.35972222685813904 0.82508170604705811 0.60657685995101929
0.34643924236297607 0.82906460762023926 0.62013202905654907
0.53196483850479126 0.81989377737045288 0.64871323108673096
0.79252451658248901 0.87412172555923462 0.63439548015594482
0.89460784196853638 0.88668298721313477 0.6075708270072937
0.25863969326019287 0.38247549533843994 0.57199752330780029
0.24632352590560913 0.38984885811805725 0.56505310535430908
0.41476714611053467 0.36366420984268188 0.56096816062927246
0.70618873834609985 0.34816175699234009 0.57628679275512695
0.77604168653488159 0.36039626598358154 0.55234885215759277
0.35976308584213257 0.38265931606292725 0.64924430847167969
0.34456700086593628 0.39102670550346375 0.64677286148071289
0.50612747669219971 0.38321077823638916 0.63927698135375977
0.7909313440322876 0.34703841805458069 0.65927284955978394
0.8570670485496521 0.35733932256698608 0.64358657598495483
0.34871324896812439 0.56580883264541626 0.71176469326019287
0.33018791675567627 0.56707519292831421 0.71092730760574341
0.5155024528503418 0.58713233470916748 0.71243870258331299
0.79662990570068359 0.57009804248809814 0.72745096683502197
0.8813316822052002 0.57608252763748169 0.71576803922653198
0.31642156839370728 0.7813112735748291 0.76825982332229614
0.30314540863037109 0.78696900606155396 0.77751225233078003
0.48725488781929016 0.7920956015586853 0.77518379688262939
0.80496323108673096 0.79889708757400513 0.78363972902297974
0.89797794818878174 0.81407272815704346 0.77804332971572876
0.32228350639343262 0.86595183610916138 0.76926064491271973
0.29965275526046753 0.87815231084823608 0.77794116735458374
0.47442811727523804 0.88104569911956787 0.78852128982543945
0.81215280294418335 0.88357841968536377 0.81676876544952393
0.90502452850341797 0.89929193258285522 0.79196619987487793
0.28929740190505981 0.41233661770820618 0.71417486667633057
0.2797045111656189 0.41841641068458557 0.70689678192138672
0.44248366355895996 0.41615605354309082 0.70641344785690308
0.70763891935348511 0.35631126165390015 0.72751224040985107
0.78474265336990356 0.35371053218841553 0.72435319423675537
0.38612473011016846 0.41476714611053467 0.77209961414337158
0.36870461702346802 0.42100581526756287 0.76864564418792725
0.52860838174819946 0.42403322458267212 0.76340550184249878
0.78373503684997559 0.36480119824409485 0.81254082918167114
0.86965548992156982 0.35486564040184021 0.81581789255142212
0.37416258454322815 0.58729571104049683 0.80445259809494019
0.36026006937026978 0.59366828203201294 0.8105120062828064
0.54223853349685669 0.61995500326156616 0.82826799154281616
0.80212414264678955 0.60514706373214722 0.85328835248947144
0.88877999782562256 0.58315634727478027 0.86128813028335571
0.32718545198440552 0.78531455993652344 0.85316580533981323
0.31687772274017334 0.79238831996917725 0.86225491762161255
0.4998161792755127 0.79808002710342407 0.87232440710067749
0.81525737047195435 0.82465273141860962 0.88625413179397583
0.90919798612594604 0.81872951984405518 0.89666396379470825
0.31977805495262146 0.86859339475631714 0.86360979080200195
0.30387163162231445 0.87950253486633301 0.8770107626914978
0.46982571482658386 0.88622003793716431 0.88115465641021729
0.80350631475448608 0.90638619661331177 0.89800524711608887
0.90786135196685791 0.90684229135513306 0.90276646614074707
