snapseed-lut/snapseed-film-x03.cube
# Created by: G'MIC (https://gmic.eu)
TITLE "snapseed-film-x03"
# LUT size
LUT_3D_SIZE 32
# Data domain
DOMAIN_MIN 0.0 0.0 0.0
DOMAIN_MAX 1.0 1.0 1.0
# LUT data points
0.0091299023479223251 0.038235295563936234 0.0055147060193121433
0.0053308825008571148 0.048958335071802139 0.010845588520169258
0.010518791154026985 0.052593957632780075 0.013500817120075226
0.014399509876966476 0.054391335695981979 0.014542482793331146
0.018198529258370399 0.057659313082695007 0.01770833320915699
0.024632353335618973 0.059334151446819305 0.020792484283447266
0.031188724562525749 0.06139705702662468 0.023406863212585449
0.042830880731344223 0.069260619580745697 0.019076796248555183
0.070159316062927246 0.076899506151676178 0.020465686917304993
0.098284311592578888 0.084252454340457916 0.018913399428129196
0.13492646813392639 0.09068627655506134 0.016360294073820114
0.17334559559822083 0.097630724310874939 0.010886437259614468
0.2132965624332428 0.10061274468898773 0.011151961050927639
0.2568831741809845 0.10449346154928207 0.010559639893472195
0.2921568751335144 0.11011029779911041 0.011397059075534344
0.33680558204650879 0.11491012573242188 0.013623365201056004
0.37837010622024536 0.1217728778719902 0.014869280159473419
0.41868871450424194 0.1248774528503418 0.017218137159943581
0.44850900769233704 0.12881945073604584 0.015870098024606705
0.48394608497619629 0.13174019753932953 0.015012254938483238
0.51435869932174683 0.13306781649589539 0.017953431233763695
0.54522061347961426 0.13425244390964508 0.024019608274102211
0.57118052244186401 0.13788807392120361 0.027185458689928055
0.59270834922790527 0.14234068989753723 0.027144607156515121
0.61623775959014893 0.14481210708618164 0.025816991925239563
0.63688725233078003 0.14834558963775635 0.029350489377975464
0.65763884782791138 0.15198120474815369 0.03145425021648407
0.67310047149658203 0.15588235855102539 0.03229166567325592
0.69566988945007324 0.16219362616539001 0.035314545035362244
0.71239787340164185 0.16815769672393799 0.040870096534490585
0.73272061347961426 0.17303921282291412 0.047120098024606705
0.71697306632995605 0.19215686619281769 0.071262255311012268
0.0099877454340457916 0.038174018263816833 0.0080269612371921539
0.0033088235650211573 0.052512254565954208 0.013664215803146362
0.0085375811904668808 0.055943626910448074 0.014583333395421505
0.013337417505681515 0.056352123618125916 0.015359477140009403
0.018566176295280457 0.057598039507865906 0.018382353708148003
0.024305554106831551 0.059150330722332001 0.02062908373773098
0.03125 0.062071077525615692 0.024019608274102211
0.04146241769194603 0.071977123618125916 0.017238562926650047
0.071017153561115265 0.078186273574829102 0.019424019381403923
0.097834974527359009 0.086008988320827484 0.018443627282977104
0.13700979948043823 0.091544114053249359 0.018137255683541298
0.17759396135807037 0.098529413342475891 0.013357843272387981
0.21642157435417175 0.10196078568696976 0.014031862840056419
0.25959965586662292 0.10561683028936386 0.014767157845199108
0.29491421580314636 0.10986519604921341 0.0143382353708148
0.33925655484199524 0.11358251422643661 0.01701388880610466
0.37753266096115112 0.11975082010030746 0.015931373462080956
0.41764706373214722 0.12542891502380371 0.01979166641831398
0.44803920388221741 0.12918709218502045 0.017156863585114479
0.48370099067687988 0.13155637681484222 0.017769608646631241
0.51409316062927246 0.13388480246067047 0.022181373089551926
0.54332107305526733 0.1356004923582077 0.027450980618596077
0.57015931606292725 0.13976715505123138 0.03049427829682827
0.59319853782653809 0.14240196347236633 0.030882352963089943
0.61691176891326904 0.14652778208255768 0.03110702708363533
0.63486522436141968 0.15042892098426819 0.030453430488705635
0.6561274528503418 0.15533088147640228 0.032271243631839752
0.67107844352722168 0.15851715207099915 0.032720588147640228
0.69025737047195435 0.16495098173618317 0.037091504782438278
0.70798611640930176 0.17042484879493713 0.041421569883823395
0.7294730544090271 0.1772671639919281 0.045404411852359772
0.71311277151107788 0.19564950466156006 0.069485291838645935
0.0073325163684785366 0.034987743943929672 0.010151143185794353
0.0042483662255108356 0.045649509876966476 0.014460784383118153
0.012111927382647991 0.049598313868045807 0.016224127262830734
0.019961873069405556 0.053261168301105499 0.017136437818408012
0.028513070195913315 0.05529002845287323 0.017524510622024536
0.039270151406526566 0.057570803910493851 0.019151687622070312
0.052839051932096481 0.060069438070058823 0.020322712138295174
0.068266607820987701 0.068198531866073608 0.017129629850387573
0.097201801836490631 0.074836604297161102 0.020608657971024513
0.12682461738586426 0.082209974527359009 0.019403595477342606
0.16772876679897308 0.086887255311012268 0.016993464902043343
0.20375816524028778 0.094975493848323822 0.013650598935782909
0.24256536364555359 0.098815359175205231 0.015665849670767784
0.28374183177947998 0.10103485733270645 0.017531318590044975
0.31601303815841675 0.1044117659330368 0.011437908746302128
0.35786354541778564 0.10773421078920364 0.012091502547264099
0.39522057771682739 0.11391612142324448 0.01166258193552494
0.43649917840957642 0.11736111342906952 0.013766339980065823
0.47102394700050354 0.11921977251768112 0.014882897026836872
0.50610697269439697 0.12293709069490433 0.017953431233763695
0.53494012355804443 0.12333878129720688 0.022310730069875717
0.56568628549575806 0.12497957050800323 0.030371731147170067
0.59189128875732422 0.12885348498821259 0.032863564789295197
0.61309236288070679 0.13451796770095825 0.032128266990184784
0.63823527097702026 0.13914760947227478 0.035055827349424362
0.65539216995239258 0.14366830885410309 0.033782679587602615
0.67573529481887817 0.14749455451965332 0.033707786351442337
0.69009393453598022 0.15038807690143585 0.034742645919322968
0.70799291133880615 0.15646786987781525 0.038820806890726089
0.72440087795257568 0.16224808990955353 0.04152369499206543
0.74569040536880493 0.16895423829555511 0.046609476208686829
0.73835784196853638 0.18515114486217499 0.066074341535568237
0.031515523791313171 0.01354166679084301 0.012928921729326248
0.010559640824794769 0.02069036103785038 0.019709967076778412
0.027321625500917435 0.022671569138765335 0.020431643351912498
0.044165309518575668 0.025980392470955849 0.021330337971448898
0.064358659088611603 0.029289215803146362 0.023223038762807846
0.0890999436378479 0.031250003725290298 0.023978758603334427
0.11809641122817993 0.034191176295280457 0.022487744688987732
0.14373639225959778 0.04020969569683075 0.018906589597463608
0.17399917542934418 0.047732844948768616 0.020710784941911697
0.20267564058303833 0.053656045347452164 0.018430011346936226
0.24027776718139648 0.061151959002017975 0.01354166679084301
0.2771582305431366 0.070043571293354034 0.010083059780299664
0.31360295414924622 0.072589874267578125 0.0079656867310404778
0.35371053218841553 0.075354032218456268 0.0085784317925572395
0.38257762789726257 0.078472219407558441 0.0029820259660482407
0.42380174994468689 0.080807462334632874 0.0020492917392402887
0.46140387654304504 0.085886441171169281 0.0013480392517521977
0.50081700086593628 0.088827610015869141 0.0025939543265849352
0.53191035985946655 0.095098040997982025 0.0040032682009041309
0.56803512573242188 0.096629902720451355 0.0040441178716719151
0.5960579514503479 0.0966639444231987 0.0083809904754161835
0.62626636028289795 0.097079239785671234 0.016033496707677841
0.6529616117477417 0.10179058462381363 0.020731208845973015
0.67426472902297974 0.10792483389377594 0.020363559946417809
0.69967997074127197 0.11289487779140472 0.024285130202770233
0.71607440710067749 0.11750409007072449 0.031699344515800476
0.73788130283355713 0.12163671106100082 0.034599673002958298
0.75198125839233398 0.12567402422428131 0.034844767302274704
0.76864790916442871 0.12826798856258392 0.035804741084575653
0.78400051593780518 0.13271376490592957 0.038636982440948486
0.80618870258331299 0.14099264144897461 0.043933823704719543
0.79058414697647095 0.16143789887428284 0.067708335816860199
0.035049021244049072 0.030575979501008987 0.023897059261798859
0.012193627655506134 0.042034313082695007 0.033210784196853638
0.027267156168818474 0.041809644550085068 0.031086599454283714
0.044934641569852829 0.045608662068843842 0.032475490123033524
0.066053919494152069 0.047671567648649216 0.031617648899555206
0.092156864702701569 0.049571078270673752 0.032741010189056396
0.12181372195482254 0.051286764442920685 0.029779411852359772
0.14281046390533447 0.056903596967458725 0.025367647409439087
0.17622548341751099 0.061090685427188873 0.025735294446349144
0.20520833134651184 0.065441176295280457 0.021936275064945221
0.2444852888584137 0.070098042488098145 0.017585784196853638
0.27947303652763367 0.077879898250102997 0.013153593987226486
0.31482842564582825 0.079534314572811127 0.011519608087837696
0.35316586494445801 0.081209145486354828 0.01066176500171423
0.3853553831577301 0.082965686917304993 0.0031862745527178049
0.42575573921203613 0.085580073297023773 0.0024101308081299067
0.46029412746429443 0.090584143996238708 0.0014297384768724442
0.49871322512626648 0.094607844948768616 0.0024509804788976908
0.53274106979370117 0.09942810982465744 0.0020424835383892059
0.5684436559677124 0.10189951211214066 0.0036151960957795382
0.59579247236251831 0.10294117778539658 0.0082107847556471825
0.62340688705444336 0.10147058963775635 0.016237745061516762
0.65028595924377441 0.10529002547264099 0.019689541310071945
0.67046570777893066 0.11053921282291412 0.018872549757361412
0.69693624973297119 0.11629901826381683 0.023978756740689278
0.71470588445663452 0.12113970518112183 0.027573529630899429
0.73562097549438477 0.12812499701976776 0.031740196049213409
0.75104165077209473 0.13308823108673096 0.032046567648649216
0.76648283004760742 0.13576388359069824 0.037111926823854446
0.78208738565444946 0.14099264144897461 0.039256531745195389
0.80435049533843994 0.14822304248809814 0.040808822959661484
0.78805148601531982 0.16758579015731812 0.061948530375957489
0.033905226737260818 0.053737744688987732 0.03805147111415863
0.01319444552063942 0.06499183177947998 0.046752449125051498
0.026348039507865906 0.063800379633903503 0.04424019530415535
0.043695531785488129 0.066401146352291107 0.044539760798215866
0.066074341535568237 0.068321079015731812 0.040788400918245316
0.09220452606678009 0.070772059261798859 0.038133174180984497
0.12430555373430252 0.072181373834609985 0.036458332091569901
0.14661629498004913 0.07492510974407196 0.032066993415355682
0.17626634240150452 0.077900327742099762 0.032107844948768616
0.20686955749988556 0.082918025553226471 0.026647605001926422
0.24634397029876709 0.086437910795211792 0.021977124735713005
0.27925518155097961 0.090754352509975433 0.019635077565908432
0.31472629308700562 0.092361107468605042 0.018035128712654114
0.35226714611053467 0.093089595437049866 0.017047930508852005
0.38474264740943909 0.094934642314910889 0.005841502919793129
0.42405366897583008 0.096480108797550201 0.004370915237814188
0.4569648802280426 0.10032679885625839 0.0020288671366870403
0.49726304411888123 0.10361519455909729 0.0033700980711728334
0.53220319747924805 0.10705337673425674 0.0033020153641700745
0.56713640689849854 0.10978349298238754 0.0069444444961845875
0.59404957294464111 0.10862608253955841 0.010872821323573589
0.6255718469619751 0.10831291228532791 0.0173611119389534
0.65228760242462158 0.11147876083850861 0.019716775044798851
0.67003679275512695 0.11656453460454941 0.018647873774170876
0.6958196759223938 0.12305283546447754 0.023992374539375305
0.71221405267715454 0.12904411554336548 0.029044117778539658
0.73355120420455933 0.13636301457881927 0.032386980950832367
0.75120502710342407 0.14299426972866058 0.033843956887722015
0.76731348037719727 0.14658904075622559 0.03520561009645462
0.78201925754547119 0.15121187269687653 0.038371454924345016
0.80283910036087036 0.15737335383892059 0.040134802460670471
0.79477119445800781 0.17387664318084717 0.058108657598495483
0.040134802460670471 0.083578430116176605 0.050306372344493866
0.013051470741629601 0.094607844948768616 0.065747551620006561
0.02624591626226902 0.093014702200889587 0.062132351100444794
0.043137256056070328 0.096977129578590393 0.060927290469408035
0.064215689897537231 0.098897062242031097 0.056249998509883881
0.091074340045452118 0.099877454340457916 0.051307190209627151
0.12346813827753067 0.10091912001371384 0.047058824449777603
0.15320670604705811 0.10073529183864594 0.048651959747076035
0.18688724935054779 0.10116421431303024 0.047732844948768616
0.21660539507865906 0.10612744837999344 0.040339056402444839
0.25361520051956177 0.109375 0.036580882966518402
0.28592729568481445 0.11053921282291412 0.033496733754873276
0.31942403316497803 0.11078431457281113 0.028063725680112839
0.35600489377975464 0.11078431457281113 0.022385619580745697
0.38621324300765991 0.11188725382089615 0.011703431606292725
0.42606207728385925 0.11200980097055435 0.009089052677154541
0.45843547582626343 0.1145833358168602 0.005044934805482626
0.49601715803146362 0.11770833283662796 0.0039215688593685627
0.52998369932174683 0.12083332985639572 0.0022671569604426622
0.5672793984413147 0.12414215505123138 0.0049632354639470577
0.598713219165802 0.12530636787414551 0.011764706112444401
0.63112747669219971 0.12530636787414551 0.017279412597417831
0.65565770864486694 0.12902370095252991 0.020710784941911697
0.67598038911819458 0.13088235259056091 0.020465686917304993
0.69973450899124146 0.13778595626354218 0.027839053422212601
0.71556371450424194 0.14338235557079315 0.033946078270673752
0.73549842834472656 0.14801879227161407 0.035130720585584641
0.7499387264251709 0.15257352590560913 0.034987743943929672
0.76727938652038574 0.15945671498775482 0.040788400918245316
0.78496730327606201 0.1667279452085495 0.043933823704719543
0.80447304248809814 0.17469362914562225 0.040257353335618973
0.78688722848892212 0.19442401826381683 0.061519607901573181
0.043157678097486496 0.11037581413984299 0.063500814139842987
0.015706697478890419 0.12214051932096481 0.080800652503967285
0.026783771812915802 0.12039760500192642 0.077199079096317291
0.041911765933036804 0.12318899482488632 0.077593952417373657
0.062663398683071136 0.12477532774209976 0.073080070316791534
0.088684633374214172 0.12616421282291412 0.067347496747970581
0.11952614039182663 0.12614379823207855 0.062193628400564194
0.15092591941356659 0.12647059559822083 0.061158768832683563
0.18523284792900085 0.12549020349979401 0.059558823704719543
0.21798065304756165 0.12920752167701721 0.049979571253061295
0.25720995664596558 0.12965686619281769 0.044076800346374512
0.2902982234954834 0.12881262600421906 0.040482025593519211
0.32342725992202759 0.12941177189350128 0.037152782082557678
0.36016476154327393 0.12807734310626984 0.030242374166846275
0.39276960492134094 0.12816585600376129 0.023876635357737541
0.43187639117240906 0.12795479595661163 0.019594226032495499
0.46308553218841553 0.13009940087795258 0.015441176481544971
0.4998774528503418 0.13298612833023071 0.010130719281733036
0.52984070777893066 0.13784042000770569 0.0050040851347148418
0.56605392694473267 0.1408088207244873 0.0071691176854074001
0.59552013874053955 0.14171433448791504 0.0131604028865695
0.62859481573104858 0.14250408113002777 0.018525324761867523
0.65624320507049561 0.14624863862991333 0.022542212158441544
0.67359066009521484 0.15083740651607513 0.022753266617655754
0.69931232929229736 0.15533088147640228 0.028506264090538025
0.71834152936935425 0.16000817716121674 0.034027781337499619
0.73651278018951416 0.16488289833068848 0.035505175590515137
0.75038808584213257 0.16895425319671631 0.036540035158395767
0.76911079883575439 0.17552424967288971 0.043858934193849564
0.78540986776351929 0.18244826793670654 0.044601034373044968
0.80792486667633057 0.19150327146053314 0.041053920984268188
0.7944035530090332 0.21051879227161407 0.059538397938013077
0.039093136787414551 0.14742647111415863 0.091237746179103851
0.016727941110730171 0.15398284792900085 0.10208333283662796
0.025857843458652496 0.15087828040122986 0.097691990435123444
0.041441995650529861 0.15328839421272278 0.097222223877906799
0.062867648899555206 0.15533088147640228 0.092156864702701569
0.091135613620281219 0.15747548639774323 0.087969765067100525
0.12181372195482254 0.16011029481887817 0.082414217293262482
0.1523488461971283 0.1582312136888504 0.079023696482181549
0.18290440738201141 0.15551470220088959 0.074142158031463623
0.21658496558666229 0.15629085898399353 0.062683820724487305
0.25686275959014893 0.15698529779911041 0.059252452105283737
0.29315769672393799 0.15910947322845459 0.058231212198734283
0.3280637264251709 0.15790441632270813 0.052818626165390015
0.3669934868812561 0.15739378333091736 0.045159313827753067
0.39957109093666077 0.15759803354740143 0.036764707416296005
0.43727532029151917 0.15661764144897461 0.032557189464569092
0.46870914101600647 0.15786357223987579 0.026225490495562553
0.50612747669219971 0.15814951062202454 0.023835783824324608
0.53843957185745239 0.16102941334247589 0.021670753136277199
0.5731005072593689 0.16207107901573181 0.021262254565954208
0.60177695751190186 0.16333740949630737 0.025816991925239563
0.635661780834198 0.16378676891326904 0.03069852851331234
0.66156041622161865 0.16764706373214722 0.032924834638834
0.6825980544090271 0.17383578419685364 0.033946078270673752
0.70426881313323975 0.17926879227161407 0.036478761583566666
0.72113972902297974 0.18541666865348816 0.04007352888584137
0.74082928895950317 0.18886846303939819 0.040992647409439087
0.75514703989028931 0.19405637681484222 0.040257353335618973
0.77236521244049072 0.19989787042140961 0.043382354080677032
0.78884804248809814 0.2081495076417923 0.044015523046255112
0.80955880880355835 0.21832108497619629 0.04528186097741127
0.78933823108673096 0.23872548341751099 0.065931372344493866
0.048897057771682739 0.17598038911819458 0.10310457646846771
0.0165236946195364 0.18566176295280457 0.11983251571655273
0.024591501802206039 0.18304739892482758 0.11508714407682419
0.037758715450763702 0.18519198894500732 0.11490331590175629
0.055739380419254303 0.1873161792755127 0.11072304099798203
0.083190359175205231 0.19056372344493866 0.10570533573627472
0.1162581667304039 0.19370916485786438 0.10079656541347504
0.14730392396450043 0.18764297664165497 0.095785669982433319
0.180432990193367 0.18157680332660675 0.088991008698940277
0.21418845653533936 0.18242104351520538 0.077205881476402283
0.2548406720161438 0.18159723281860352 0.069035954773426056
0.29424020648002625 0.18311546742916107 0.069635070860385895
0.33026960492134094 0.18429328501224518 0.063010625541210175
0.37011843919754028 0.18464052677154541 0.056951254606246948
0.40349265933036804 0.18464051187038422 0.051286764442920685
0.44344362616539001 0.18380309641361237 0.047623906284570694
0.47577616572380066 0.1855732649564743 0.038711871951818466
0.51237744092941284 0.18747958540916443 0.036131534725427628
0.54371601343154907 0.18841229379177094 0.030882352963089943
0.5796772837638855 0.18876633048057556 0.03090277872979641
0.6095043420791626 0.18896378576755524 0.035791121423244476
0.64191174507141113 0.18982842564582825 0.039726309478282928
0.66702747344970703 0.19208197295665741 0.041407950222492218
0.69058418273925781 0.19777368009090424 0.042565356940031052
0.71184647083282471 0.20243737101554871 0.046643517911434174
0.72685861587524414 0.20759804546833038 0.049346402287483215
0.74552696943283081 0.21171703934669495 0.050285950303077698
0.75925242900848389 0.21560457348823547 0.048917487263679504
0.77578973770141602 0.22300516068935394 0.053009256720542908
0.79281044006347656 0.23154956102371216 0.052389707416296005
0.81241828203201294 0.23984886705875397 0.04701797291636467
0.79095184803009033 0.26082518696784973 0.068647876381874084
0.043566174805164337 0.21507352590560913 0.12984068691730499
0.018566176295280457 0.22261029481887817 0.14123775064945221
0.02583741769194603 0.22011847794055939 0.13805146515369415
0.035049021244049072 0.22081290185451508 0.1387663334608078
0.049877449870109558 0.22199754416942596 0.1351715624332428
0.076695255935192108 0.22790034115314484 0.132067009806633
0.1094362735748291 0.23235294222831726 0.12910538911819458
0.14352533221244812 0.22642974555492401 0.11813725531101227
0.17787989974021912 0.21942402422428131 0.10790441185235977
0.21082516014575958 0.21860703825950623 0.09221813827753067
0.25514706969261169 0.2137867659330368 0.080575980246067047
0.29638481140136719 0.21462416648864746 0.085580073297023773
0.33529412746429443 0.21550245583057404 0.077634803950786591
0.37794119119644165 0.21764706075191498 0.073202610015869141
0.41495096683502197 0.21776960790157318 0.071200981736183167
0.45647469162940979 0.21870914101600647 0.070526957511901855
0.48895019292831421 0.22103758156299591 0.063051469624042511
0.5262255072593689 0.22205881774425507 0.058823529630899429
0.55453431606292725 0.22495916485786438 0.0486111119389534
0.58799022436141968 0.22512255609035492 0.048774510622024536
0.61766749620437622 0.22575573623180389 0.052450980991125107
0.64852941036224365 0.22634804248809814 0.051838234066963196
0.67571491003036499 0.22969770431518555 0.053553920239210129
0.69417893886566162 0.2342524528503418 0.05263480544090271
0.71560454368591309 0.23498775064945221 0.051919933408498764
0.73057597875595093 0.23756127059459686 0.052757352590560913
0.74877452850341797 0.24178922176361084 0.052655227482318878
0.76476716995239258 0.24534313380718231 0.053370099514722824
0.78049427270889282 0.252226322889328 0.056249998509883881
0.79554742574691772 0.25976309180259705 0.053125001490116119
0.81556373834609985 0.26844361424446106 0.05153186246752739
0.80226713418960571 0.2860906720161438 0.06709558516740799
0.055596407502889633 0.25069445371627808 0.14765113592147827
0.021078431978821754 0.26237744092941284 0.16705474257469177
0.024162581190466881 0.25938862562179565 0.16448801755905151
0.029282405972480774 0.25883716344833374 0.163691446185112
0.042790032923221588 0.26000815629959106 0.16223447024822235
0.067143246531486511 0.26533904671669006 0.15740059316158295
0.098754085600376129 0.2710171639919281 0.15590278804302216
0.13267292082309723 0.2673678994178772 0.13841231167316437
0.16919934749603271 0.26223447918891907 0.12653186917304993
0.20571213960647583 0.25733932852745056 0.11004221439361572
0.2498774528503418 0.2511233389377594 0.099754899740219116
0.29383167624473572 0.24989105761051178 0.10101443529129028
0.33562090992927551 0.25036764144897461 0.092728756368160248
0.38274103403091431 0.25198802351951599 0.08694852888584137
0.41801470518112183 0.25310459733009338 0.087438724935054779
0.46125409007072449 0.25558960437774658 0.08752722293138504
0.49753540754318237 0.25947031378746033 0.079132616519927979
0.5355188250541687 0.26215279102325439 0.074571080505847931
0.56509393453598022 0.26198935508728027 0.071977131068706512
0.60042893886566162 0.26127451658248901 0.069893792271614075
0.63142699003219604 0.26077070832252502 0.070717588067054749
0.65863972902297974 0.26354166865348816 0.07103758305311203
0.68254357576370239 0.26653733849525452 0.07188861072063446
0.7031862735748291 0.2692810595035553 0.068280227482318878
0.72357028722763062 0.27082651853561401 0.064821623265743256
0.73562097549438477 0.27473446726799011 0.060069441795349121
0.75499731302261353 0.27687227725982666 0.059259258210659027
0.77087414264678955 0.28098446130752563 0.058946076780557632
0.78550523519515991 0.28792890906333923 0.058877993375062943
0.80034041404724121 0.29605802893638611 0.058108661323785782
0.81523686647415161 0.30330881476402283 0.052205882966518402
0.79195261001586914 0.3232843279838562 0.074877448379993439
0.058394607156515121 0.28749999403953552 0.16936273872852325
0.022855391725897789 0.29828432202339172 0.19037990272045135
0.025245098397135735 0.29618057608604431 0.18684642016887665
0.029942812398076057 0.29428103566169739 0.18613152205944061
0.038357842713594437 0.29289215803146362 0.18468137085437775
0.060682188719511032 0.29712009429931641 0.18116828799247742
