snapseed-lut/snapseed-film-b03.cube
# Created by: G'MIC (https://gmic.eu)
TITLE "snapseed-film-b03"
# LUT size
LUT_3D_SIZE 32
# Data domain
DOMAIN_MIN 0.0 0.0 0.0
DOMAIN_MAX 1.0 1.0 1.0
# LUT data points
0.020649509504437447 0.089399509131908417 0.0055147060193121433
0.0096200983971357346 0.10165441036224365 0.0066789216361939907
0.014072712510824203 0.10247141122817993 0.0074346400797367096
0.018852125853300095 0.10526961088180542 0.0083129089325666428
0.023897059261798859 0.10655637085437775 0.0080882357433438301
0.030044935643672943 0.10539215803146362 0.0083741834387183189
0.049693629145622253 0.10557597875595093 0.0082107847556471825
0.071405224502086639 0.10625000298023224 0.0092116016894578934
0.1039828434586525 0.10710784047842026 0.010416666977107525
0.13004495203495026 0.10998774319887161 0.0094975493848323822
0.16587010025978088 0.11084558814764023 0.01066176500171423
0.19920343160629272 0.11066176742315292 0.011315359733998775
0.23125000298023224 0.11115196347236633 0.01066176500171423
0.26821893453598022 0.11270424723625183 0.010416666977107525
0.30269607901573181 0.11482843011617661 0.011090686544775963
0.3425041139125824 0.11478758603334427 0.01156045775860548
0.37902367115020752 0.11924019455909729 0.011642157100141048
0.41924020648002625 0.12015931308269501 0.012316176667809486
0.45457515120506287 0.12279410660266876 0.011928104795515537
0.49295341968536377 0.1249387264251709 0.012316176667809486
0.52665442228317261 0.12720587849617004 0.012765522114932537
0.56464463472366333 0.12898284196853638 0.012867647223174572
0.6022876501083374 0.12771651148796082 0.013766339980065823
0.6309436559677124 0.13106617331504822 0.014031862840056419
0.66409313678741455 0.13214868307113647 0.0143382353708148
0.69074755907058716 0.13412989675998688 0.015257352963089943
0.71821898221969604 0.13519199192523956 0.015686275437474251
0.7392769455909729 0.13872548937797546 0.015870098024606705
0.765625 0.13899102807044983 0.016462417319417
0.78386437892913818 0.14099264144897461 0.017279412597417831
0.80330884456634521 0.14399509131908417 0.019301470369100571
0.77818626165390015 0.16237744688987732 0.038725491613149643
0.025061273947358131 0.090134806931018829 0.0045955884270370007
0.0090073533356189728 0.10606617480516434 0.0065563726238906384
0.014440359547734261 0.10749592632055283 0.0072099678218364716
0.018014706671237946 0.10908904671669006 0.0074142157100141048
0.022181373089551926 0.11084558814764023 0.0082107847556471825
0.027553103864192963 0.11078431457281113 0.0078635625541210175
0.046200979501008987 0.11121323704719543 0.0079044122248888016
0.067585781216621399 0.11239787936210632 0.0087009808048605919
0.10006127506494522 0.11329656839370728 0.0098039219155907631
0.12555147707462311 0.11734068393707275 0.009783497080206871
0.16041666269302368 0.11758578568696976 0.010600490495562553
0.19589461386203766 0.11785131692886353 0.010539215989410877
0.22745098173618317 0.11917892098426819 0.010539215989410877
0.26368466019630432 0.12089461088180542 0.010069443844258785
0.29846814274787903 0.12162990123033524 0.010477941483259201
0.33839872479438782 0.12273284047842026 0.010947712697088718
0.37475490570068359 0.12591911852359772 0.011478757485747337
0.41537991166114807 0.12683823704719543 0.01225490216165781
0.44926470518112183 0.12910538911819458 0.012071078643202782
0.48848038911819458 0.13082107901573181 0.012009804137051105
0.52275323867797852 0.13296568393707275 0.012622549198567867
0.56219363212585449 0.13425244390964508 0.013357843272387981
0.60022461414337158 0.13394607603549957 0.014399509876966476
0.62830883264541626 0.13731618225574493 0.013909313827753067
0.66019201278686523 0.13862335681915283 0.014910131692886353
0.68799018859863281 0.14148284494876862 0.016544118523597717
0.71495097875595093 0.14303512871265411 0.017892157658934593
0.73682600259780884 0.14534313976764679 0.017463235184550285
0.76113152503967285 0.14714053273200989 0.018198529258370399
0.77769607305526733 0.14914216101169586 0.019669119268655777
0.7969362735748291 0.15091912448406219 0.021017156541347504
0.7715686559677124 0.16881127655506134 0.03805147111415863
0.028676470741629601 0.095322713255882263 0.01482843142002821
0.019771242514252663 0.10786356031894684 0.016952615231275558
0.028574345633387566 0.10887119174003601 0.016918571665883064
0.035103488713502884 0.10948393493890762 0.017381535843014717
0.042442813515663147 0.11160130798816681 0.018484476953744888
0.050898689776659012 0.11213916540145874 0.018777232617139816
0.071160130202770233 0.11282679438591003 0.019424019381403923
0.091973036527633667 0.11473993211984634 0.020098039880394936
0.12295752018690109 0.11497139930725098 0.02083333395421505
0.14825709164142609 0.11723175644874573 0.020118461921811104
0.18378268182277679 0.11832107603549957 0.022140521556138992
0.21919253468513489 0.11945806443691254 0.022821351885795593
0.2511846125125885 0.12111926823854446 0.022651143372058868
0.28846678137779236 0.12356346100568771 0.023488560691475868
0.32228350639343262 0.12303921580314636 0.023468136787414551
0.36219361424446106 0.12398556619882584 0.024353213608264923
0.39947575330734253 0.12888072431087494 0.025047658011317253
0.44009393453598022 0.13037171959877014 0.026143793016672134
0.47625270485877991 0.13120914995670319 0.026307187974452972
0.51374596357345581 0.13280227780342102 0.027532678097486496
0.5484272837638855 0.13526007533073425 0.027900325134396553
0.58766335248947144 0.13660129904747009 0.028656044974923134
0.62474805116653442 0.13724128901958466 0.031481482088565826
0.65226715803146362 0.1405024528503418 0.031372550874948502
0.68389838933944702 0.14069989323616028 0.032237198203802109
0.71102941036224365 0.14344362914562225 0.034150328487157822
0.73945397138595581 0.1458333283662796 0.035845588892698288
0.76166254281997681 0.14854982495307922 0.036335784941911697
0.78591370582580566 0.14956426620483398 0.036635350435972214
0.80331563949584961 0.15177695453166962 0.038596134632825851
0.82375413179397583 0.15424837172031403 0.042095586657524109
0.80755722522735596 0.16819852590560913 0.055392157286405563
0.074060454964637756 0.062479577958583832 0.035518787801265717
0.051123369485139847 0.078799016773700714 0.04812091588973999
0.069403596222400665 0.078574344515800476 0.04797794297337532
0.083666935563087463 0.080855116248130798 0.049346406012773514
0.10283904522657394 0.081127449870109558 0.051082517951726913
0.12161628156900406 0.081209152936935425 0.050517428666353226
0.14616012573242188 0.084027782082557678 0.053574349731206894
0.16524374485015869 0.085859201848506927 0.05569852888584137
0.19601716101169586 0.086989372968673706 0.057332511991262436
0.22052015364170074 0.089324623346328735 0.055358115583658218
0.2563316822052002 0.089889705181121826 0.061070259660482407
0.29204791784286499 0.091768793761730194 0.06235702708363533
0.32459148764610291 0.093198530375957489 0.062050655484199524
0.36250001192092896 0.095976300537586212 0.064025059342384338
0.39705881476402283 0.096977129578590393 0.064215689897537231
0.43694853782653809 0.097691997885704041 0.065611384809017181
0.47398555278778076 0.10227396339178085 0.069022335112094879
0.51491016149520874 0.10265522450208664 0.071037575602531433
0.54908090829849243 0.10343137383460999 0.06873638927936554
0.58768379688262939 0.10606617480516434 0.07207924872636795
0.62121462821960449 0.10825163871049881 0.073127724230289459
0.65947705507278442 0.10990604758262634 0.074142158031463623
0.6983523964881897 0.11015114933252335 0.077090136706829071
0.72647058963775635 0.11350081115961075 0.077593959867954254
0.75981754064559937 0.11302424222230911 0.079398147761821747
0.7885621190071106 0.11515522748231888 0.082455068826675415
0.81597900390625 0.11773556470870972 0.084851585328578949
0.83764296770095825 0.12077205628156662 0.084640517830848694
0.86301743984222412 0.12162309885025024 0.086751095950603485
0.88063043355941772 0.12369281798601151 0.089059092104434967
0.8982434868812561 0.12571485340595245 0.09105391800403595
0.87532675266265869 0.14389297366142273 0.10908904671669006
0.07916666567325592 0.080085784196853638 0.041360292583703995
0.055943626910448074 0.097120098769664764 0.055514704436063766
0.073223039507865906 0.09632352739572525 0.053431373089551926
0.089133985340595245 0.097344778478145599 0.054534312337636948
0.1041666641831398 0.098406866192817688 0.056127451360225677
0.12555147707462311 0.099019609391689301 0.057475488632917404
0.14797794818878174 0.10000000149011612 0.059926468878984451
0.16774916648864746 0.10394199937582016 0.061274509876966476
0.19669117033481598 0.10539215803146362 0.062071077525615692
0.22214052081108093 0.10767973214387894 0.062581703066825867
0.25747549533843994 0.109129898250103 0.067279413342475891
0.29180961847305298 0.11011029779911041 0.067504085600376129
0.32450979948043823 0.11200980097055435 0.066421568393707275
0.36229577660560608 0.11472630500793457 0.07083333283662796
0.39742645621299744 0.11562500149011612 0.070526957511901855
0.43821489810943604 0.11744280904531479 0.07410130649805069
0.47424429655075073 0.12007761001586914 0.074836596846580505
0.51587009429931641 0.12242647260427475 0.07708333432674408
0.5502246618270874 0.12383578717708588 0.076817810535430908
0.58964461088180542 0.12622548639774323 0.079901963472366333
0.62359070777893066 0.12849265336990356 0.080330885946750641
0.66292893886566162 0.12916666269302368 0.08284313976764679
0.70126628875732422 0.12977941334247589 0.085171565413475037
0.72922796010971069 0.13412989675998688 0.086090683937072754
0.76154005527496338 0.13459965586662292 0.08960375189781189
0.78805148601531982 0.13431373238563538 0.089828431606292725
0.81550246477127075 0.13739787042140961 0.09125816822052002
0.83829659223556519 0.13939951360225677 0.091482840478420258
0.86286765336990356 0.14252451062202454 0.092728756368160248
0.88022881746292114 0.14517973363399506 0.094424016773700714
0.90073531866073608 0.14761029183864594 0.09693627804517746
0.8751838207244873 0.16476716101169586 0.11415441334247589
0.074897877871990204 0.099918298423290253 0.049673199653625488
0.056903596967458725 0.1145220622420311 0.062193628400564194
0.074645966291427612 0.11545479297637939 0.061124730855226517
0.088364653289318085 0.11640795320272446 0.061431098729372025
0.10406453907489777 0.11699345707893372 0.063051469624042511
0.12308687716722488 0.11866829544305801 0.064678654074668884
0.14673203229904175 0.11942402273416519 0.065420754253864288
0.16641475260257721 0.12273965030908585 0.06619688868522644
0.19589461386203766 0.12352941185235977 0.067728757858276367
0.2219771146774292 0.12666121125221252 0.069281049072742462
0.2566380500793457 0.12722630798816681 0.071466505527496338
0.29037308692932129 0.12934368848800659 0.072508171200752258
0.32314136624336243 0.13124999403953552 0.07369280606508255
0.36095452308654785 0.1335512101650238 0.076307192444801331
0.39726307988166809 0.13594770431518555 0.076674841344356537
0.43837824463844299 0.13784042000770569 0.081597223877906799
0.4727192223072052 0.13980801403522491 0.080044932663440704
0.51456290483474731 0.14191175997257233 0.082618467509746552
0.55223989486694336 0.14323937892913818 0.084463499486446381
0.59078836441040039 0.14591504633426666 0.086397059261798859
0.62425112724304199 0.14832516014575958 0.087608933448791504
0.6636846661567688 0.15087826550006866 0.089236102998256683
0.7013208270072937 0.15313860774040222 0.092211328446865082
0.73071891069412231 0.15569852292537689 0.093892976641654968
0.76217317581176758 0.15607298910617828 0.09528186172246933
0.78919523954391479 0.15678104758262634 0.094342328608036041
0.81642836332321167 0.15885075926780701 0.095431648194789886
0.83782684803009033 0.16249999403953552 0.097038403153419495
0.86245238780975342 0.16349400579929352 0.099407680332660675
0.88023555278778076 0.16612881422042847 0.10115060210227966
0.89926469326019287 0.16830064356327057 0.10153186321258545
0.88484472036361694 0.18257761001586914 0.11605392396450043
0.080392159521579742 0.12095588445663452 0.053370099514722824
0.05833333358168602 0.13627451658248901 0.070404410362243652
0.078370101749897003 0.1391339898109436 0.071058005094528198
0.092728756368160248 0.14072711765766144 0.07244689017534256
0.11017157137393951 0.14123775064945221 0.074387252330780029
0.12779821455478668 0.14121732115745544 0.073223039507865906
0.15049019455909729 0.14209559559822083 0.072303920984268188
0.16893382370471954 0.14499592781066895 0.075040854513645172
0.19938725233078003 0.14466911554336548 0.077696077525615692
0.22406046092510223 0.14873367547988892 0.077736929059028625
0.25851714611053467 0.14975489675998688 0.079963237047195435
0.29356616735458374 0.15149100124835968 0.081352129578590393
0.32628676295280457 0.15373773872852325 0.084497548639774323
0.36380717158317566 0.15594363212585449 0.084252454340457916
0.39908087253570557 0.15778186917304993 0.085784316062927246
0.43988969922065735 0.1595383882522583 0.088868461549282074
0.4777982234954834 0.16360294818878174 0.090625002980232239
0.51887255907058716 0.16562500596046448 0.093504898250102997
0.55334961414337158 0.16815769672393799 0.092524506151676178
0.59417891502380371 0.17101715505123138 0.094546571373939514
0.62700158357620239 0.17295750975608826 0.097120098769664764
0.66335785388946533 0.1768382340669632 0.09797794371843338
0.70263481140136719 0.17859476804733276 0.10100081562995911
0.73051470518112183 0.18265931308269501 0.10245098173618317
0.76372551918029785 0.18255719542503357 0.10285947471857071
0.79246324300765991 0.18278186023235321 0.10312499850988388
0.8198121190071106 0.18515114486217499 0.10618872195482254
0.84087008237838745 0.18786764144897461 0.10876225680112839
0.86399108171463013 0.18911357223987579 0.10790441185235977
0.88102537393569946 0.19172793626785278 0.10845588147640228
0.90042895078659058 0.19479165971279144 0.11102940887212753
0.87726718187332153 0.21286764740943909 0.12947304546833038
0.081209145486354828 0.14395426213741302 0.058803103864192963
0.058047384023666382 0.16166259348392487 0.076388895511627197
0.077171839773654938 0.16350081562995911 0.078288398683071136
0.093178108334541321 0.16537310183048248 0.078880712389945984
0.11006944626569748 0.16572712361812592 0.079452618956565857
0.1295887678861618 0.16621051728725433 0.078846678137779236
0.15194036066532135 0.16558416187763214 0.080085784196853638
0.17070397734642029 0.16700708866119385 0.080718949437141418
0.19916258752346039 0.16676878929138184 0.080861933529376984
0.22512935101985931 0.1700776070356369 0.080664485692977905
0.25982436537742615 0.17154818773269653 0.083864383399486542
0.29485294222831726 0.17416937649250031 0.087166391313076019
0.32712417840957642 0.17577613890171051 0.087438724935054779
0.36547523736953735 0.17839053273200989 0.089624181389808655
0.400919109582901 0.18035131692886353 0.090318627655506134
0.44219774007797241 0.18282952904701233 0.092653863131999969
0.47924154996871948 0.18676470220088959 0.095506541430950165
0.51991420984268188 0.18982842564582825 0.098243460059165955
0.55492234230041504 0.19070671498775482 0.096514157950878143
0.59577208757400513 0.19507759809494019 0.10124590992927551
0.63102537393569946 0.1974196583032608 0.10225354135036469
0.66732019186019897 0.20116421580314636 0.1023080050945282
0.70431643724441528 0.20360158383846283 0.10462281107902527
0.73202610015869141 0.20688317716121674 0.10467728227376938
0.76483523845672607 0.20803378522396088 0.10646786540746689
0.79217731952667236 0.20868054032325745 0.10843545943498611
0.81904274225234985 0.21139705181121826 0.1106141060590744
0.84156453609466553 0.2135416716337204 0.11092729121446609
0.8653186559677124 0.21630583703517914 0.11143790930509567
0.8823733925819397 0.21923337876796722 0.11380718648433685
0.9015318751335144 0.22165033221244812 0.11576797813177109
0.88515114784240723 0.23715277016162872 0.13192401826381683
0.073651961982250214 0.17512254416942596 0.068933822214603424
0.059191174805164337 0.18835784494876862 0.081678919494152069
0.07937091588973999 0.19052286446094513 0.082087412476539612
0.094955071806907654 0.19274917244911194 0.083006531000137329
0.11249999701976776 0.19374999403953552 0.085477940738201141
0.13139297068119049 0.19491422176361084 0.08625408262014389
0.15367646515369415 0.19497549533843994 0.086090683937072754
0.17081290483474731 0.19730392098426819 0.086437910795211792
0.19895833730697632 0.19681373238563538 0.084742650389671326
0.22473447024822235 0.19885621964931488 0.085580073297023773
0.25937500596046448 0.19914215803146362 0.088357843458652496
0.29319852590560913 0.20249183475971222 0.090339049696922302
0.32659313082695007 0.20502451062202454 0.092585787177085876
0.36501225829124451 0.2082107812166214 0.094995908439159393
0.39957109093666077 0.20962010324001312 0.094485297799110413
0.44154411554336548 0.21213234961032867 0.098917476832866669
0.47579658031463623 0.21499183773994446 0.099857032299041748
0.51856619119644165 0.21734069287776947 0.10294117778539658
0.55647462606430054 0.22105801105499268 0.10524918884038925
0.59669119119644165 0.22450980544090271 0.10784313827753067
0.62941175699234009 0.22691994905471802 0.10884395241737366
0.66580879688262939 0.22953431308269501 0.1093137264251709
0.70453429222106934 0.23163808882236481 0.11137662827968597
0.73523283004760742 0.23609068989753723 0.11317402124404907
0.76766747236251831 0.23633578419685364 0.11568627506494522
0.79283088445663452 0.23848038911819458 0.11654412001371384
0.82126224040985107 0.2412581592798233 0.11828022450208664
0.84209561347961426 0.2449754923582077 0.12052696198225021
0.86578834056854248 0.24671158194541931 0.12252859771251678
0.88200575113296509 0.25044932961463928 0.12420342862606049
0.90226715803146362 0.25275734066963196 0.12549020349979401
0.87843137979507446 0.27071079611778259 0.14387254416942596
0.083517156541347504 0.20010212063789368 0.071691177785396576
0.061560455709695816 0.21748366951942444 0.089828431606292725
0.079976849257946014 0.21816448867321014 0.089658223092556
0.095806106925010681 0.22115331888198853 0.091939002275466919
0.11525735259056091 0.22256945073604584 0.093913398683071136
0.13366012275218964 0.22312092781066895 0.092674292623996735
0.15657679736614227 0.22338643670082092 0.092422381043434143
0.17530637979507446 0.22357706725597382 0.091911762952804565
0.20341095328330994 0.22212009131908417 0.092013895511627197
0.22729438543319702 0.22463235259056091 0.091653056442737579
0.26154002547264099 0.22579656541347504 0.094403594732284546
0.29720178246498108 0.22890795767307281 0.098018795251846313
0.32945263385772705 0.2312091588973999 0.09950980544090271
0.3676198422908783 0.2342524528503418 0.10095997154712677
0.40271648764610291 0.23537582159042358 0.10104166716337204
0.44362062215805054 0.23831698298454285 0.10471133142709732
0.47908496856689453 0.23999182879924774 0.10434368252754211
0.52116018533706665 0.24325980246067047 0.10915032774209976
0.55808138847351074 0.24793027341365814 0.11019880324602127
0.59936684370040894 0.25181782245635986 0.11386846005916595
0.63330608606338501 0.25348582863807678 0.11508714407682419
0.66783088445663452 0.25794526934623718 0.11397058516740799
0.70579385757446289 0.26070943474769592 0.11691857129335403
0.73335379362106323 0.26413401961326599 0.11762662976980209
0.76701390743255615 0.26567944884300232 0.11956018209457397
0.79436272382736206 0.26666668057441711 0.12099672853946686
0.82266473770141602 0.27039763331413269 0.12433278560638428
0.84540438652038574 0.27391749620437622 0.12640930712223053
0.86800104379653931 0.27656590938568115 0.12593953311443329
0.88519883155822754 0.27992236614227295 0.12743736803531647
0.9035334587097168 0.2823120653629303 0.12898284196853638
0.88157683610916138 0.29973447322845459 0.14795750379562378
0.075919114053249359 0.23835784196853638 0.08223038911819458
0.062622547149658203 0.25263479351997375 0.097732841968536377
0.080575980246067047 0.25355392694473267 0.097160950303077698
0.099407672882080078 0.25674018263816833 0.097406052052974701
0.11819852888584137 0.25912991166114807 0.098284311592578888
0.13811273872852325 0.25937500596046448 0.098508991301059723
0.16035538911819458 0.25998774170875549 0.09950980544090271
0.18022875487804413 0.26049837470054626 0.1008169949054718
0.2086397111415863 0.25937500596046448 0.10091912001371384
0.23327206075191498 0.26113155484199524 0.10010211914777756
0.26623773574829102 0.26060047745704651 0.10177695751190186
0.30073529481887817 0.26309230923652649 0.10302287340164185
0.33321079611778259 0.26433822512626648 0.10294117778539658
0.37199753522872925 0.26850488781929016 0.10661764442920685
0.4060661792755127 0.27052697539329529 0.10667891800403595
0.44677284359931946 0.27242645621299744 0.11015114933252335
0.48184230923652649 0.27471402287483215 0.11119280755519867
0.52346813678741455 0.27849265933036804 0.11482843011617661
0.55998772382736206 0.28310868144035339 0.11550245434045792
0.60030639171600342 0.28700980544090271 0.11930146813392639
0.63408911228179932 0.28899100422859192 0.11872956901788712
0.67150735855102539 0.29221814870834351 0.11911764740943909
0.70837420225143433 0.29450571537017822 0.12120097875595093
0.73664218187332153 0.29810050129890442 0.12230391800403595
0.76823931932449341 0.29946893453598022 0.1251838207244873
0.79411762952804565 0.3022671639919281 0.12549020349979401
0.82371324300765991 0.30647468566894531 0.12945260107517242
0.84730392694473267 0.31102940440177917 0.13161765038967133
0.87020009756088257 0.31354168057441711 0.13390523195266724
0.88713234663009644 0.31654411554336548 0.13639706373214722
0.90551471710205078 0.3180147111415863 0.13719362020492554
0.89105391502380371 0.33265930414199829 0.15165440738201141
0.086764708161354065 0.2732434868812561 0.083108656108379364
0.065706700086593628 0.29066586494445801 0.10042892396450043
0.084640517830848694 0.29226580262184143 0.10124591737985611
0.10091912001371384 0.29547932744026184 0.10380582511425018
0.12001634389162064 0.29838642477989197 0.10522875189781189
0.14033223688602448 0.29976850748062134 0.10546024143695831
0.16327613592147827 0.29971402883529663 0.10573938488960266
0.18445670604705811 0.29961195588111877 0.10641340166330338
0.2132965624332428 0.29826390743255615 0.10629085451364517
0.23746596276760101 0.29945534467697144 0.10426198691129684
0.2708946168422699 0.29916256666183472 0.10492238402366638
0.30422794818878174 0.30082380771636963 0.10752996057271957
0.33527368307113647 0.30251225829124451 0.10823120921850204
0.37320259213447571 0.30444580316543579 0.10908904671669006
0.40680146217346191 0.30739378929138184 0.11102940887212753
0.4476102888584137 0.30974265933036804 0.11431780457496643
0.4826321005821228 0.31222084164619446 0.11504628509283066
0.52459156513214111 0.31484884023666382 0.11924019455909729
0.56124043464660645 0.318947434425354 0.1197916641831398
0.60171568393707275 0.32338646054267883 0.12404002994298935
0.63502180576324463 0.32485705614089966 0.12495233118534088
0.67136436700820923 0.32845181226730347 0.12414215505123138
0.71045076847076416 0.33105936646461487 0.12731482088565826
0.73823529481887817 0.33410948514938354 0.12783905863761902
0.77085375785827637 0.33543705940246582 0.1292824000120163
0.79524105787277222 0.33911353349685669 0.13104574382305145
0.82538813352584839 0.34368190169334412 0.13551199436187744
0.84822303056716919 0.34916257858276367 0.13899101316928864
0.87081968784332275 0.35190632939338684 0.14076116681098938
0.88742506504058838 0.35509940981864929 0.14253132045269012
0.90469765663146973 0.35784313082695007 0.14434230327606201
0.88292485475540161 0.37522464990615845 0.16280637681484222
0.089276961982250214 0.30674019455909729 0.090808823704719543
0.067585781216621399 0.32481616735458374 0.10986519604921341
0.086499184370040894 0.32853350043296814 0.11084558814764023
0.10490196198225021 0.33135214447975159 0.11243872344493866
0.12555147707462311 0.33308824896812439 0.11335784196853638
0.14460784196853638 0.33329245448112488 0.11341911554336548
0.16807597875595093 0.33327206969261169 0.1143382340669632
0.18829657137393951 0.33435460925102234 0.11356209218502045
0.21758578717708588 0.33235293626785278 0.11299019306898117
