snapseed-lut/snapseed-film-x02.cube
# Created by: G'MIC (https://gmic.eu)
TITLE "snapseed-film-x02"
# LUT size
LUT_3D_SIZE 5
# Data domain
# LUT data points
DOMAIN_MIN 0.000000 0.000000 0.000000
DOMAIN_MAX 0.903226 0.903226 0.903226
0.011580882593989372 0.032536763697862625 0.0015318627702072263
0.06793300062417984 0.080535128712654114 0.0012867647456005216
0.4320465624332428 0.19283087551593781 0.0023897059727460146
0.7344975471496582 0.27426469326019287 0.00091911765048280358
0.84797793626785278 0.28923612833023071 0.00028594772447831929
0.04797794297337532 0.11654412001371384 0.066687092185020447
0.10030636936426163 0.14293982088565826 0.045574616640806198
0.48192402720451355 0.21576796472072601 0.0070874183438718319
0.80355393886566162 0.29714050889015198 0.0039828433655202389
0.913432776927948 0.31809639930725098 0.0073461327701807022
0.10790441185235977 0.36789214611053467 0.23590686917304993
0.12528593838214874 0.39499589800834656 0.22628676891326904
0.38713234663009644 0.44393381476402283 0.093075983226299286
0.80373775959014893 0.50943624973297119 0.046997550874948502
0.91578841209411621 0.51564538478851318 0.043443627655506134
0.12702205777168274 0.56685048341751099 0.37346813082695007
0.18445670604705811 0.59758985042572021 0.39215686917304993
0.2289828360080719 0.59430146217346191 0.19534313678741455
0.7606005072593689 0.74289214611053467 0.13161765038967133
0.9252859354019165 0.75220590829849243 0.097487747669219971
0.14448529481887817 0.66568624973297119 0.43329247832298279
0.20633849501609802 0.70366966724395752 0.46921297907829285
0.23133169114589691 0.70702618360519409 0.27902370691299438
0.56801468133926392 0.79033911228179932 0.16458334028720856
0.85540580749511719 0.87304604053497314 0.13827612996101379
0.010089868679642677 0.061356212943792343 0.10855800658464432
0.049278322607278824 0.074959143996238708 0.093899786472320557
0.40498366951942444 0.10935457795858383 0.029330065473914146
0.67224264144897461 0.16376633942127228 0.00087826803792268038
0.7920956015586853 0.17926198244094849 0
0.03700980544090271 0.15542620420455933 0.16206426918506622
0.13308823108673096 0.17187727987766266 0.19527505338191986
0.51688456535339355 0.22138480842113495 0.14042755961418152
0.84792351722717285 0.29492104053497314 0.12410131096839905
0.94677513837814331 0.31922429800033569 0.11768791079521179
0.063316985964775085 0.40371733903884888 0.30018383264541626
0.14889705181121826 0.42210647463798523 0.35543981194496155
0.42663401365280151 0.47371324896812439 0.29560863971710205
0.82434642314910889 0.53870505094528198 0.23543708026409149
0.93339461088180542 0.5516543984413147 0.22276689112186432
0.085028588771820068 0.58382350206375122 0.44726306200027466
0.17281454801559448 0.60182458162307739 0.49869281053543091
0.38968548178672791 0.65986520051956177 0.44579246640205383
0.77753269672393799 0.75692403316497803 0.34483253955841064
0.93735700845718384 0.76712965965270996 0.30646786093711853
0.10698529332876205 0.66811001300811768 0.509041428565979
0.18249592185020447 0.69669800996780396 0.57674968242645264
0.4256604015827179 0.77493190765380859 0.55292755365371704
0.60913670063018799 0.81058001518249512 0.3870302140712738
0.87634801864624023 0.8858456015586853 0.35325437784194946
0.011397059075534344 0.099203430116176605 0.29448530077934265
0.042483657598495483 0.099897868931293488 0.34328019618988037
0.42083331942558289 0.10723039507865906 0.10643382370471954
0.69693624973297119 0.12867647409439087 0.055269606411457062
0.80095994472503662 0.12185457348823547 0.024285130202770233
0.045812904834747314 0.19726306200027466 0.39520016312599182
0.11488970369100571 0.20301605761051178 0.43556645512580872
0.5279616117477417 0.20900735259056091 0.26343953609466553
0.84899914264678955 0.20786355435848236 0.17873774468898773
0.93844634294509888 0.20556916296482086 0.16546840965747833
0.043627452105283737 0.46875 0.45122548937797546
0.11280637234449387 0.49601715803146362 0.49101307988166809
0.49111518263816833 0.51825982332229614 0.52604168653488159
0.85116422176361084 0.57273286581039429 0.48094362020492554
0.96221405267715454 0.59857028722763062 0.46899509429931641
0.033517155796289444 0.64148283004760742 0.47518381476402283
0.10561683028936386 0.67234480381011963 0.53531450033187866
0.47089460492134094 0.70477938652038574 0.64313727617263794
0.79797792434692383 0.77714461088180542 0.59240198135375977
0.93888884782791138 0.79172796010971069 0.56217318773269653
0.052491828799247742 0.73284316062927246 0.54236108064651489
0.12224945425987244 0.75409859418869019 0.60243731737136841
0.47399917244911194 0.79354572296142578 0.71589058637619019
0.69479167461395264 0.84857022762298584 0.63570255041122437
0.89721536636352539 0.90445256233215332 0.60367649793624878
0.012622549198567867 0.12665441632270813 0.46115195751190186
0.0026143789291381836 0.11145833134651184 0.50475901365280151
0.49509802460670471 0.15018382668495178 0.40888479351997375
0.72493875026702881 0.13786764442920685 0.1251225471496582
0.82034313678741455 0.14618055522441864 0.094832524657249451
0.044995918869972229 0.22632759809494019 0.56903588771820068
0.11023284494876862 0.23587962985038757 0.64408361911773682
0.61395013332366943 0.24546568095684052 0.62879902124404907
0.86734068393707275 0.23784720897674561 0.24714049696922302
0.96768110990524292 0.23786765336990356 0.21904276311397552
0.056066177785396576 0.51225489377975464 0.62064951658248901
0.10718953609466553 0.54166668653488159 0.67463237047195435
0.48161765933036804 0.55398285388946533 0.72187501192092896
0.85226714611053467 0.56329655647277832 0.56102943420410156
0.9602123498916626 0.55880308151245117 0.53801059722900391
0.028921568766236305 0.65943628549575806 0.58939951658248901
0.092013895511627197 0.71109068393707275 0.64442402124404907
0.44571077823638916 0.74834561347961426 0.71691179275512695
0.82659316062927246 0.79497551918029785 0.7655024528503418
0.95398283004760742 0.81887257099151611 0.75314545631408691
0.036111108958721161 0.75220590829849243 0.57634806632995605
0.083912037312984467 0.80402368307113647 0.63469499349594116
0.43882763385772705 0.8354371190071106 0.73831695318222046
0.79810047149658203 0.8930554986000061 0.82379496097564697
0.91674160957336426 0.91796708106994629 0.78935188055038452
0.013419117778539658 0.14509804546833038 0.57979989051818848
0.00019063180661760271 0.1194172129034996 0.62426471710205078
0.59232020378112793 0.18866421282291412 0.66154003143310547
0.72716504335403442 0.15236929059028625 0.3092116117477417
0.81874316930770874 0.14590822160243988 0.22212691605091095
0.045676745474338531 0.25258034467697144 0.67979305982589722
0.10653822124004364 0.25993102788925171 0.76239109039306641
0.59914898872375488 0.25856482982635498 0.81623774766921997
0.87342727184295654 0.25964730978012085 0.46435865759849548
0.96847087144851685 0.25216272473335266 0.33534178137779236
0.048815358430147171 0.53349673748016357 0.71607440710067749
0.10341776162385941 0.56683683395385742 0.78316998481750488
0.47271242737770081 0.57763481140136719 0.84105390310287476
0.88292479515075684 0.59003269672393799 0.74466913938522339
0.96764707565307617 0.5805896520614624 0.60235565900802612
0.036151960492134094 0.7073325514793396 0.71627861261367798
0.097406044602394104 0.7536083459854126 0.77785944938659668
0.4439542293548584 0.78057599067687988 0.83092319965362549
0.83692812919616699 0.8040236234664917 0.87181371450424194
0.95086467266082764 0.81028729677200317 0.80940896272659302
0.034919664263725281 0.76132893562316895 0.66112470626831055
0.081776507198810577 0.81655091047286987 0.72510433197021484
0.41638073325157166 0.86228221654891968 0.79581290483474731
0.81853216886520386 0.91028732061386108 0.90208333730697632
0.93297708034515381 0.93029463291168213 0.89496868848800659
