snapseed-lut/snapseed-film-x01.cube
# Created by: G'MIC (https://gmic.eu)
TITLE "snapseed-film-x01"
# LUT size
LUT_3D_SIZE 32
# Data domain
DOMAIN_MIN 0.0 0.0 0.0
DOMAIN_MAX 1.0 1.0 1.0
# LUT data points
0.0079044122248888016 0.045220587402582169 0.067401960492134094
0.0021446079481393099 0.054656863212585449 0.084497548639774323
0.0058823530562222004 0.057332519441843033 0.084844775497913361
0.0086601311340928078 0.061397060751914978 0.087888076901435852
0.012009804137051105 0.068566173315048218 0.090502448379993439
0.018341504037380219 0.075531050562858582 0.09611927717924118
0.025980392470955849 0.083823531866073608 0.10453431308269501
0.039705883711576462 0.090502448379993439 0.11119280755519867
0.064950980246067047 0.096568629145622253 0.11734068393707275
0.086090683937072754 0.10073529183864594 0.11456291377544403
0.11874999850988388 0.10091912001371384 0.10894607752561569
0.15412580966949463 0.10238970816135406 0.10406453907489777
0.18927696347236633 0.10545343160629272 0.10238970816135406
0.2277369350194931 0.10700572282075882 0.094730392098426819
0.25741422176361084 0.11096813529729843 0.081924021244049072
0.29442402720451355 0.11505310237407684 0.071915857493877411
0.32593953609466553 0.12175244837999344 0.064399510622024536
0.35882353782653809 0.12708333134651184 0.056249998509883881
0.3853553831577301 0.13024918735027313 0.047242648899555206
0.41807597875595093 0.13241422176361084 0.040624998509883881
0.44266748428344727 0.13705064356327057 0.03833741694688797
0.47095587849617004 0.14129902422428131 0.035968136042356491
0.49511843919754028 0.14323937892913818 0.036172386258840561
0.51629900932312012 0.14546568691730499 0.034620098769664764
0.53772467374801636 0.14546568691730499 0.035723038017749786
0.5565563440322876 0.14515931904315948 0.040379900485277176
0.5737949013710022 0.14354574680328369 0.041605390608310699
0.58939951658248901 0.14111520349979401 0.041789215058088303
0.60451382398605347 0.14305555820465088 0.043709147721529007
0.61819851398468018 0.14517974853515625 0.044709969311952591
0.63437497615814209 0.15000000596046448 0.048161763697862625
0.61642158031463623 0.16311274468898773 0.069178923964500427
0.0088848043233156204 0.048284314572811127 0.060416664928197861
0.00085784314433112741 0.060539215803146362 0.080024510622024536
0.0031862745527178049 0.061948530375957489 0.083210781216621399
0.0070669930428266525 0.067544929683208466 0.087397873401641846
0.011090686544775963 0.073100492358207703 0.090257354080677032
0.017973857000470161 0.080249190330505371 0.09581291675567627
0.026409313082695007 0.087499998509883881 0.10085784643888474
0.039950981736183167 0.095179744064807892 0.10910948365926743
0.066850490868091583 0.099019609391689301 0.11574754863977432
0.089808002114295959 0.10339052230119705 0.11235702037811279
0.12089461088180542 0.10251225531101227 0.10741421580314636
0.15435048937797546 0.10567811131477356 0.10433007031679153
0.18866421282291412 0.10747548937797546 0.10128676146268845
0.22555147111415863 0.11004901677370071 0.09581291675567627
0.25759804248809814 0.11341911554336548 0.08235294371843338
0.29415848851203918 0.11797385662794113 0.074530221521854401
0.3260824978351593 0.12455064058303833 0.065420746803283691
0.35980391502380371 0.12916666269302368 0.059129901230335236
0.38803106546401978 0.13071894645690918 0.050388075411319733
0.41966912150382996 0.13363970816135406 0.043811272829771042
0.4441380500793457 0.1387050598859787 0.040931373834609985
0.47224265336990356 0.14087009429931641 0.03854166716337204
0.49548608064651489 0.14448529481887817 0.036928102374076843
0.51354163885116577 0.14491420984268188 0.034068629145622253
0.53412991762161255 0.14707924425601959 0.036029413342475891
0.55269604921340942 0.14785538613796234 0.041850488632917404
0.57136434316635132 0.14575162529945374 0.043954245746135712
0.58835786581039429 0.14350490272045135 0.04577205702662468
0.60410541296005249 0.14507760107517242 0.047794118523597717
0.61766749620437622 0.14785538613796234 0.050224669277667999
0.63204658031463623 0.1512867659330368 0.051102939993143082
0.61360293626785278 0.16556373238563538 0.072487741708755493
0.0091094765812158585 0.055739376693964005 0.078513070940971375
0.0036151960957795382 0.065379902720451355 0.09375
0.0082584414631128311 0.067830882966518402 0.096915856003761292
0.014808006584644318 0.074468955397605896 0.10077614337205887
0.022998366504907608 0.080718949437141418 0.10245098173618317
0.033299293369054794 0.085437089204788208 0.10748910158872604
0.049183007329702377 0.090808823704719543 0.11241830140352249
0.064583331346511841 0.09834558516740799 0.11751089245080948
0.091196894645690918 0.102430559694767 0.12212009727954865
0.11476034671068192 0.10511301457881927 0.11868872493505478
0.14795750379562378 0.10302287340164185 0.11280637234449387
0.18079385161399841 0.10634531080722809 0.11053241044282913
0.21433822810649872 0.10847631096839905 0.10655637085437775
0.25014978647232056 0.11000816524028778 0.10087145864963531
0.27947303652763367 0.1130923256278038 0.087111935019493103
0.31617647409439087 0.11685048788785934 0.07804330438375473
0.3475898802280426 0.1228894367814064 0.071337141096591949
0.37937089800834656 0.12741012871265411 0.063909314572811127
0.40503129363059998 0.12947304546833038 0.05284586176276207
0.43572303652763367 0.13112744688987732 0.04583333432674408
0.46191447973251343 0.13562092185020447 0.043191723525524139
0.48892974853515625 0.1388276070356369 0.040890522301197052
0.51286083459854126 0.1412445604801178 0.0393722765147686
0.53200572729110718 0.14276960492134094 0.035498365759849548
0.55283224582672119 0.14291258156299591 0.038194447755813599
0.56952613592147827 0.14248365163803101 0.046058002859354019
0.58686685562133789 0.1424836665391922 0.046725217252969742
0.60234886407852173 0.1408088207244873 0.047651141881942749
0.62030905485153198 0.14157134294509888 0.050660401582717896
0.63520556688308716 0.1436002254486084 0.053513076156377792
0.65053105354309082 0.14656862616539001 0.055147059261798859
0.63768380880355835 0.15937499701976776 0.070976302027702332
0.037928920239210129 0.038174018263816833 0.095118455588817596
0.014869281090795994 0.05083741620182991 0.11687091737985611
0.024972766637802124 0.052239924669265747 0.11804875731468201
0.041006259620189667 0.058578431606292725 0.12129629403352737
0.060559641569852829 0.06519608199596405 0.12171159684658051
0.083700977265834808 0.070629090070724487 0.12664762139320374
0.11252041906118393 0.074407674372196198 0.13104574382305145
0.13119553029537201 0.078465409576892853 0.1336192786693573
0.15763887763023376 0.083026960492134094 0.13696897029876709
0.18023556470870972 0.085300922393798828 0.13384395837783813
0.21053922176361084 0.084313727915287018 0.12569443881511688
0.24338234961032867 0.086689814925193787 0.11868872493505478
0.27404004335403442 0.088439546525478363 0.11325571686029434
0.307169109582901 0.090012252330780029 0.1054057702422142
0.33766341209411621 0.094301469624042511 0.090870097279548645
0.37220859527587891 0.097480937838554382 0.079330064356327057
0.40240335464477539 0.10489515215158463 0.070731215178966522
0.43368053436279297 0.10986519604921341 0.061601307243108749
0.45980390906333923 0.11044389009475708 0.050061274319887161
0.49121734499931335 0.11213235557079315 0.044138070195913315
0.51471954584121704 0.11627179384231567 0.039406318217515945
0.5408700704574585 0.11981209367513657 0.036458332091569901
0.56287449598312378 0.12335239350795746 0.036077074706554413
0.58163809776306152 0.12448937445878983 0.03255719318985939
0.60098719596862793 0.12533359229564667 0.035477939993143082
0.61950570344924927 0.12455065548419952 0.042442809790372849
0.63773828744888306 0.12337282299995422 0.045390795916318893
0.65467727184295654 0.12199755012989044 0.047324348241090775
0.67191582918167114 0.12383578717708588 0.050231482833623886
0.68463373184204102 0.12636846303939819 0.051722493022680283
0.69983655214309692 0.12881943583488464 0.052103757858276367
0.68216913938522339 0.1441584974527359 0.07473447173833847
0.042156863957643509 0.063235297799110413 0.10514705628156662
0.018321078270673752 0.075245097279548645 0.12573529779911041
0.027859477326273918 0.076613560318946838 0.12849265336990356
0.043116826564073563 0.082924835383892059 0.13167892396450043
0.063296571373939514 0.086825981736183167 0.13057598471641541
0.088602937757968903 0.090277776122093201 0.13498774170875549
0.11672794073820114 0.09270833432674408 0.13707107305526733
0.13696897029876709 0.097324341535568237 0.13921569287776947
0.16354165971279144 0.10177695751190186 0.14381127059459686
0.18764297664165497 0.1027369350194931 0.13862337172031403
0.21973039209842682 0.099754899740219116 0.13082107901573181
0.24669118225574493 0.10351307690143585 0.12199755012989044
0.27469363808631897 0.10245098173618317 0.1143382340669632
0.30870097875595093 0.10392156988382339 0.1075776219367981
0.33976715803146362 0.10569852590560913 0.093688726425170898
0.37446895241737366 0.10910948365926743 0.082761436700820923
0.40343138575553894 0.11468545347452164 0.074448525905609131
0.43541666865348816 0.1198529377579689 0.067463234066963196
0.46407273411750793 0.12175244837999344 0.056372549384832382
0.4946078360080719 0.12340686470270157 0.050980392843484879
0.51991420984268188 0.12663397192955017 0.04528186097741127
0.5468137264251709 0.12928920984268188 0.044485293328762054
0.56729990243911743 0.13376225531101227 0.041891340166330338
0.58737742900848389 0.13474264740943909 0.038419116288423538
0.60610699653625488 0.13668300211429596 0.040808822959661484
0.61966913938522339 0.13621322810649872 0.046629901975393295
0.63803106546401978 0.13474264740943909 0.049244280904531479
0.65312498807907104 0.13376225531101227 0.051960784941911697
0.6740604043006897 0.13390523195266724 0.055821079760789871
0.68956285715103149 0.1370915025472641 0.057945258915424347
0.70533090829849243 0.14105391502380371 0.058272060006856918
0.68615198135375977 0.15680147707462311 0.080392159521579742
0.038174018263816833 0.089276961982250214 0.11762663722038269
0.017422383651137352 0.098366007208824158 0.1336192786693573
0.02756672166287899 0.09952341765165329 0.13496051728725433
0.043777234852313995 0.10538534820079803 0.1393858939409256
0.064256533980369568 0.11025325953960419 0.14070670306682587
0.088922925293445587 0.11258169263601303 0.14343000948429108
0.11825980246067047 0.11570669710636139 0.14536355435848236
0.13988970220088959 0.11924700438976288 0.14666394889354706
0.16836193203926086 0.12169117480516434 0.15034721791744232
0.19210238754749298 0.12147331982851028 0.14250409603118896
0.22457107901573181 0.1196078434586525 0.13619279861450195
0.25127315521240234 0.1205950453877449 0.12920071184635162
0.28024917840957642 0.1197303906083107 0.12171159684658051
0.31363016366958618 0.12042482942342758 0.1122889518737793
0.34448528289794922 0.1199142187833786 0.098304741084575653
0.38022193312644958 0.12184096127748489 0.08751361072063446
0.40907543897628784 0.12753267586231232 0.078710511326789856
0.44093137979507446 0.13108661770820618 0.070118457078933716
0.46862062811851501 0.13304740190505981 0.059708602726459503
0.49879494309425354 0.13425244390964508 0.054554741829633713
0.5237540602684021 0.13800381124019623 0.049101307988166809
0.54816174507141113 0.1405637264251709 0.047079246491193771
0.57189542055130005 0.14334151148796082 0.044396784156560898
0.5910334587097168 0.14691583812236786 0.043668299913406372
0.61106348037719727 0.14702478051185608 0.044866554439067841
0.62361115217208862 0.14677289128303528 0.048958335071802139
0.64189130067825317 0.14692947268486023 0.051150597631931305
0.65663808584213257 0.14542482793331146 0.050959963351488113
0.67664080858230591 0.14626908302307129 0.055902779102325439
0.69398826360702515 0.14906726777553558 0.060083061456680298
0.70933413505554199 0.15412582457065582 0.06117238849401474
0.698161780834198 0.16793301701545715 0.079513885080814362
0.04583333432674408 0.11881127208471298 0.1302083283662796
0.019056372344493866 0.13075980544090271 0.14932598173618317
0.026388891041278839 0.13057598471641541 0.14879493415355682
0.041748367249965668 0.13500818610191345 0.15196079015731812
0.063112743198871613 0.13792891800403595 0.15428921580314636
0.088378265500068665 0.14025735855102539 0.15559642016887665
0.11954656988382339 0.14221814274787903 0.15857842564582825
0.1461397111415863 0.1457720547914505 0.15870098769664764
0.17898283898830414 0.14791665971279144 0.16066177189350128
0.20471814274787903 0.15004083514213562 0.15555554628372192
0.23848038911819458 0.14687499403953552 0.14950980246067047
0.26366421580314636 0.14687499403953552 0.13995097577571869
0.29221814870834351 0.14528186619281769 0.13210783898830414
0.32442811131477356 0.14550653100013733 0.12183414399623871
0.35686275362968445 0.14620098471641541 0.11127451062202454
0.39087009429931641 0.14656862616539001 0.10118463635444641
0.41603350639343262 0.14967319369316101 0.086580879986286163
0.44675245881080627 0.1509803980588913 0.076899506151676178
0.47669526934623718 0.15279819071292877 0.07091502845287323
0.5058823823928833 0.15361519157886505 0.063725493848323822
0.53029006719589233 0.15573938190937042 0.058251630514860153
0.55545341968536377 0.15919117629528046 0.054779410362243652
0.5787581205368042 0.1634395569562912 0.053982842713594437
0.59773284196853638 0.1669117659330368 0.053370099514722824
0.61740195751190186 0.1684640645980835 0.054207514971494675
0.63327205181121826 0.16850490868091583 0.053002450615167618
0.65100085735321045 0.16805556416511536 0.055147059261798859
0.66838234663009644 0.16593137383460999 0.055637255311012268
0.68619275093078613 0.1687091588973999 0.062745101749897003
0.70051068067550659 0.17156863212585449 0.065175659954547882
0.71587008237838745 0.17604166269302368 0.064950980246067047
0.69546568393707275 0.19227941334247589 0.089338235557079315
0.049489378929138184 0.14462825655937195 0.14340278506278992
0.021772876381874084 0.15641339123249054 0.163317009806633
0.027907136827707291 0.15499046444892883 0.16308552026748657
0.041530497372150421 0.15953159332275391 0.16670072078704834
0.061846405267715454 0.16294935345649719 0.16468545794487
0.087997004389762878 0.16525055468082428 0.16656453907489777
0.11791258305311203 0.16693218052387238 0.16889296472072601
0.14910130202770233 0.16966912150382996 0.16845043003559113
0.18321079015731812 0.17230391502380371 0.17132352292537689
0.21083196997642517 0.17320942878723145 0.16500544548034668
0.24517972767353058 0.17177288234233856 0.1597222238779068
0.27305284142494202 0.17186819016933441 0.15063317120075226
0.3006536066532135 0.17069035768508911 0.14209559559822083
0.33276823163032532 0.16930146515369415 0.13288399577140808
0.36517566442489624 0.16862745583057404 0.12036355584859848
0.40070807933807373 0.16894063353538513 0.11243872344493866
0.42556509375572205 0.16972358524799347 0.097521789371967316
0.45665851235389709 0.17046569287776947 0.088541664183139801
0.48178786039352417 0.17165713012218475 0.081733390688896179
0.51098859310150146 0.17154818773269653 0.074264705181121826
0.5359681248664856 0.17302560806274414 0.068729571998119354
0.56278598308563232 0.17655228078365326 0.065645419061183929
0.58553236722946167 0.17992240190505981 0.065189272165298462
0.6069445013999939 0.18431372940540314 0.065379902720451355
0.62523144483566284 0.18602259457111359 0.064746730029582977
0.64113563299179077 0.18845996260643005 0.059946894645690918
0.65843546390533447 0.1880582720041275 0.06222086027264595
0.67457109689712524 0.1875 0.063950158655643463
0.69161903858184814 0.19008032977581024 0.068961054086685181
0.70683550834655762 0.19266067445278168 0.071759261190891266
0.72199755907058716 0.19634395837783813 0.074121728539466858
0.70667892694473267 0.21111112833023071 0.091891340911388397
0.045588236302137375 0.18155637383460999 0.16654412448406219
0.02500000037252903 0.18964460492134094 0.18020834028720856
0.029758987948298454 0.18845996260643005 0.1769607812166214
0.042197711765766144 0.19138070940971375 0.17812499403953552
0.05986519530415535 0.19234068691730499 0.17653186619281769
0.084579244256019592 0.19540441036224365 0.17904411256313324
0.11629901826381683 0.19871322810649872 0.18437500298023224
0.14722220599651337 0.20098039507865906 0.17994280159473419
0.18125000596046448 0.20343136787414551 0.18106617033481598
0.21339868009090424 0.20529003441333771 0.17755308747291565
0.25275734066963196 0.20484068989753723 0.17414215207099915
0.28384393453598022 0.2052900493144989 0.17064951360225677
0.3123161792755127 0.20379902422428131 0.1614583283662796
0.34724265336990356 0.20363563299179077 0.15151143074035645
0.3805147111415863 0.20104166865348816 0.14234068989753723
0.4152369499206543 0.19987745583057404 0.13196487724781036
0.43860295414924622 0.19993872940540314 0.11636029183864594
0.4688725471496582 0.19883579015731812 0.1039828434586525
0.49850896000862122 0.19677288830280304 0.099244281649589539
0.52738970518112183 0.19681373238563538 0.091299019753932953
0.54814136028289795 0.19814133644104004 0.085743464529514313
0.57273286581039429 0.20000000298023224 0.079044118523597717
0.59520012140274048 0.20439133048057556 0.08049427717924118
0.61832106113433838 0.20778186619281769 0.081004902720451355
0.63729578256607056 0.20974265038967133 0.080841496586799622
0.65251225233078003 0.21409313380718231 0.081127449870109558
0.67154818773269653 0.21517564356327057 0.084027774631977081
0.68725490570068359 0.21482843160629272 0.085355393588542938
0.70465683937072754 0.21719770133495331 0.08903186023235321
0.71999591588973999 0.22077205777168274 0.092667482793331146
0.73339462280273438 0.22359068691730499 0.093566179275512695
0.71249997615814209 0.2395833283662796 0.11501225829124451
0.055882353335618973 0.20923201739788055 0.17638887465000153
0.024918301030993462 0.22022059559822083 0.19479165971279144
0.030882354825735092 0.21909041702747345 0.19250407814979553
0.040543302893638611 0.22036357223987579 0.19188453257083893
0.057781863957643509 0.22116012871265411 0.191094771027565
0.082318894565105438 0.22347494959831238 0.19516612589359283
0.11309231817722321 0.22616422176361084 0.19983659684658051
0.14615331590175629 0.22864243388175964 0.19212281703948975
0.18431372940540314 0.23049429059028625 0.19417892396450043
0.21668709814548492 0.23318356275558472 0.19119690358638763
0.25980392098426819 0.23286356031894684 0.18890930712223053
0.292653888463974 0.23526006937026978 0.18329249322414398
0.3244689404964447 0.23453839123249054 0.17630720138549805
0.35923203825950623 0.23490603268146515 0.1663602888584137
0.39191177487373352 0.23319034278392792 0.15964052081108093
0.42672932147979736 0.2312091588973999 0.14955747127532959
0.45183822512626648 0.23083469271659851 0.13459965586662292
0.48247548937797546 0.23029002547264099 0.12389706075191498
0.5094839334487915 0.22812500596046448 0.11856617778539658
0.53892970085144043 0.22726716101169586 0.10921160131692886
0.56062769889831543 0.22617782652378082 0.10178376734256744
0.58447706699371338 0.22638887166976929 0.096915856003761292
0.60748910903930664 0.2311546802520752 0.098093681037425995
0.6264910101890564 0.23445670306682587 0.097263067960739136
0.6442946195602417 0.23510348796844482 0.094478487968444824
0.66058003902435303 0.2394607812166214 0.090073525905609131
0.67997008562088013 0.24035267531871796 0.094192534685134888
0.69771236181259155 0.24033905565738678 0.097467318177223206
0.71238428354263306 0.24279685318470001 0.10164079815149307
0.72601443529129028 0.24624864757061005 0.10284586250782013
0.74138075113296509 0.25004085898399353 0.10257352888584137
0.7186274528503418 0.26668709516525269 0.12459149956703186
0.050183825194835663 0.24914215505123138 0.20006127655506134
0.02861519530415535 0.25698530673980713 0.21305146813392639
0.032618463039398193 0.25549429655075073 0.21239788830280304
0.03978758305311203 0.25610703229904175 0.21164216101169586
0.051348038017749786 0.25631126761436462 0.20759804546833038
0.075878269970417023 0.25863969326019287 0.20990604162216187
0.10533088445663452 0.26158088445663452 0.21060049533843994
0.14244280755519867 0.26235705614089966 0.20706699788570404
0.1822916716337204 0.26470589637756348 0.21060049533843994
0.2186887264251709 0.26732027530670166 0.20723038911819458
0.26200979948043823 0.26740196347236633 0.20343136787414551
0.30116420984268188 0.26966911554336548 0.19901961088180542
0.33560049533843994 0.2710171639919281 0.19319853186607361
0.37401959300041199 0.27071079611778259 0.18400734663009644
0.40790441632270813 0.27120098471641541 0.18118873238563538
0.44477126002311707 0.27028185129165649 0.17379492521286011
0.47340685129165649 0.2711397111415863 0.15861926972866058
0.50416666269302368 0.26905637979507446 0.1507352888584137
0.52982026338577271 0.26674836874008179 0.14683414995670319
0.55949753522872925 0.2656862735748291 0.13909313082695007
0.5808415412902832 0.26537990570068359 0.13216911256313324
0.60208332538604736 0.26672795414924622 0.12573529779911041
0.6265522837638855 0.2667483389377594 0.12393790483474731
0.64399510622024536 0.26825979351997375 0.12009803950786591
0.66139703989028931 0.26621732115745544 0.11542075127363205
0.67401963472366333 0.26844361424446106 0.11109068989753723
0.69211608171463013 0.26956698298454285 0.11429738253355026
0.70839458703994751 0.27015930414199829 0.11568627506494522
0.72228354215621948 0.27414214611053467 0.11658497154712677
0.73617243766784668 0.2776552140712738 0.11705473065376282
0.75024509429931641 0.28063726425170898 0.11819852888584137
0.73462009429931641 0.29424020648002625 0.1356004923582077
0.063133165240287781 0.2849673330783844 0.21566584706306458
0.031556371599435806 0.29718136787414551 0.23372142016887665
0.033258441835641861 0.29560184478759766 0.23130446672439575
0.039106756448745728 0.29387253522872925 0.2291121780872345
0.049530226737260818 0.29356616735458374 0.2274305522441864
0.069750815629959106 0.29518654942512512 0.22847902774810791
0.09693627804517746 0.29777368903160095 0.22955474257469177
0.1344907283782959 0.30018383264541626 0.22241285443305969
0.17787989974021912 0.3033905029296875 0.22375407814979553
0.2168913334608078 0.3053717315196991 0.22200435400009155
0.26482844352722168 0.30347222089767456 0.21897466480731964
0.30573257803916931 0.30567130446434021 0.21803513169288635
0.34473040699958801 0.3069852888584137 0.21286764740943909
0.38667619228363037 0.30763208866119385 0.20726442337036133
0.41924020648002625 0.30947712063789368 0.20469769835472107
0.45693084597587585 0.30963370203971863 0.19884258508682251
0.48952889442443848 0.31185320019721985 0.18763616681098938
0.5232434868812561 0.3107026219367981 0.18029002845287323
0.5504765510559082 0.3077273964881897 0.17628677189350128
0.58108663558959961 0.30622959136962891 0.16897466778755188
0.60330879688262939 0.30541938543319702 0.16021923720836639
0.62549018859863281 0.30614787340164185 0.15669935941696167
0.64566314220428467 0.30605939030647278 0.15427559614181519
0.66323530673980713 0.30561685562133789 0.14836600422859192
0.67785942554473877 0.30400323867797852 0.14402233064174652
0.68643784523010254 0.30494281649589539 0.14131943881511688
0.70344501733779907 0.30508577823638916 0.14234068989753723
0.71864783763885498 0.30561685562133789 0.14399509131908417
0.73265933990478516 0.30963370203971863 0.14350490272045135
0.74514573812484741 0.31315359473228455 0.14298747479915619
0.76031458377838135 0.31638070940971375 0.14454656839370728
0.73809230327606201 0.33406862616539001 0.16766749322414398
0.069546565413475037 0.3177696168422699 0.23265931010246277
0.037254903465509415 0.33020833134651184 0.25147059559822083
0.03874591737985611 0.3291257917881012 0.2501225471496582
0.04111519455909729 0.32736927270889282 0.24816174805164337
0.049142155796289444 0.32610294222831726 0.24571079015731812
0.066707514226436615 0.32626634836196899 0.24642564356327057
0.090747550129890442 0.32922795414924622 0.24810048937797546
0.1272875964641571 0.33308824896812439 0.24162581562995911
0.17310048639774323 0.33915442228317261 0.2449754923582077
0.21296977996826172 0.33933824300765991 0.2413807213306427
