snapseed-lut/snapseed-film-x05.cube
# Created by: G'MIC (https://gmic.eu)
TITLE "snapseed-film-x05"
# LUT size
LUT_3D_SIZE 5
# Data domain
# LUT data points
DOMAIN_MIN 0.000000 0.000000 0.000000
DOMAIN_MAX 0.903226 0.903226 0.903226
0.15808823704719543 0.19178920984268188 0.10575980693101883
0.23149509727954865 0.21345995366573334 0.097814545035362244
0.47861519455909729 0.27218136191368103 0.070343136787414551
0.64638477563858032 0.32867646217346191 0.034681372344493866
0.66468542814254761 0.33747959136962891 0.026960784569382668
0.1858251541852951 0.1734272837638855 0.10157271474599838
0.24990467727184296 0.20332925021648407 0.11307189613580704
0.49142158031463623 0.26930147409439087 0.08429330587387085
0.69589459896087646 0.36113154888153076 0.064603760838508606
0.72542208433151245 0.37525191903114319 0.060334969311952591
0.16029411554336548 0.22781862318515778 0.12959559261798859
0.24364787340164185 0.28335374593734741 0.15479983389377594
0.48504900932312012 0.37904411554336548 0.14264705777168274
0.71421569585800171 0.4796568751335144 0.13958333432674408
0.75649511814117432 0.49405637383460999 0.13627451658248901
0.16476716101169586 0.40269607305526733 0.23363970220088959
0.28300654888153076 0.47242647409439087 0.25171568989753723
0.54123777151107788 0.58026963472366333 0.27015930414199829
0.7441176176071167 0.67224264144897461 0.28351715207099915
0.78613150119781494 0.69105392694473267 0.28598856925964355
0.16429740190505981 0.4650326669216156 0.26525735855102539
0.29213643074035645 0.55173617601394653 0.29779410362243652
0.55692404508590698 0.66844362020492554 0.33427286148071289
0.75406455993652344 0.75459557771682739 0.35484069585800171
0.79566997289657593 0.77495920658111572 0.35712826251983643
0.12342728674411774 0.19526144862174988 0.15330882370471954
0.22706291079521179 0.22927559912204742 0.1677219420671463
0.48788806796073914 0.29852941632270813 0.16207107901573181
0.6545751690864563 0.35849675536155701 0.14648693799972534
0.67150735855102539 0.3677423894405365 0.13657405972480774
0.18216231465339661 0.1803104430437088 0.16627860069274902
0.26663261651992798 0.22312317788600922 0.19549290835857391
0.51816451549530029 0.29568356275558472 0.18554604053497314
0.71864104270935059 0.37863561511039734 0.17650464177131653
0.74836152791976929 0.39224082231521606 0.16759714484214783
0.15655636787414551 0.24920342862606049 0.23055556416511536
0.26913806796073914 0.31708875298500061 0.27032956480979919
0.52013891935348511 0.41783088445663452 0.27800244092941284
0.73862338066101074 0.52126222848892212 0.28464049100875854
0.77256268262863159 0.53643113374710083 0.26899510622024536
0.13415032625198364 0.41932186484336853 0.34812089800834656
0.30805420875549316 0.51305145025253296 0.39530226588249207
0.57849264144897461 0.62158900499343872 0.41325569152832031
0.76458334922790527 0.70555555820465088 0.42228350043296814
0.7989923357963562 0.72148686647415161 0.41025325655937195
0.13412989675998688 0.48029002547264099 0.38182869553565979
0.31909951567649841 0.58421844244003296 0.43489697575569153
0.58980804681777954 0.69838637113571167 0.46020561456680298
0.76578837633132935 0.77335238456726074 0.47145289182662964
0.80195397138595581 0.79330062866210938 0.46834376454353333
0.11060049384832382 0.21060049533843994 0.29644608497619629
0.25557598471641541 0.26051881909370422 0.31595176458358765
0.50759804248809814 0.32512253522872925 0.31758579611778259
0.68296569585800171 0.40165442228317261 0.32947304844856262
0.71213233470916748 0.41560459136962891 0.32444852590560913
0.17847220599651337 0.21254085004329681 0.33110702037811279
0.29099264740943909 0.26670071482658386 0.35727125406265259
0.54573118686676025 0.34470996260643005 0.36305147409439087
0.74009394645690918 0.42922794818878174 0.37030225992202759
0.7688453197479248 0.43902504444122314 0.36041668057441711
0.14313726127147675 0.29920342564582825 0.40030637383460999
0.30110293626785278 0.38106617331504822 0.44344362616539001
0.55600488185882568 0.48406863212585449 0.45974263548851013
0.74957108497619629 0.57463234663009644 0.4742647111415863
0.78384393453598022 0.59209561347961426 0.46721813082695007
0.12683823704719543 0.46985295414924622 0.50631129741668701
0.33774510025978088 0.567463219165802 0.55253267288208008
0.60471814870834351 0.67107844352722168 0.58167892694473267
0.77126222848892212 0.74148285388946533 0.59056371450424194
0.80273693799972534 0.75285941362380981 0.57888078689575195
0.13698938488960266 0.53674429655075073 0.52892154455184937
0.34285128116607666 0.62160265445709229 0.57647740840911865
0.60524922609329224 0.72990196943283081 0.61021238565444946
0.76405233144760132 0.7920956015586853 0.61985296010971069
0.80145013332366943 0.81083196401596069 0.61683005094528198
0.12248774617910385 0.26875001192092896 0.47781863808631897
0.31017157435417175 0.33433413505554199 0.50870096683502197
0.55735296010971069 0.39993873238563538 0.50998777151107788
0.69571077823638916 0.45888480544090271 0.51366418600082397
0.71482843160629272 0.4698120653629303 0.50533086061477661
0.21817810833454132 0.3036969006061554 0.53421157598495483
0.37503403425216675 0.37693354487419128 0.56963509321212769
0.61462414264678955 0.45782271027565002 0.57722628116607666
0.76924020051956177 0.52945256233215332 0.58768379688262939
0.78798335790634155 0.53055548667907715 0.57381534576416016
0.17450980842113495 0.39883577823638916 0.55857843160629272
0.35855802893638611 0.4952206015586853 0.6189950704574585
0.61305147409439087 0.59730392694473267 0.65055149793624878
0.76868873834609985 0.6561887264251709 0.65257352590560913
0.79160541296005249 0.66319441795349121 0.64938724040985107
0.18045343458652496 0.55674022436141968 0.64172792434692383
0.38202616572380066 0.64150327444076538 0.6849672794342041
0.62542891502380371 0.73026961088180542 0.71115195751190186
0.76997548341751099 0.77916663885116577 0.71213233470916748
0.79779410362243652 0.78823530673980713 0.70678102970123291
0.18169933557510376 0.61070257425308228 0.65230798721313477
0.38223040103912354 0.68039214611053467 0.68984204530715942
0.62248772382736206 0.76942402124404907 0.71956706047058105
0.7649918794631958 0.82077205181121826 0.72810459136962891
0.79935318231582642 0.83459967374801636 0.73303377628326416
0.1943219006061554 0.34080880880355835 0.60657680034637451
0.3923066258430481 0.41745641827583313 0.64016211032867432
0.60167485475540161 0.51341909170150757 0.653145432472229
0.71474677324295044 0.58788812160491943 0.66625821590423584
0.72480934858322144 0.58730250597000122 0.65934097766876221
0.2928445041179657 0.39690223336219788 0.65403729677200317
0.45498591661453247 0.47331154346466064 0.69174152612686157
0.65947705507278442 0.56394338607788086 0.71094769239425659
0.77985435724258423 0.62818628549575806 0.72018659114837646
0.7960466742515564 0.63155865669250488 0.71953976154327393
0.2238970547914505 0.46113154292106628 0.62957513332366943
0.39582651853561401 0.5589597225189209 0.68235975503921509
0.64201390743255615 0.66190773248672485 0.72412174940109253
0.77996325492858887 0.72073125839233398 0.73564136028289795
0.80138885974884033 0.7282339334487915 0.73584556579589844
0.23022876679897308 0.60479980707168579 0.68852126598358154
0.40966096520423889 0.6785743236541748 0.7223583459854126
0.63031047582626343 0.75835371017456055 0.74468958377838135
0.77365195751190186 0.80520832538604736 0.75257354974746704
0.79835242033004761 0.81463778018951416 0.75713509321212769
0.20553514361381531 0.63490599393844604 0.69109475612640381
0.41304919123649597 0.70916849374771118 0.72806143760681152
0.6297793984413147 0.7845451831817627 0.7483183741569519
0.76797389984130859 0.82767564058303833 0.75668573379516602
0.79449212551116943 0.84222042560577393 0.76380717754364014
