snapseed-lut/snapseed-film-l05.cube
# Created by: G'MIC (https://gmic.eu)
TITLE "snapseed-film-l05"
# LUT size
LUT_3D_SIZE 32
# Data domain
DOMAIN_MIN 0.0 0.0 0.0
DOMAIN_MAX 1.0 1.0 1.0
# LUT data points
0.07493872195482254 0.13799019157886505 0.15802696347236633
0.051164217293262482 0.1511029452085495 0.16574755311012268
0.05951797217130661 0.15208333730697632 0.16740195453166962
0.066707514226436615 0.15275734663009644 0.16836191713809967
0.079227939248085022 0.15539215505123138 0.16862745583057404
0.091584973037242889 0.15667891502380371 0.16711600124835968
0.10729166865348816 0.15686275064945221 0.16360294818878174
0.11936274170875549 0.15945670008659363 0.16407270729541779
0.1405024528503418 0.15747548639774323 0.16568627953529358
0.1540849506855011 0.15974265336990356 0.16699345409870148
0.17757353186607361 0.15833333134651184 0.16832107305526733
0.20365603268146515 0.15884396433830261 0.16497141122817993
0.22310048341751099 0.15998774766921997 0.16838234663009644
0.24803921580314636 0.16227532923221588 0.17344771325588226
0.27432596683502197 0.1612745076417923 0.17346814274787903
0.30663809180259705 0.15767975151538849 0.17426469922065735
0.33604985475540161 0.15757761895656586 0.17834967374801636
0.36862745881080627 0.15367646515369415 0.18026961386203766
0.40138888359069824 0.1490604430437088 0.17822711169719696
0.43805146217346191 0.14350490272045135 0.18063725531101227
0.46836194396018982 0.13666257262229919 0.17834967374801636
0.50220590829849243 0.12450980395078659 0.18192401528358459
0.53811275959014893 0.10796568542718887 0.17996323108673096
0.56985294818878174 0.093075983226299286 0.17401960492134094
0.60776138305664062 0.076981201767921448 0.17263071238994598
0.64123773574829102 0.062867648899555206 0.17512254416942596
0.68057596683502197 0.060784313827753067 0.17820671200752258
0.7137255072593689 0.060294117778539658 0.18167892098426819
0.75339049100875854 0.061274509876966476 0.18345588445663452
0.78921568393707275 0.061111114919185638 0.1840890645980835
0.8221813440322876 0.064828433096408844 0.18523284792900085
0.80986517667770386 0.08284313976764679 0.19552695751190186
0.086703434586524963 0.13425244390964508 0.15698529779911041
0.053431373089551926 0.15232843160629272 0.16789215803146362
0.062479574233293533 0.15273693203926086 0.1684640496969223
0.071078434586524963 0.15467728674411774 0.16683004796504974
0.082414217293262482 0.15471813082695007 0.1667892187833786
0.094914212822914124 0.15663807094097137 0.16535948216915131
0.11004901677370071 0.15729166567325592 0.16415441036224365
0.12097630649805069 0.16102941334247589 0.16593137383460999
0.14117647707462311 0.15937499701976776 0.16562500596046448
0.15620914101600647 0.16154004633426666 0.16580882668495178
0.17916665971279144 0.15992647409439087 0.16758579015731812
0.20594362914562225 0.15972220897674561 0.16695261001586914
0.22463235259056091 0.16096813976764679 0.16887255012989044
0.25036764144897461 0.16266338527202606 0.17275325953960419
0.27542892098426819 0.1617647111415863 0.17297793924808502
0.30849674344062805 0.15886436402797699 0.17499999701976776
0.33750000596046448 0.15933413803577423 0.17902368307113647
0.36930146813392639 0.15563724935054779 0.17953431606292725
0.40138888359069824 0.15287990868091583 0.17771650850772858
0.43878677487373352 0.1455882340669632 0.17904411256313324
0.46977126598358154 0.13731618225574493 0.17861519753932953
0.49969363212585449 0.12794117629528046 0.18026961386203766
0.53625410795211792 0.11268382519483566 0.17771649360656738
0.56795340776443481 0.099019609391689301 0.17414215207099915
0.60467731952667236 0.08284313976764679 0.17248775064945221
0.63694852590560913 0.068688727915287018 0.17389705777168274
0.67520421743392944 0.066319435834884644 0.17657269537448883
0.70667892694473267 0.065502449870109558 0.1773897111415863
0.74630314111709595 0.06507352739572525 0.18127043545246124
0.78122955560684204 0.065216496586799622 0.18325163424015045
0.81170344352722168 0.070404410362243652 0.18406862020492554
0.79957109689712524 0.087499998509883881 0.19393382966518402
0.085743464529514313 0.14121730625629425 0.16372549533843994
0.063562087714672089 0.15545342862606049 0.17418299615383148
0.070758447051048279 0.15541258454322815 0.17346131801605225
0.079466231167316437 0.15628404915332794 0.17350219190120697
0.091421566903591156 0.15778186917304993 0.17375408113002777
0.10386709868907928 0.15814951062202454 0.17204521596431732
0.12058823555707932 0.15749591588973999 0.16901552677154541
0.1319444477558136 0.16160131990909576 0.17152096331119537
0.15351307392120361 0.15827205777168274 0.17101715505123138
0.16867510974407196 0.16031454503536224 0.17136436700820923
0.19185048341751099 0.15900735557079315 0.1719975471496582
0.21665985882282257 0.15841503441333771 0.16836193203926086
0.23856210708618164 0.15962009131908417 0.16968955099582672
0.26603353023529053 0.16166938841342926 0.17269879579544067
0.29489380121231079 0.16158087551593781 0.17408087849617004
0.32821351289749146 0.15936818718910217 0.17717865109443665
0.35509943962097168 0.15870778262615204 0.17843137681484222
0.38805148005485535 0.15575979650020599 0.17982026934623718
0.42217454314231873 0.15173612534999847 0.17557869851589203
0.45955881476402283 0.14448529481887817 0.17724671959877014
0.49222496151924133 0.13658088445663452 0.17860837280750275
0.52551066875457764 0.1282271146774292 0.18020834028720856
0.56163531541824341 0.11497821658849716 0.18014705181121826
0.59520018100738525 0.10298202186822891 0.17886029183864594
0.63032406568527222 0.087547659873962402 0.17607571184635162
0.66139703989028931 0.074754901230335236 0.17453023791313171
0.69532275199890137 0.066353484988212585 0.17208604514598846
0.72540843486785889 0.060641337186098099 0.16983252763748169
0.7655637264251709 0.056563183665275574 0.17560593783855438
0.80072849988937378 0.055671297013759613 0.17804330587387085
0.82949352264404297 0.060171566903591156 0.1768995076417923
0.82865607738494873 0.074652776122093201 0.18754084408283234
0.12083332985639572 0.12939134240150452 0.17573529481887817
0.084415853023529053 0.15046977996826172 0.18884803354740143
0.092783220112323761 0.15027232468128204 0.18860293924808502
0.10092592239379883 0.15182462334632874 0.18803785741329193
0.11493056267499924 0.15304329991340637 0.18698936700820923
0.12517021596431732 0.15357436239719391 0.18481072783470154
0.14289215207099915 0.15373773872852325 0.18165850639343262
0.15635211765766144 0.15629085898399353 0.17824755609035492
0.17955474555492401 0.15371730923652649 0.18000407516956329
0.19402915239334106 0.1532135009765625 0.17922794818878174
0.21942402422428131 0.15273693203926086 0.17849265038967133
0.24818898737430573 0.15047658979892731 0.17201116681098938
0.27209970355033875 0.15149101614952087 0.17324347794055939
0.30021104216575623 0.15262798964977264 0.17796161770820618
0.33208742737770081 0.15018382668495178 0.17573529481887817
0.37137117981910706 0.14833877980709076 0.17768245935440063
0.40173611044883728 0.14448529481887817 0.17981345951557159
0.43925651907920837 0.14148284494876862 0.18208742141723633
0.47493872046470642 0.13601580262184143 0.17543572187423706
0.51654410362243652 0.12681782245635986 0.17808416485786438
0.55315226316452026 0.11836192756891251 0.18033768236637115
0.59123772382736206 0.1094975471496582 0.18165849149227142
0.63268649578094482 0.095077618956565857 0.1808619350194931
0.67224264144897461 0.081760615110397339 0.18029004335403442
0.71548205614089966 0.06512799859046936 0.18033088743686676
0.74924421310424805 0.049918297678232193 0.17728757858276367
0.78269338607788086 0.039821624755859375 0.17412854731082916
0.81080472469329834 0.031964868307113647 0.17269200086593628
0.84948259592056274 0.026606753468513489 0.17461192607879639
0.88643115758895874 0.025170207023620605 0.17581698298454285
0.91860699653625488 0.029268791899085045 0.17569445073604584
0.90314549207687378 0.050224673002958298 0.19056372344493866
0.11678921431303024 0.14301469922065735 0.17959558963775635
0.07916666567325592 0.16378676891326904 0.19405637681484222
0.088786765933036804 0.16441993415355682 0.1948733776807785
0.097589865326881409 0.16564543545246124 0.19434231519699097
0.10998774319887161 0.16519607603549957 0.19332107901573181
0.12226307392120361 0.1667892187833786 0.19021649658679962
0.13866421580314636 0.16568627953529358 0.18786764144897461
0.15453431010246277 0.16785129904747009 0.18500816822052002
0.17843137681484222 0.1667279452085495 0.18621324002742767
0.19372956454753876 0.16609476506710052 0.18159721791744232
0.21899509429931641 0.16452205181121826 0.17984068393707275
0.24957108497619629 0.16429738700389862 0.17775735259056091
0.27622547745704651 0.16470588743686676 0.18033088743686676
0.3069852888584137 0.16525734961032867 0.18114787340164185
0.33909314870834351 0.16421568393707275 0.17898283898830414
0.3767973780632019 0.16194853186607361 0.18257761001586914
0.40682187676429749 0.16074347496032715 0.18378269672393799
0.44442403316497803 0.15649509429931641 0.18382352590560913
0.48059642314910889 0.15004083514213562 0.17855392396450043
0.52414214611053467 0.14252451062202454 0.18075980246067047
0.56329655647277832 0.13472221791744232 0.18304738402366638
0.59699755907058716 0.12959559261798859 0.18033088743686676
0.63933825492858887 0.1176879033446312 0.18171977996826172
0.67922794818878174 0.10643382370471954 0.18357843160629272
0.72291666269302368 0.093300655484199524 0.18468137085437775
0.7559436559677124 0.083149507641792297 0.18351715803146362
0.79336196184158325 0.072814539074897766 0.1806168407201767
0.82493871450424194 0.063848040997982025 0.17757353186607361
0.86417490243911743 0.058986924588680267 0.18065768480300903
0.89922386407852173 0.058415032923221588 0.18255718052387238
0.92990195751190186 0.064522057771682739 0.18296568095684052
0.91727942228317261 0.087254904210567474 0.19993872940540314
0.1039828434586525 0.16084559261798859 0.18723446130752563
0.075388073921203613 0.17796160280704498 0.20087827742099762
0.083020150661468506 0.1775190681219101 0.20006810128688812
0.092306643724441528 0.17864242196083069 0.20081700384616852
0.10343137383460999 0.17834967374801636 0.19924427568912506
0.11705473065376282 0.17959558963775635 0.19665712118148804
0.13600897789001465 0.17930963635444641 0.19385211169719696
0.14943490922451019 0.18133850395679474 0.19200026988983154
0.17704249918460846 0.17886029183864594 0.19248366355895996
0.19579249620437622 0.18121595680713654 0.18974672257900238
0.22350898385047913 0.18022876977920532 0.18843954801559448
0.25326114892959595 0.18025599420070648 0.18531455099582672
0.28084146976470947 0.17984068393707275 0.18368054926395416
0.31220045685768127 0.17986111342906952 0.1817946583032608
0.34268790483474731 0.17747141420841217 0.18104574084281921
0.38145425915718079 0.17521786689758301 0.18271379172801971
0.41432461142539978 0.17476171255111694 0.18038533627986908
0.45275735855102539 0.17230391502380371 0.18237335979938507
0.48781320452690125 0.16845723986625671 0.18082788586616516
0.53004497289657593 0.16045750677585602 0.1825367659330368
0.56785136461257935 0.15313860774040222 0.18293844163417816
0.60484069585800171 0.14842729270458221 0.18151551485061646
0.64556097984313965 0.13983525335788727 0.18279547989368439
0.68312913179397583 0.13186274468898773 0.18476308882236481
0.72401958703994751 0.12142565101385117 0.18561410903930664
0.75637257099151611 0.11546159535646439 0.18349672853946686
0.79628956317901611 0.10684913396835327 0.18462009727954865
0.83002448081970215 0.099407680332660675 0.18453840911388397
0.86791938543319702 0.094240196049213409 0.18592047691345215
0.90286624431610107 0.093702338635921478 0.18493327498435974
0.93590688705444336 0.1005718931555748 0.18654003739356995
0.93490606546401978 0.11828022450208664 0.20161356031894684
0.10557597875595093 0.17763480544090271 0.19485294818878174
0.069546565413475037 0.19699755311012268 0.21207107603549957
0.076960787177085876 0.19609884917736053 0.21078431606292725
0.085089877247810364 0.19714052975177765 0.21098856627941132
0.096568629145622253 0.19497549533843994 0.20888480544090271
0.10845588147640228 0.19707925617694855 0.20698529481887817
0.12702205777168274 0.19908088445663452 0.20514705777168274
0.14758986234664917 0.19991829991340637 0.2030637264251709
0.1773284375667572 0.19840686023235321 0.20196078717708588
0.19756944477558136 0.19926470518112183 0.19687500596046448
0.22512255609035492 0.19975490868091583 0.19515931606292725
0.25531047582626343 0.19904004037380219 0.19035948812961578
0.28486520051956177 0.19877451658248901 0.1875
0.3206290602684021 0.19754901528358459 0.18668301403522491
0.35049018263816833 0.19828431308269501 0.18388479948043823
0.38919529318809509 0.1958741694688797 0.1825367659330368
0.42379492521286011 0.19450573623180389 0.18233250081539154
0.4639093279838562 0.1925245076417923 0.18259803950786591
0.49901959300041199 0.18956291675567627 0.18135210871696472
0.54037988185882568 0.18351715803146362 0.18443627655506134
0.57736921310424805 0.17790032923221588 0.18723447620868683
0.61580884456634521 0.17536765336990356 0.18094362318515778
0.65759801864624023 0.16832107305526733 0.18286356329917908
0.69411766529083252 0.16115196049213409 0.18682597577571869
0.73564130067825317 0.15404412150382996 0.18852125108242035
0.76488971710205078 0.15220588445663452 0.1823529452085495
0.80343139171600342 0.14522059261798859 0.18265931308269501
0.83529412746429443 0.13946078717708588 0.1824754923582077
0.87287580966949463 0.13682597875595093 0.1857026219367981
0.90733253955841064 0.13707107305526733 0.18696895241737366
0.94123774766921997 0.14479166269302368 0.18878675997257233
0.92800247669219971 0.16654412448406219 0.20968137681484222
0.091911762952804565 0.19714052975177765 0.2030637264251709
0.055392157286405563 0.2167075127363205 0.22308005392551422
0.061860021203756332 0.21462418138980865 0.21963506937026978
0.072331152856349945 0.21549563109874725 0.21966911852359772
0.085866019129753113 0.21507352590560913 0.21756534278392792
0.098209425806999207 0.21689134836196899 0.21521651744842529
0.11556372791528702 0.21785129606723785 0.211682990193367
0.13848039507865906 0.21887937188148499 0.21157406270503998
0.170138880610466 0.21772876381874084 0.21076388657093048
0.19296704232692719 0.21905636787414551 0.20522195100784302
0.22291666269302368 0.21936275064945221 0.20347222685813904
0.25505173206329346 0.21860022842884064 0.19882898032665253
0.28688725829124451 0.21770833432674408 0.19520016014575958
0.32293027639389038 0.21683686971664429 0.19383850693702698
0.35418707132339478 0.21680963039398193 0.18727533519268036
0.39376360177993774 0.2137322872877121 0.1876838207244873
0.42947983741760254 0.21241149306297302 0.18591366708278656
0.47034314274787903 0.20953840017318726 0.18649917840957642
0.50723040103912354 0.20809504389762878 0.18756808340549469
0.54924428462982178 0.20398284494876862 0.18803104758262634
0.58534854650497437 0.19910810887813568 0.18539625406265259
0.62152779102325439 0.19758987426757812 0.18225082755088806
0.6633986234664917 0.1921500563621521 0.18467456102371216
0.69842731952667236 0.18711192905902863 0.18641747534275055
0.73888885974884033 0.18222358822822571 0.18844634294509888
0.76746320724487305 0.18129083514213562 0.18376225233078003
0.80981075763702393 0.17581018805503845 0.18697576224803925
0.84583336114883423 0.1717524528503418 0.18870507180690765
0.88040578365325928 0.17269198596477509 0.18799020349979401
0.91266340017318726 0.17520426213741302 0.18904547393321991
0.94321900606155396 0.1802491694688797 0.18774509429931641
0.93807190656661987 0.1992238461971283 0.20645426213741302
0.072181373834609985 0.22071078419685364 0.21286764740943909
0.045526959002017975 0.23566175997257233 0.22824755311012268
0.052267156541347504 0.23756127059459686 0.2291666716337204
0.061315357685089111 0.23970587551593781 0.23063725233078003
0.075245097279548645 0.23970587551593781 0.22947303950786591
0.089133985340595245 0.24066583812236786 0.22759394347667694
0.11017157137393951 0.24031862616539001 0.2239583283662796
0.12812499701976776 0.24234068393707275 0.22263072431087494
0.16084559261798859 0.24074755609035492 0.22077205777168274
0.18623365461826324 0.24372957646846771 0.21470588445663452
0.21764706075191498 0.2445465624332428 0.2133578360080719
0.25302284955978394 0.24468953907489777 0.2101307213306427
0.28713235259056091 0.24387255311012268 0.20692402124404907
0.32642975449562073 0.2430555522441864 0.20302286744117737
0.35723039507865906 0.24362744390964508 0.19957107305526733
0.39683413505554199 0.24068626761436462 0.19769199192523956
0.43476307392120361 0.23745915293693542 0.18901142477989197
0.47628676891326904 0.23504902422428131 0.18952205777168274
0.50874179601669312 0.23462009429931641 0.19197304546833038
0.55122548341751099 0.22873774170875549 0.19332107901573181
0.5910334587097168 0.22318218648433685 0.19407680630683899
0.62837010622024536 0.22236520051956177 0.18700979650020599
0.6674836277961731 0.21950572729110718 0.18811275064945221
0.70177698135375977 0.21825979650020599 0.19099265336990356
0.74127852916717529 0.21390931308269501 0.1927083283662796
0.77297794818878174 0.21599264442920685 0.18786764144897461
0.81480801105499268 0.21374592185020447 0.19048203527927399
0.84932595491409302 0.21158088743686676 0.19178920984268188
0.88515114784240723 0.21241828799247742 0.19403594732284546
0.9190971851348877 0.21272465586662292 0.19415847957134247
0.95183825492858887 0.2188725471496582 0.19399510324001312
0.93841910362243652 0.2397671639919281 0.21433822810649872
0.071241825819015503 0.23674426972866058 0.21717728674411774
0.034252449870109558 0.25659725069999695 0.23839868605136871
0.042572170495986938 0.25874868035316467 0.23998503386974335
0.050919119268655777 0.26132214069366455 0.24132624268531799
0.062928922474384308 0.26319444179534912 0.24328023195266724
0.076014429330825806 0.26313313841819763 0.2397671639919281
0.094526141881942749 0.26333743333816528 0.23496732115745544
0.11915849894285202 0.26416802406311035 0.23355118930339813
0.15363562107086182 0.26278597116470337 0.23035131394863129
0.18071214854717255 0.26531863212585449 0.22442810237407684
0.21564541757106781 0.26703432202339172 0.2238970547914505
0.25351303815841675 0.26943084597587585 0.2199891060590744
0.2904207706451416 0.26830065250396729 0.21809640526771545
0.33108657598495483 0.26786494255065918 0.21457651257514954
0.36368465423583984 0.26952612400054932 0.20866014063358307
0.40465685725212097 0.26676881313323975 0.20272330939769745
0.44308280944824219 0.26373228430747986 0.19752179086208344
0.48439544439315796 0.25919118523597717 0.1941380649805069
0.52003675699234009 0.25656998157501221 0.19607162475585938
0.55939549207687378 0.25290030241012573 0.19499590992927551
0.59437638521194458 0.25039488077163696 0.1927083283662796
0.63372147083282471 0.24793708324432373 0.18637664616107941
0.67461878061294556 0.24618054926395416 0.18906590342521667
0.70810872316360474 0.24464868009090424 0.19225898385047913
0.74725627899169922 0.24347767233848572 0.19458740949630737
0.77642971277236938 0.24462828040122986 0.18839868903160095
0.81759941577911377 0.2451661080121994 0.19131262600421906
0.85198122262954712 0.24464869499206543 0.19372957944869995
0.88715958595275879 0.24701115489006042 0.19395425915718079
0.92122822999954224 0.24885621666908264 0.19381807744503021
0.95089864730834961 0.2537786066532135 0.19125817716121674
0.93705070018768311 0.27551063895225525 0.21509397029876709
0.046200979501008987 0.27371323108673096 0.23768381774425507
0.018627451732754707 0.286580890417099 0.25416666269302368
0.024857025593519211 0.28698936104774475 0.25508579611778259
0.032271239906549454 0.28976714611053467 0.2552083432674408
0.044669117778539658 0.2916053831577301 0.25490197539329529
0.059456702321767807 0.29397469758987427 0.25261437892913818
0.079534314572811127 0.29558822512626648 0.2498161792755127
0.10418708622455597 0.29634392261505127 0.24816176295280457
0.14166666567325592 0.29356616735458374 0.24319852888584137
0.17218136787414551 0.2958129346370697 0.23719362914562225
0.20943626761436462 0.29742646217346191 0.23541666567325592
0.25079655647277832 0.29955065250396729 0.23576387763023376
0.2916053831577301 0.29993873834609985 0.23272058367729187
0.33502861857414246 0.30075573921203613 0.22812500596046448
0.36991420388221741 0.29981619119644165 0.22279411554336548
0.41368460655212402 0.29728350043296814 0.21854574978351593
0.4521242082118988 0.29428103566169739 0.21051877737045288
0.49393382668495178 0.29099264740943909 0.20655637979507446
0.52741008996963501 0.2881944477558136 0.20761847496032715
0.56611520051956177 0.28431373834609985 0.20122548937797546
0.60071480274200439 0.28218951821327209 0.19667074084281921
0.63829654455184937 0.27941176295280457 0.19332107901573181
0.67949342727661133 0.27716505527496338 0.19383171200752258
0.71348041296005249 0.2764706015586853 0.19319853186607361
0.75171566009521484 0.27602127194404602 0.1928921639919281
0.78167891502380371 0.27837011218070984 0.19087009131908417
0.8217933177947998 0.27834969758987427 0.19291259348392487
0.85582107305526733 0.27855393290519714 0.19313725829124451
0.88974672555923462 0.28327205777168274 0.19240196049213409
0.9217524528503418 0.28703022003173828 0.1907883882522583
0.9532475471496582 0.29479166865348816 0.19093137979507446
0.94932597875595093 0.31096813082695007 0.20980392396450043
0.047549020498991013 0.30218544602394104 0.24863152205944061
0.0083537576720118523 0.31964871287345886 0.2727532684803009
0.011451524682343006 0.32054060697555542 0.27261710166931152
0.017211329191923141 0.32372686266899109 0.27276688814163208
0.028022876009345055 0.32610294222831726 0.27175244688987732
0.043852124363183975 0.32802286744117737 0.26980528235435486
0.065236933529376984 0.32875815033912659 0.26605391502380371
0.090876907110214233 0.3317197859287262 0.26780366897583008
0.12863563001155853 0.32894200086593628 0.26331698894500732
0.15953840315341949 0.33063042163848877 0.25377178192138672
0.19946897029876709 0.33223038911819458 0.2519199550151825
0.24400870501995087 0.33263209462165833 0.25058552622795105
0.2866421639919281 0.33392563462257385 0.24732436239719391
0.33465415239334106 0.33354437351226807 0.24335512518882751
0.37173202633857727 0.33488559722900391 0.2362336665391922
0.41695940494537354 0.33279547095298767 0.23184230923652649
0.45870780944824219 0.33026278018951416 0.22039760649204254
0.502369225025177 0.32561275362968445 0.2168300598859787
0.53538262844085693 0.32057461142539978 0.21436548233032227
0.57446897029876709 0.31803515553474426 0.20980392396450043
0.60872822999954224 0.31537309288978577 0.20494961738586426
0.64957106113433838 0.31084558367729187 0.20283906161785126
0.68850088119506836 0.3095247745513916 0.20445942878723145
0.71889293193817139 0.31149917840957642 0.20257352292537689
0.75567805767059326 0.31079795956611633 0.20258714258670807
0.78682595491409302 0.31102940440177917 0.19726306200027466
0.82483655214309692 0.31356889009475708 0.19543163478374481
0.85733252763748169 0.31562501192092896 0.19397467374801636
0.89207518100738525 0.32028186321258545 0.19131945073604584
0.92639565467834473 0.32344770431518555 0.19095860421657562
0.95684230327606201 0.3301062285900116 0.18747958540916443
0.94105392694473267 0.35230803489685059 0.21462416648864746
0.04840686172246933 0.3335171639919281 0.26593136787414551
0.0065563726238906384 0.35275736451148987 0.29001224040985107
0.010396242141723633 0.35418710112571716 0.28976714611053467
0.01229575090110302 0.35665848851203918 0.29087010025978088
0.017463235184550285 0.35753676295280457 0.29178920388221741
0.033843956887722015 0.36041668057441711 0.29013481736183167
0.056249998509883881 0.36151960492134094 0.28572303056716919
0.080412581562995911 0.36392971873283386 0.28490602970123291
0.11825980246067047 0.36170342564582825 0.27794116735458374
0.15095995366573334 0.36274510622024536 0.27026143670082092
0.19405637681484222 0.364705890417099 0.26703432202339172
0.24252450466156006 0.36076390743255615 0.26535946130752563
0.28229168057441711 0.36231619119644165 0.25937500596046448
