snapseed-lut/snapseed-film-b04.cube
# Created by: G'MIC (https://gmic.eu)
TITLE "snapseed-film-b04"
# LUT size
LUT_3D_SIZE 5
# Data domain
# LUT data points
DOMAIN_MIN 0.000000 0.000000 0.000000
DOMAIN_MAX 0.903226 0.903226 0.903226
0.056862745434045792 0.14381127059459686 0.065502449870109558
0.11139705777168274 0.15600490570068359 0.080004088580608368
0.40281862020492554 0.17230391502380371 0.090931370854377747
0.7128063440322876 0.18792891502380371 0.10220587998628616
0.80573934316635132 0.20261436700820923 0.11139705777168274
0.13982842862606049 0.15727123618125916 0.14195260405540466
0.17696759104728699 0.16821214556694031 0.15392838418483734
0.45257353782653809 0.17248775064945221 0.1595996618270874
0.78784716129302979 0.18594770133495331 0.16640113294124603
0.88756811618804932 0.20706699788570404 0.17847903072834015
0.17028185725212097 0.41372549533843994 0.16868872940540314
0.19744691252708435 0.42209967970848083 0.18102534115314484
0.46090686321258545 0.41023284196853638 0.18308822810649872
0.78180146217346191 0.41249999403953552 0.18486519157886505
0.90012252330780029 0.42593953013420105 0.19656862318515778
0.23235294222831726 0.7449755072593689 0.22830882668495178
0.25653597712516785 0.74513888359069824 0.23278185725212097
0.50533086061477661 0.73615193367004395 0.22837010025978088
0.79644608497619629 0.73259806632995605 0.23412990570068359
0.91503274440765381 0.74144196510314941 0.25142970681190491
0.31200981140136719 0.88762253522872925 0.27171161770820618
0.34050926566123962 0.89430147409439087 0.28063726425170898
0.56002861261367798 0.89111518859863281 0.28167891502380371
0.80861932039260864 0.88760215044021606 0.28310865163803101
0.91818487644195557 0.88704377412796021 0.29561546444892883
0.034660946577787399 0.15998774766921997 0.08778594434261322
0.089276961982250214 0.17130310833454132 0.097154140472412109
0.37677696347236633 0.1875612735748291 0.10600490123033524
0.68231207132339478 0.20580063760280609 0.11862745136022568
0.78163808584213257 0.22198393940925598 0.12687909603118896
0.14089053869247437 0.168028324842453 0.18438182771205902
0.17417846620082855 0.17957516014575958 0.19143518805503845
0.46109068393707275 0.18400734663009644 0.19257895648479462
0.78575706481933594 0.19315768778324127 0.19375680387020111
0.8884395956993103 0.2076093852519989 0.19938953220844269
0.17761437594890594 0.43760213255882263 0.24080882966518402
0.2020152360200882 0.43800380825996399 0.24112200736999512
0.46535947918891907 0.43255716562271118 0.23178103566169739
0.78325158357620239 0.4327818751335144 0.23351715505123138
0.90073531866073608 0.4495234489440918 0.24253131449222565
0.23770426213741302 0.75945675373077393 0.31889298558235168
0.26480802893638611 0.76259529590606689 0.31785127520561218
0.51015108823776245 0.7570260763168335 0.3048815131187439
0.80214458703994751 0.7506331205368042 0.30641338229179382
0.91642159223556519 0.75569170713424683 0.30985155701637268
0.32008442282676697 0.89050924777984619 0.38113424181938171
0.34443536400794983 0.90237832069396973 0.3861406147480011
0.56312638521194458 0.89692264795303345 0.37968409061431885
0.80808138847351074 0.8952750563621521 0.3785947859287262
0.91570216417312622 0.89458966255187988 0.38161763548851013
0.036458332091569901 0.16090686619281769 0.20533087849617004
0.095057189464569092 0.17518381774425507 0.20868054032325745
0.37640932202339172 0.18958333134651184 0.20955882966518402
0.67873775959014893 0.20575980842113495 0.21721813082695007
0.78427290916442871 0.22354984283447266 0.22785948216915131
0.14526142179965973 0.17994280159473419 0.3347017765045166
0.18178103864192963 0.19253131747245789 0.3278050422668457
0.45216500759124756 0.19497549533843994 0.30377858877182007
0.7839052677154541 0.20396241545677185 0.30835375189781189
0.88651961088180542 0.22043845057487488 0.30281862616539001
0.18566176295280457 0.4579656720161438 0.4267156720161438
0.21074345707893372 0.46107026934623718 0.4236111044883728
0.47113969922065735 0.45545342564582825 0.39650735259056091
0.7871323823928833 0.46053922176361084 0.38860294222831726
0.90459561347961426 0.47839051485061646 0.38376224040985107
0.24534313380718231 0.77083331346511841 0.51703429222106934
0.27314132452011108 0.7763480544090271 0.51364374160766602
0.52138477563858032 0.76685047149658203 0.49044117331504822
0.80153185129165649 0.76801472902297974 0.48192402720451355
0.91909724473953247 0.77228343486785889 0.48106616735458374
0.32136437296867371 0.89078843593597412 0.54799836874008179
0.35354030132293701 0.90403050184249878 0.56020557880401611
0.56989377737045288 0.90228754281997681 0.55733245611190796
0.81117242574691772 0.90183824300765991 0.54877448081970215
0.91498500108718872 0.90000683069229126 0.54432874917984009
0.049264706671237946 0.17248775064945221 0.44037988781929016
0.097651146352291107 0.18104574084281921 0.43174019455909729
0.37352940440177917 0.19497549533843994 0.42254900932312012
0.68180149793624878 0.20655637979507446 0.41593137383460999
0.780739426612854 0.22428514063358307 0.41877040266990662
0.15161356329917908 0.19546568393707275 0.57138478755950928
0.18425245583057404 0.20964051783084869 0.57416939735412598
0.45966094732284546 0.21055963635444641 0.54377049207687378
0.78037172555923462 0.21858659386634827 0.523182213306427
0.88769066333770752 0.23526006937026978 0.51405233144760132
0.19613970816135406 0.48462009429931641 0.66004902124404907
0.22050651907920837 0.49103349447250366 0.65669935941696167
0.48118871450424194 0.49105390906333923 0.63621324300765991
0.78835785388946533 0.48737746477127075 0.61200982332229614
0.9063112735748291 0.49918302893638611 0.60461598634719849
0.25055146217346191 0.77769607305526733 0.70765930414199829
0.28745913505554199 0.78674429655075073 0.71435868740081787
0.53284311294555664 0.78278183937072754 0.70533090829849243
0.80471813678741455 0.78045344352722168 0.69301468133926392
0.92214047908782959 0.78664213418960571 0.69058412313461304
0.32839053869247437 0.89176875352859497 0.72148692607879639
0.36379355192184448 0.90440493822097778 0.73485153913497925
0.58292490243911743 0.90357440710067749 0.73925656080245972
0.81384801864624023 0.90337008237838745 0.73566174507141113
0.91743594408035278 0.9059981107711792 0.72878539562225342
0.057046569883823395 0.17879901826381683 0.62371325492858887
0.11075026541948318 0.19499590992927551 0.63036495447158813
0.39091095328330994 0.20332926511764526 0.62064951658248901
0.68194442987442017 0.22120098769664764 0.61828023195266724
0.78353077173233032 0.23418435454368591 0.61595863103866577
0.15929329395294189 0.2157135009765625 0.7579384446144104
0.19296704232692719 0.22546522319316864 0.76606529951095581
0.46906998753547668 0.22506809234619141 0.74527502059936523
0.78440225124359131 0.23278866708278656 0.73355799913406372
0.88936775922775269 0.25070124864578247 0.72485250234603882
0.20355391502380371 0.51039618253707886 0.79483252763748169
0.23186273872852325 0.51909726858139038 0.80669939517974854
0.49403595924377441 0.51507353782653809 0.79597634077072144
0.79133981466293335 0.51501226425170898 0.79146236181259155
0.90464323759078979 0.5220792293548584 0.7822985053062439
0.25463646650314331 0.77975893020629883 0.81072306632995605
0.29643929004669189 0.79439681768417358 0.82386982440948486
0.53813314437866211 0.79626226425170898 0.82383579015731812
0.80894607305526733 0.79628270864486694 0.81870913505554199
0.91816449165344238 0.79778045415878296 0.8164556622505188
0.33295205235481262 0.89304190874099731 0.81363701820373535
0.37525647878646851 0.90839916467666626 0.82661586999893188
0.58803105354309082 0.90845590829849243 0.82937091588973999
0.82305288314819336 0.90989923477172852 0.82920747995376587
0.91543436050415039 0.90656775236129761 0.82572394609451294
