snapseed-lut/snapseed-film-a02.cube
# Created by: G'MIC (https://gmic.eu)
TITLE "snapseed-fim-a02"
# LUT size
LUT_3D_SIZE 5
# Data domain
# LUT data points
DOMAIN_MIN 0.000000 0.000000 0.000000
DOMAIN_MAX 0.903226 0.903226 0.903226
0.037561275064945221 0.11335784196853638 0.12438725680112839
0.061274509876966476 0.12796159088611603 0.13835784792900085
0.2398284375667572 0.1250612735748291 0.14405637979507446
0.62524509429931641 0.11268382519483566 0.17058824002742767
0.83944040536880493 0.14225898683071136 0.19726307690143585
0.079758994281291962 0.13006536662578583 0.17471405863761902
0.1046636700630188 0.15481345355510712 0.18757490813732147
0.33241420984268188 0.15714870393276215 0.18860293924808502
0.71521651744842529 0.10927287489175797 0.20718954503536224
0.90001362562179565 0.10598447918891907 0.24887664616107941
0.085477940738201141 0.33952206373214722 0.21954657137393951
0.088602937757968903 0.34744691848754883 0.22651144862174988
0.45937499403953552 0.38988971710205078 0.21642157435417175
0.79577207565307617 0.40900734066963196 0.21011029183864594
0.93425244092941284 0.4338439404964447 0.24240195751190186
0.11654412001371384 0.64901959896087646 0.32212010025978088
0.20230799913406372 0.66652363538742065 0.34930557012557983
0.53792893886566162 0.67291665077209473 0.31384804844856262
0.84687501192092896 0.69963234663009644 0.24295343458652496
0.92628675699234009 0.69019609689712524 0.17085376381874084
0.52761441469192505 0.86397057771682739 0.5813521146774292
0.5889093279838562 0.87676334381103516 0.6082039475440979
0.7153390645980835 0.85892564058303833 0.55598443746566772
0.85110294818878174 0.85716909170150757 0.45453432202339172
0.93669658899307251 0.85030639171600342 0.31589731574058533
0.050837419927120209 0.12904411554336548 0.16305147111415863
0.064773961901664734 0.14722222089767456 0.17145968973636627
0.26170343160629272 0.15238970518112183 0.18116830289363861
0.61713647842407227 0.14385212957859039 0.18874591588973999
0.7944716215133667 0.159844771027565 0.1873161792755127
0.075095310807228088 0.17041119933128357 0.23329247534275055
0.10333151370286942 0.19346179068088531 0.25544208288192749
0.3737541139125824 0.19982978701591492 0.24942809343338013
0.75813585519790649 0.2112472802400589 0.2537854015827179
0.9293028712272644 0.26118373870849609 0.26290395855903625
0.094260618090629578 0.41856616735458374 0.30904820561408997
0.13148829340934753 0.43393924832344055 0.32209968566894531
0.49718138575553894 0.46333742141723633 0.32122138142585754
0.80929332971572876 0.4742034375667572 0.27500000596046448
0.92866963148117065 0.5218273401260376 0.23940631747245789
0.2483251690864563 0.71562498807907104 0.45386028289794922
0.33742508292198181 0.73994415998458862 0.48090958595275879
0.58962416648864746 0.73098444938659668 0.43860295414924622
0.85332924127578735 0.75083744525909424 0.3640931248664856
0.9313044548034668 0.7376021146774292 0.26085922122001648
0.69335514307022095 0.89677965641021729 0.71350085735321045
0.70298653841018677 0.90081930160522461 0.72045207023620605
0.77616423368453979 0.88475626707077026 0.6813044548034668
0.86366420984268188 0.87930285930633545 0.60509258508682251
0.93818759918212891 0.87799787521362305 0.49220001697540283
0.079718135297298431 0.16231617331504822 0.30153185129165649
0.1232638880610466 0.18723447620868683 0.32745099067687988
0.31905636191368103 0.19662989675998688 0.33082106709480286
0.661213219165802 0.1771446019411087 0.3804534375667572
0.794505774974823 0.15573938190937042 0.34131941199302673
0.08263888955116272 0.2533496618270874 0.38780638575553894
0.13137935101985931 0.2788330614566803 0.42583060264587402
0.43419116735458374 0.29491421580314636 0.43225079774856567
0.79720181226730347 0.28547793626785278 0.46484887599945068
0.92612332105636597 0.27762120962142944 0.42030230164527893
0.13210783898830414 0.49405637383460999 0.47009804844856262
0.25849676132202148 0.5483660101890564 0.53176063299179077
0.57120096683502197 0.56911766529083252 0.5469975471496582
0.84981620311737061 0.57604163885116577 0.52892154455184937
0.94040036201477051 0.57912582159042358 0.46719774603843689
0.51917892694473267 0.81544119119644165 0.70079654455184937
0.58427292108535767 0.82342731952667236 0.71825981140136719
0.71194851398468018 0.81397056579589844 0.68664216995239258
0.87107843160629272 0.81495100259780884 0.63051468133926392
0.93790847063064575 0.79281044006347656 0.53290438652038574
0.81111109256744385 0.91305148601531982 0.83008581399917603
0.82252180576324463 0.91939002275466919 0.84289216995239258
0.85422796010971069 0.91147881746292114 0.83082109689712524
0.88997143507003784 0.90232843160629272 0.7883373498916626
0.94453972578048706 0.90445256233215332 0.74202752113342285
0.11378676444292068 0.25441175699234009 0.52199757099151611
0.2238970547914505 0.29564949870109558 0.56860697269439697
0.49436274170875549 0.33094361424446106 0.59283089637756348
0.71292895078659058 0.33939951658248901 0.61991423368453979
0.84283089637756348 0.44985705614089966 0.68174022436141968
0.11064134538173676 0.39736518263816833 0.64611923694610596
0.22701525688171387 0.41688454151153564 0.68180829286575317
0.58059638738632202 0.45449346303939819 0.71356213092803955
0.83149510622024536 0.48153597116470337 0.72667485475540161
0.9441448450088501 0.57770973443984985 0.77317541837692261
0.1981617659330368 0.60196077823638916 0.6815563440322876
0.31674835085868835 0.6299019455909729 0.71723860502243042
0.62824755907058716 0.6671568751335144 0.75796568393707275
0.86397057771682739 0.71537989377975464 0.78694850206375122
0.94477128982543945 0.75089865922927856 0.79832512140274048
0.6249387264251709 0.84142154455184937 0.82156860828399658
0.67122143507003784 0.85034716129302979 0.8351510763168335
0.78462010622024536 0.85612744092941284 0.84129899740219116
0.88259804248809814 0.85735291242599487 0.8388480544090271
0.94471001625061035 0.85676068067550659 0.82099670171737671
0.87706291675567627 0.93086189031600952 0.89622139930725098
0.8797181248664856 0.93146795034408569 0.89765793085098267
0.89454656839370728 0.92467319965362549 0.89532268047332764
0.91064131259918213 0.91874998807907104 0.88449752330780029
0.9411083459854126 0.92211335897445679 0.87655234336853027
0.43968543410301208 0.53055554628372192 0.7638888955116272
0.53144747018814087 0.55806785821914673 0.78694850206375122
0.69726312160491943 0.59138071537017822 0.80839461088180542
0.82616418600082397 0.64180970191955566 0.82448941469192505
0.88476312160491943 0.65458202362060547 0.8355528712272644
0.47701522707939148 0.6369621753692627 0.85049700736999512
0.54590827226638794 0.64505946636199951 0.86773329973220825
0.73873233795166016 0.67403322458267212 0.8779139518737793
0.87745779752731323 0.71338498592376709 0.88162446022033691
0.94186186790466309 0.7367851734161377 0.88853937387466431
0.49769198894500732 0.74105393886566162 0.83866423368453979
0.57517015933990479 0.76478081941604614 0.86241823434829712
0.74963235855102539 0.78784716129302979 0.88441580533981323
0.88047385215759277 0.8139910101890564 0.88733655214309692
0.94076794385910034 0.84104710817337036 0.89710646867752075
0.73441582918167114 0.87618464231491089 0.89473038911819458
0.75281178951263428 0.87915986776351929 0.90050381422042847
0.80222636461257935 0.86995506286621094 0.89468955993652344
0.88361930847167969 0.87877857685089111 0.8977736234664917
0.9407883882522583 0.9014706015586853 0.90819031000137329
0.89252448081970215 0.93165171146392822 0.92192947864532471
0.89606249332427979 0.93196028470993042 0.92163670063018799
0.90840142965316772 0.93303376436233521 0.92239248752593994
0.92698121070861816 0.93432056903839111 0.92097634077072144
0.94120144844055176 0.93373274803161621 0.91670972108840942
