snapseed-lut/snapseed-film-x03.cube
# Created by: G'MIC (https://gmic.eu)
TITLE "snapseed-film-x03"
# LUT size
LUT_3D_SIZE 5
# Data domain
# LUT data points
DOMAIN_MIN 0.000000 0.000000 0.000000
DOMAIN_MAX 0.903226 0.903226 0.903226
0.0091299023479223251 0.038235295563936234 0.0055147060193121433
0.042830880731344223 0.069260619580745697 0.019076796248555183
0.2921568751335144 0.11011029779911041 0.011397059075534344
0.54522061347961426 0.13425244390964508 0.024019608274102211
0.69566988945007324 0.16219362616539001 0.035314545035362244
0.043157678097486496 0.11037581413984299 0.063500814139842987
0.15092591941356659 0.12647059559822083 0.061158768832683563
0.39276960492134094 0.12816585600376129 0.023876635357737541
0.62859481573104858 0.14250408113002777 0.018525324761867523
0.76911079883575439 0.17552424967288971 0.043858934193849564
0.062071077525615692 0.36090686917304993 0.21274510025978088
0.10641339421272278 0.38102531433105469 0.21362335979938507
0.40962010622024536 0.35373774170875549 0.13688725233078003
0.67567402124404907 0.37279412150382996 0.11727941036224365
0.81119275093078613 0.39148283004760742 0.10204248130321503
0.085600487887859344 0.64289218187332153 0.39693626761436462
0.060559637844562531 0.64460784196853638 0.40208333730697632
0.39871323108673096 0.65692400932312012 0.36660540103912354
0.65018379688262939 0.63645833730697632 0.26256126165390015
0.84585380554199219 0.66290849447250366 0.27622547745704651
0.14975489675998688 0.81368470191955566 0.56654411554336548
0.15125271677970886 0.8184504508972168 0.57765525579452515
0.44987744092941284 0.8352123498916626 0.60371726751327515
0.69775325059890747 0.83823531866073608 0.56205070018768311
0.85004764795303345 0.83586597442626953 0.50667893886566162
0.0052287583239376545 0.071793302893638611 0.060845587402582169
0.014011437073349953 0.10059232264757156 0.086546830832958221
0.26646241545677185 0.14127857983112335 0.064787574112415314
0.51166254281997681 0.16055965423583984 0.059946898370981216
0.67378813028335571 0.18442265689373016 0.071248643100261688
0.05804738774895668 0.12354983389377594 0.12954111397266388
0.15904140472412109 0.16182598471641541 0.15268473327159882
0.39228624105453491 0.16936954855918884 0.10616149753332138
0.62899643182754517 0.17686547338962555 0.064896509051322937
0.78225082159042358 0.20207652449607849 0.080004088580608368
0.054125819355249405 0.37269195914268494 0.2899918258190155
0.10601171106100082 0.40927967429161072 0.30703294277191162
0.41707515716552734 0.40866014361381531 0.27054736018180847
0.67608249187469482 0.42359068989753723 0.23525327444076538
0.81990736722946167 0.43436139822006226 0.22128269076347351
0.060273695737123489 0.65351307392120361 0.47990196943283081
0.039603762328624725 0.66382759809494019 0.48199212551116943
0.41249999403953552 0.69403594732284546 0.4897671639919281
0.67148697376251221 0.67984068393707275 0.4239787757396698
0.85987883806228638 0.70379900932312012 0.43597495555877686
0.12597358226776123 0.8221813440322876 0.61354851722717285
0.10947258770465851 0.83058279752731323 0.62657266855239868
0.4706631600856781 0.84342318773269653 0.67165720462799072
0.72024780511856079 0.85290032625198364 0.66039621829986572
0.86154907941818237 0.85549652576446533 0.61633080244064331
0.0096200983971357346 0.12267156690359116 0.20465686917304993
0.046160131692886353 0.15063318610191345 0.24428105354309082
0.30618873238563538 0.15245097875595093 0.23174019157886505
0.5108456015586853 0.18345588445663452 0.20790441334247589
0.66774916648864746 0.19428105652332306 0.20451387763023376
0.075224675238132477 0.18129083514213562 0.29383170604705811
0.17378813028335571 0.21300381422042847 0.34844774007797241
0.44477126002311707 0.21742239594459534 0.32998365163803101
0.62826800346374512 0.22544935345649719 0.27900326251983643
0.7715073823928833 0.23521243035793304 0.25433686375617981
0.05416666716337204 0.38492646813392639 0.42028185725212097
0.11358251422643661 0.41691175103187561 0.45455470681190491
0.43039214611053467 0.47003677487373352 0.4844975471496582
0.66997551918029785 0.47254902124404907 0.45153185725212097
0.8191380500793457 0.4895833432674408 0.43169933557510376
0.042524509131908417 0.64883577823638916 0.57107841968536377
0.033149510622024536 0.66245913505554199 0.58106619119644165
0.40674018859863281 0.71758580207824707 0.63198530673980713
0.70373773574829102 0.73492646217346191 0.62671566009521484
0.87994283437728882 0.76307195425033569 0.63464051485061646
0.10915032774209976 0.81793302297592163 0.66625821590423584
0.071636714041233063 0.83121591806411743 0.68129771947860718
0.3751225471496582 0.84464871883392334 0.71309232711791992
0.74254494905471802 0.87105798721313477 0.76732021570205688
0.88628131151199341 0.88148826360702515 0.73625403642654419
0.009068627841770649 0.19650734961032867 0.43137255311012268
0.046058002859354019 0.24099265038967133 0.46158087253570557
0.30557596683502197 0.22261029481887817 0.46997550129890442
0.59068626165390015 0.23731617629528046 0.4632352888584137
0.69967317581176758 0.27886030077934265 0.45365604758262634
0.060763891786336899 0.25674018263816833 0.52716505527496338
0.15877586603164673 0.28839868307113647 0.56631267070770264
0.44758984446525574 0.28803107142448425 0.56627857685089111
0.70927286148071289 0.30612745881080627 0.57714462280273438
0.80729848146438599 0.33077341318130493 0.5532066822052002
0.056617647409439087 0.44540441036224365 0.5986519455909729
0.10439133644104004 0.4639706015586853 0.62412166595458984
0.45441177487373352 0.53939950466156006 0.66305148601531982
0.72506129741668701 0.55257350206375122 0.69013482332229614
0.83907264471054077 0.5486723780632019 0.6609681248664856
0.039828430861234665 0.64626222848892212 0.66262257099151611
0.019628265872597694 0.65424835681915283 0.67073124647140503
0.40680146217346191 0.71470588445663452 0.72187501192092896
0.73051470518112183 0.7813112735748291 0.77696079015731812
0.89281046390533447 0.79142159223556519 0.77118051052093506
0.088602937757968903 0.80300247669219971 0.73100489377975464
0.054466232657432556 0.81877040863037109 0.74449211359024048
0.232638880610466 0.84066581726074219 0.76537990570068359
0.73882758617401123 0.88059645891189575 0.83997136354446411
0.90918433666229248 0.90774106979370117 0.8465958833694458
0.012642974033951759 0.29818218946456909 0.61172389984130859
0.057632081210613251 0.34228622913360596 0.64035266637802124
0.32248774170875549 0.3436887264251709 0.64942806959152222
0.62534725666046143 0.31617647409439087 0.65890520811080933
0.759552001953125 0.36207786202430725 0.65089190006256104
0.053615197539329529 0.36028730869293213 0.70606619119644165
0.15891429781913757 0.40011799335479736 0.73468589782714844
0.47895562648773193 0.42727398872375488 0.73314952850341797
0.7186206579208374 0.39161220192909241 0.75767296552658081
0.85958379507064819 0.44216820597648621 0.75650191307067871
0.067892156541347504 0.51911765336990356 0.72939127683639526
0.070050381124019623 0.5287240743637085 0.74299424886703491
0.4964052140712738 0.63727527856826782 0.79383170604705811
0.74342316389083862 0.64560866355895996 0.8264501690864563
0.89346408843994141 0.66663938760757446 0.83270019292831421
0.069117650389671326 0.67598038911819458 0.75627046823501587
0.047140523791313171 0.68752723932266235 0.76901549100875854
0.37837010622024536 0.73903185129165649 0.80071491003036499
0.75016343593597412 0.82406049966812134 0.8627859354019165
0.91419523954391479 0.85403728485107422 0.89074075222015381
0.085110291838645935 0.78949481248855591 0.77540171146392822
0.051906321197748184 0.80267113447189331 0.79357755184173584
0.19002588093280792 0.82188862562179565 0.8046841025352478
0.71663945913314819 0.88353079557418823 0.87888753414154053
0.92835187911987305 0.93703478574752808 0.92783224582672119
