snapseed-lut/snapseed-film-b01.cube
# Created by: G'MIC (https://gmic.eu)
TITLE "snapseed-film-b01"
# LUT size
LUT_3D_SIZE 32
# Data domain
DOMAIN_MIN 0.0 0.0 0.0
DOMAIN_MAX 1.0 1.0 1.0
# LUT data points
0.02034313790500164 0.084252454340457916 0.007107843179255724
0.0098039219155907631 0.096629902720451355 0.0082107847556471825
0.014910130761563778 0.099142156541347504 0.0080065354704856873
0.018770424649119377 0.10124590992927551 0.0090073533356189728
0.023039216175675392 0.10220587998628616 0.0099264709278941154
0.028145425021648407 0.10210375487804413 0.009089052677154541
0.04528186097741127 0.10245098173618317 0.0085171572864055634
0.069566994905471802 0.10277777165174484 0.0098447715863585472
0.10104166716337204 0.10300245136022568 0.010477941483259201
0.12912583351135254 0.10829248279333115 0.0098243458196520805
0.16507352888584137 0.10900735110044479 0.01096813753247261
0.19795750081539154 0.10904821008443832 0.012275326065719128
0.23014706373214722 0.10998774319887161 0.010845588520169258
0.26776960492134094 0.11096813529729843 0.010682188905775547
0.30079656839370728 0.11243872344493866 0.013296568766236305
0.3405228853225708 0.11188725382089615 0.014583333395421505
0.37771648168563843 0.11678920686244965 0.014133986085653305
0.41587010025978088 0.11764705926179886 0.014276960864663124
0.45093953609466553 0.11932189762592316 0.016789216548204422
0.49050244688987732 0.12205882370471954 0.015870098024606705
0.52401959896087646 0.12432598322629929 0.016421569511294365
0.56213235855102539 0.12579657137393951 0.017340686172246933
0.60032683610916138 0.12420342862606049 0.017626633867621422
0.6297793984413147 0.12843137979507446 0.017647059634327888
0.66321480274200439 0.13033087551593781 0.019464869052171707
0.69191175699234009 0.13149510324001312 0.021078431978821754
0.71948528289794922 0.13410946726799011 0.022160949185490608
0.74191176891326904 0.13768382370471954 0.022242646664381027
0.76513481140136719 0.13723446428775787 0.024428104981780052
0.7818218469619751 0.1405637264251709 0.025898691266775131
0.80104166269302368 0.14111520349979401 0.023039216175675392
0.7764093279838562 0.15925244987010956 0.042279411107301712
0.025306371971964836 0.086090683937072754 0.0074142157100141048
0.010600490495562553 0.10312499850988388 0.010110294446349144
0.014808006584644318 0.10377860069274902 0.0098039219155907631
0.019199345260858536 0.10553513467311859 0.010845588520169258
0.023590685799717903 0.10625000298023224 0.010723039507865906
0.028799019753932953 0.10588235408067703 0.010232842527329922
0.045098040252923965 0.10618872195482254 0.009068627841770649
0.066482841968536377 0.10945669561624527 0.010355392470955849
0.097058825194835663 0.11004901677370071 0.011029412038624287
0.12275326251983643 0.11392974108457565 0.010273692198097706
0.15778186917304993 0.11372549086809158 0.011397059075534344
0.19254495203495026 0.11395016312599182 0.011070261709392071
0.22499999403953552 0.11488970369100571 0.010110294446349144
0.26133579015731812 0.1166870966553688 0.0098856203258037567
0.29546567797660828 0.11795343458652496 0.010539215989410877
0.33615195751190186 0.11911764740943909 0.010927286930382252
0.37287580966949463 0.12389706075191498 0.010743463411927223
0.41354167461395264 0.1248161792755127 0.01274509821087122
0.4494076669216156 0.12567402422428131 0.017483660951256752
0.48829656839370728 0.12873774766921997 0.017585784196853638
0.52120095491409302 0.13098447024822235 0.017320262268185616
0.5576593279838562 0.13100489974021912 0.01666666753590107
0.59497547149658203 0.13067810237407684 0.016646241769194603
0.62297791242599487 0.13455882668495178 0.017463235184550285
0.65741419792175293 0.13641747832298279 0.018014706671237946
0.68431371450424194 0.13866421580314636 0.019669117406010628
0.71303105354309082 0.14058415591716766 0.020588237792253494
0.73615193367004395 0.14258578419685364 0.020036764442920685
0.76092731952667236 0.14491420984268188 0.022794120013713837
0.77812498807907104 0.14758986234664917 0.024366831406950951
0.79797792434692383 0.15018382668495178 0.024142157286405563
0.77169120311737061 0.16709558665752411 0.042830880731344223
0.027798200026154518 0.091911762952804565 0.021507352590560913
0.019117647781968117 0.10490196198225021 0.02395833283662796
0.027798203751444817 0.1060253232717514 0.023005174472928047
0.034347765147686005 0.10695806890726089 0.022086057811975479
0.042524509131908417 0.10723039507865906 0.022508168593049049
0.050422109663486481 0.10855801403522491 0.021684367209672928
0.069975487887859344 0.11066176742315292 0.022344769909977913
0.09223175048828125 0.11014433205127716 0.023454520851373672
0.12236519902944565 0.10992646962404251 0.022651145234704018
0.14777369797229767 0.11318082362413406 0.021364379674196243
0.18259803950786591 0.11468545347452164 0.02361111156642437
0.21587690711021423 0.11623093485832214 0.022943900898098946
0.24740605056285858 0.11662581562995911 0.021629901602864265
0.28442269563674927 0.1187976598739624 0.020642701536417007
0.31897467374801636 0.12009803950786591 0.022263070568442345
0.35872137546539307 0.12143246829509735 0.023645151406526566
0.39541122317314148 0.12553104758262634 0.023454520851373672
0.435273677110672 0.12606209516525269 0.024959148839116096
0.47045886516571045 0.12849944829940796 0.027165034785866737
0.50902777910232544 0.13094362616539001 0.027328431606292725
0.54227256774902344 0.13257081806659698 0.025898691266775131
0.58214867115020752 0.1335580050945282 0.027941176667809486
0.62038397789001465 0.13383035361766815 0.030099401250481606
0.64775329828262329 0.13713234663009644 0.028778595849871635
0.68234610557556152 0.13959015905857086 0.031059369444847107
0.7096405029296875 0.14178921282291412 0.034150324761867523
0.73753398656845093 0.14394743740558624 0.034477122128009796
0.76109069585800171 0.1457107812166214 0.032536763697862625
0.7836804986000061 0.14739242196083069 0.036179196089506149
0.80136168003082275 0.1507965624332428 0.039222497493028641
0.82077205181121826 0.15263479948043823 0.038970589637756348
0.80318629741668701 0.16662581264972687 0.05138888955116272
0.073917485773563385 0.06125408411026001 0.040870096534490585
0.05020425096154213 0.078574344515800476 0.053656041622161865
0.069063179194927216 0.07860158383846283 0.052893523126840591
0.083673752844333649 0.080555550754070282 0.053560726344585419
0.10202205926179886 0.080228753387928009 0.054656863212585449
0.12095588445663452 0.080957241356372833 0.051545478403568268
0.14526142179965973 0.08243463933467865 0.051593136042356491
0.16460376977920532 0.083877995610237122 0.054084964096546173
0.19440358877182007 0.083455882966518402 0.05271650105714798
0.21911764144897461 0.087322980165481567 0.051511436700820923
0.25449347496032715 0.087806373834609985 0.054616015404462814
0.28835785388946533 0.090393513441085815 0.054384529590606689
0.32087421417236328 0.091319449245929718 0.053084153681993484
0.35819715261459351 0.092674285173416138 0.053799018263816833
0.39117646217346191 0.093198530375957489 0.055514704436063766
0.43159723281860352 0.094138070940971375 0.05806099995970726
0.46652370691299438 0.0979643315076828 0.056876357644796371
0.50755715370178223 0.099121734499931335 0.059293299913406372
0.54325300455093384 0.10074890404939651 0.06222766637802124
0.58251631259918213 0.10379902273416519 0.063194438815116882
0.61550247669219971 0.10597766190767288 0.062043845653533936
0.65575981140136719 0.10643382370471954 0.065665856003761292
0.69547247886657715 0.10586193203926086 0.067211329936981201
0.72336602210998535 0.10863970220088959 0.065747551620006561
0.75797247886657715 0.11170343309640884 0.069764435291290283
0.78690773248672485 0.11384803801774979 0.073570258915424347
0.8125 0.11516202986240387 0.070976302027702332
0.83470183610916138 0.11707516014575958 0.06979166716337204
0.86049842834472656 0.11796023696660995 0.07430555671453476
0.87862199544906616 0.12291666865348816 0.078962422907352448
0.89691585302352905 0.12232434004545212 0.076633989810943604
0.8725285530090332 0.14027777314186096 0.094893798232078552
0.078308820724487305 0.079411767423152924 0.048713237047195435
0.053982842713594437 0.096568629145622253 0.06556372344493866
0.071139708161354065 0.096405230462551117 0.063970588147640228
0.087214045226573944 0.09644608199596405 0.062847226858139038
0.10563725233078003 0.09681372344493866 0.061764705926179886
0.12444853037595749 0.097508162260055542 0.059640523046255112
0.1456495076417923 0.099203430116176605 0.061151959002017975
0.16650326550006866 0.10140931606292725 0.06221405416727066
0.19534313678741455 0.10165441036224365 0.06139705702662468
0.2207312136888504 0.10469771176576614 0.0607026107609272
0.25465685129165649 0.10625000298023224 0.062561273574829102
0.28950163722038269 0.1093137264251709 0.062132354825735092
0.32248774170875549 0.11096813529729843 0.061274509876966476
0.35915032029151917 0.11247958242893219 0.060396239161491394
0.39258578419685364 0.11286764591932297 0.059191174805164337
0.43286353349685669 0.1143995076417923 0.061294935643672943
0.46746322512626648 0.11623774468898773 0.058741826564073563
0.50925242900848389 0.11770833283662796 0.060600489377975464
0.54652780294418335 0.12046568840742111 0.067810453474521637
0.58492648601531982 0.12310048937797546 0.067279413342475891
0.61783087253570557 0.12461192905902863 0.066809631884098053
0.65582108497619629 0.12389706075191498 0.067156866192817688
0.69475084543228149 0.12465277314186096 0.068075977265834808
0.72395831346511841 0.12879902124404907 0.069607846438884735
0.75861930847167969 0.13135212659835815 0.071303099393844604
0.7860906720161438 0.13370098173618317 0.071017153561115265
0.81301063299179077 0.13543708622455597 0.071752451360225677
0.83713233470916748 0.1354166716337204 0.070404410362243652
0.85974264144897461 0.13831700384616852 0.073508992791175842
0.87871736288070679 0.14217729866504669 0.077001631259918213
0.89754903316497803 0.14356617629528046 0.076899506151676178
0.87279409170150757 0.16053920984268188 0.095710784196853638
0.071405224502086639 0.1010620966553688 0.057516340166330338
0.054554741829633713 0.11478758603334427 0.072467319667339325
0.072603479027748108 0.11632624268531799 0.070206969976425171
0.088065080344676971 0.11653731018304825 0.069240197539329529
0.10676062107086182 0.11627859622240067 0.068872548639774323
0.12379492819309235 0.11800109595060349 0.067170478403568268
0.14779411256313324 0.11834149807691574 0.066094778478145599
0.16884532570838928 0.12128949165344238 0.06923338770866394
0.19734476506710052 0.12156862765550613 0.068790853023529053
0.22186139225959778 0.124502994120121 0.067517705261707306
0.25614789128303528 0.12471405416727066 0.066850490868091583
0.28939270973205566 0.12770289182662964 0.066258169710636139
0.32299834489822388 0.12994281947612762 0.067606203258037567
0.35990604758262634 0.13252314925193787 0.065706692636013031
0.39323940873146057 0.13286355137825012 0.064603753387928009
0.43322443962097168 0.13403457403182983 0.0652913898229599
0.468007892370224 0.13690087199211121 0.062098313122987747
0.50957930088043213 0.13907270133495331 0.06527777761220932
0.54587411880493164 0.14101308584213257 0.067102394998073578
0.58560049533843994 0.14417892694473267 0.06834150105714798
0.61813724040985107 0.14549291133880615 0.066959425806999207
0.65569853782653809 0.14554737508296967 0.067769609391689301
0.69383853673934937 0.14456698298454285 0.070247821509838104
0.72369283437728882 0.14922384917736053 0.069281049072742462
0.75718957185745239 0.15213778614997864 0.070554196834564209
0.78513067960739136 0.15461601316928864 0.07277369499206543
0.81322169303894043 0.15586191415786743 0.073366016149520874
0.83533501625061035 0.15788397192955017 0.071343950927257538
0.85981756448745728 0.15970860421657562 0.074509806931018829
0.87844496965408325 0.16380719840526581 0.078941985964775085
0.89838641881942749 0.16601307690143585 0.077941179275512695
0.88206702470779419 0.17953431606292725 0.091013073921203613
0.081556372344493866 0.12236519902944565 0.060845587402582169
0.058026961982250214 0.14001224935054779 0.080637253820896149
0.07771649956703186 0.14133985340595245 0.078370101749897003
0.092279411852359772 0.14244280755519867 0.077961601316928864
0.109375 0.14240196347236633 0.079105392098426819
0.12930965423583984 0.14240196347236633 0.076879091560840607
0.15049019455909729 0.14362744987010956 0.073100492358207703
0.17216093838214874 0.14640523493289948 0.074857033789157867
0.20122548937797546 0.14485293626785278 0.076899506151676178
0.22608250379562378 0.14844772219657898 0.074591502547264099
0.25937500596046448 0.14877450466156006 0.074877448379993439
0.29150328040122986 0.15185867249965668 0.076348036527633667
0.32561275362968445 0.15263479948043823 0.075612746179103851
0.36198940873146057 0.15504492819309235 0.074877448379993439
0.3960784375667572 0.15655636787414551 0.07555147260427475
0.43752041459083557 0.1585375964641571 0.077042482793331146
0.47177287936210632 0.16119280457496643 0.075122550129890442
0.51274508237838745 0.16409313678741455 0.076776959002017975
0.55040848255157471 0.16899509727954865 0.074448525905609131
0.58946079015731812 0.17095588147640228 0.074325978755950928
0.62144607305526733 0.17281454801559448 0.073590688407421112
0.66041666269302368 0.17340686917304993 0.07493872195482254
0.69934636354446411 0.1735498458147049 0.075857840478420258
0.72671568393707275 0.17598038911819458 0.073284313082695007
0.76031458377838135 0.17716504633426666 0.075245097279548645
0.7860293984413147 0.18002450466156006 0.077634803950786591
0.81352126598358154 0.18135210871696472 0.076858654618263245
0.83651959896087646 0.18259803950786591 0.076531864702701569
0.86098861694335938 0.1858251541852951 0.079044118523597717
0.88022881746292114 0.19015523791313171 0.082332514226436615
0.89969360828399658 0.1926470547914505 0.082046568393707275
0.87561273574829102 0.20900735259056091 0.10085784643888474
0.082332521677017212 0.14532269537448883 0.068382352590560913
0.058415032923221588 0.16256126761436462 0.085947707295417786
0.077954791486263275 0.16421568393707275 0.085546024143695831
0.093110024929046631 0.16497139632701874 0.086117923259735107
0.11274509876966476 0.16572710871696472 0.085518784821033478
0.12937092781066895 0.16767428815364838 0.08263888955116272
0.15153186023235321 0.16766747832298279 0.081719771027565002
0.17150735855102539 0.16836191713809967 0.084034577012062073
0.19848856329917908 0.16758579015731812 0.081740193068981171
0.22497957944869995 0.17160947620868683 0.080078974366188049
0.25892564654350281 0.171875 0.080882355570793152
0.29433551430702209 0.17389023303985596 0.083210781216621399
0.32706290483474731 0.17618465423583984 0.081699341535568237
0.36478757858276367 0.17847903072834015 0.082632079720497131
0.39989784359931946 0.17955474555492401 0.082046568393707275
0.44049564003944397 0.18091638386249542 0.082598038017749786
0.47596675157546997 0.18385075032711029 0.082652509212493896
0.51640111207962036 0.18621324002742767 0.08235294371843338
0.55239653587341309 0.19021651148796082 0.081481486558914185
0.59125822782516479 0.19381126761436462 0.081576794385910034
0.6248093843460083 0.19559505581855774 0.082189545035362244
0.66227537393569946 0.19683416187763214 0.080228753387928009
0.70043575763702393 0.19848857820034027 0.081079788506031036
0.72765529155731201 0.20171569287776947 0.079942815005779266
0.76111114025115967 0.20314541459083557 0.081427015364170074
0.78745913505554199 0.20426878333091736 0.080494284629821777
0.81625813245773315 0.20616829395294189 0.081767432391643524
0.83939951658248901 0.20794525742530823 0.080800659954547882
0.86245238780975342 0.21062092483043671 0.082203157246112823
0.8799019455909729 0.21465140581130981 0.084511160850524902
0.89946901798248291 0.21660539507865906 0.08347630500793457
0.88051468133926392 0.23045343160629272 0.099121734499931335
0.072303920984268188 0.17659313976764679 0.083394609391689301
0.058884803205728531 0.18964460492134094 0.098835781216621399
0.077655225992202759 0.19236111640930176 0.098100490868091583
0.094403602182865143 0.19381126761436462 0.09785538911819458
0.11366421729326248 0.19436274468898773 0.095955885946750641
0.13249592483043671 0.19454656541347504 0.092851303517818451
0.15404412150382996 0.19405637681484222 0.091666668653488159
0.17357026040554047 0.19607843458652496 0.093729570508003235
0.20098039507865906 0.19479165971279144 0.090747550129890442
0.2258782833814621 0.19904004037380219 0.089317813515663147
0.25980392098426819 0.19822303950786591 0.089215688407421112
0.29415851831436157 0.20245097577571869 0.088378265500068665
0.32843136787414551 0.20496323704719543 0.08964461088180542
0.36646243929862976 0.20770014822483063 0.09035947173833847
0.39901959896087646 0.20943626761436462 0.085171565413475037
0.43984884023666382 0.21174426376819611 0.085294120013713837
0.47455066442489624 0.21472631394863129 0.083946079015731812
0.51537990570068359 0.21721813082695007 0.087622545659542084
0.55249184370040894 0.21975080668926239 0.086928106844425201
0.5938725471496582 0.22236520051956177 0.088602937757968903
0.62698119878768921 0.22536765038967133 0.088092319667339325
0.66433823108673096 0.2291666716337204 0.088480390608310699
0.70220589637756348 0.22918710112571716 0.091217324137687683
0.73082107305526733 0.23272058367729187 0.088909313082695007
0.76217317581176758 0.23321078717708588 0.089052282273769379
0.7871936559677124 0.23572303354740143 0.091115199029445648
0.81542068719863892 0.23868465423583984 0.090155221521854401
0.83823531866073608 0.24105392396450043 0.089215688407421112
0.86188727617263794 0.24250409007072449 0.088705062866210938
0.87920749187469482 0.24577206373214722 0.090788401663303375
0.89969360828399658 0.24754901230335236 0.09117647260427475
0.87628674507141113 0.26421567797660828 0.11078431457281113
0.082781866192817688 0.20049019157886505 0.084803923964500427
0.060437094420194626 0.21846406161785126 0.10479982942342758
0.079915575683116913 0.21985293924808502 0.10281182080507278
0.094614647328853607 0.22133713960647583 0.10302287340164185
0.11437909305095673 0.22318218648433685 0.10439133644104004
0.13246870040893555 0.2237132340669632 0.10260076075792313
0.15404412150382996 0.2241421639919281 0.09991830587387085
0.17501361668109894 0.22448258101940155 0.09846813976764679
0.2032475471496582 0.22252859175205231 0.096384800970554352
0.2281113862991333 0.22536084055900574 0.095261432230472565
0.26164215803146362 0.22565358877182007 0.096058003604412079
0.29766476154327393 0.22857433557510376 0.098284311592578888
0.33014705777168274 0.23174019157886505 0.097834967076778412
0.3687976598739624 0.23417755961418152 0.098686002194881439
0.40251225233078003 0.23609068989753723 0.097610294818878174
0.44340276718139648 0.23758849501609802 0.099080882966518402
0.4774986207485199 0.24012118577957153 0.097303919494152069
0.51921981573104858 0.24338234961032867 0.098304733633995056
0.55432319641113281 0.24680691957473755 0.093579791486263275
0.59330070018768311 0.25055146217346191 0.093811273574829102
0.6284177303314209 0.25397601723670959 0.09375
0.66625821590423584 0.25616830587387085 0.094321899116039276
0.7048611044883728 0.25776144862174988 0.09633713960647583
0.73292487859725952 0.26207107305526733 0.096629902720451355
0.76518923044204712 0.26290169358253479 0.096439272165298462
0.79023689031600952 0.26456290483474731 0.094505719840526581
0.81802153587341309 0.26697304844856262 0.094737201929092407
0.84246325492858887 0.26950573921203613 0.094832517206668854
0.86405235528945923 0.27139842510223389 0.096384800970554352
0.88166528940200806 0.27462553977966309 0.096786484122276306
0.9003063440322876 0.27704247832298279 0.096119284629821777
0.87587827444076538 0.29403597116470337 0.11568627506494522
0.079044118523597717 0.23792892694473267 0.10257352888584137
0.065012253820896149 0.25183823704719543 0.11727941036224365
0.083047382533550262 0.25349265336990356 0.11493056267499924
0.10059231519699097 0.25669935345649719 0.1177491769194603
0.11936274170875549 0.25876224040985107 0.11807598173618317
0.13688725233078003 0.26058009266853333 0.11435866355895996
0.15919117629528046 0.26109069585800171 0.11158088594675064
0.18002450466156006 0.26188725233078003 0.11205065995454788
0.20796568691730499 0.25974264740943909 0.11053921282291412
0.23161764442920685 0.2617238461971283 0.10645424574613571
0.2655024528503418 0.26053920388221741 0.10729166865348816
0.30179738998413086 0.26313316822052002 0.1091911792755127
0.33437499403953552 0.26464459300041199 0.10680147260427475
0.37258988618850708 0.26791256666183472 0.10788398236036301
0.4061274528503418 0.27003675699234009 0.10759803652763367
0.44699755311012268 0.27175244688987732 0.10947712510824203
0.48176059126853943 0.27485701441764832 0.10917074978351593
0.52212011814117432 0.27702206373214722 0.10876225680112839
0.55788391828536987 0.27986112236976624 0.10729166865348816
0.59767156839370728 0.28370097279548645 0.10747548937797546
0.63141340017318726 0.28576391935348511 0.1075776144862175
0.66801470518112183 0.29037991166114807 0.10496323555707932
0.7053716778755188 0.29285132884979248 0.10725080966949463
0.73535537719726562 0.29730391502380371 0.10741421580314636
0.76640111207962036 0.29740604758262634 0.1059640571475029
0.79338234663009644 0.30098038911819458 0.10545343160629272
0.82162988185882568 0.3023897111415863 0.10729166865348816
0.84442400932312012 0.30514705181121826 0.10643382370471954
0.8679126501083374 0.30827206373214722 0.10549428313970566
0.88533490896224976 0.31205067038536072 0.10720996558666229
0.90490198135375977 0.31354168057441711 0.10674019902944565
0.88927698135375977 0.32610294222831726 0.12040441483259201
0.087459146976470947 0.27289626002311707 0.11084558814764023
0.064910128712654114 0.29091095924377441 0.13102534413337708
0.08361247181892395 0.29308277368545532 0.12873774766921997
0.10046977549791336 0.29593548178672791 0.12892837822437286
0.12109886109828949 0.29803922772407532 0.12851306796073914
0.14095859229564667 0.29981619119644165 0.12730799615383148
0.16386847198009491 0.30132761597633362 0.12608252465724945
0.18502177298069 0.30066719651222229 0.12406045943498611
0.21311274170875549 0.29873368144035339 0.12214051932096481
0.23823529481887817 0.30019062757492065 0.1202886700630188
0.27038401365280151 0.29965275526046753 0.11874999850988388
0.30422794818878174 0.30125951766967773 0.11770833283662796
0.33680558204650879 0.30273693799972534 0.1179942861199379
0.37461873888969421 0.30461603403091431 0.11777641624212265
0.4082312285900116 0.30755719542503357 0.11813725531101227
0.44957107305526733 0.3092796802520752 0.11986655741930008
0.48335376381874084 0.31218001246452332 0.11735429614782333
0.52408087253570557 0.31462416052818298 0.11915849149227142
0.55949074029922485 0.31724536418914795 0.11740195751190186
0.59912174940109253 0.32054737210273743 0.11854575574398041
0.63255715370178223 0.3229166567325592 0.11856617778539658
0.66928106546401978 0.32724675536155701 0.118055559694767
0.70757073163986206 0.32971814274787903 0.12028186023235321
0.73705065250396729 0.33337417244911194 0.11823937296867371
0.76791262626647949 0.33551880717277527 0.11822575330734253
0.79366827011108398 0.33862334489822388 0.11770833283662796
0.8219294548034668 0.34084966778755188 0.11732026934623718
0.84397464990615845 0.34421977400779724 0.11738154292106628
0.86774915456771851 0.34693628549575806 0.11847766488790512
0.88523286581039429 0.35123911499977112 0.12008442729711533
0.90463638305664062 0.35263481736183167 0.11862745136022568
0.87992238998413086 0.36840274930000305 0.13850080966949463
0.090318627655506134 0.3069852888584137 0.11948529630899429
0.068382352590560913 0.32463234663009644 0.13952206075191498
0.087336607277393341 0.32834967970848083 0.13760213553905487
0.10492238402366638 0.33086195588111877 0.13845996558666229
0.12561275064945221 0.33314952254295349 0.14007352292537689
0.14413808286190033 0.3352532684803009 0.13892973959445953
0.16770833730697632 0.33676469326019287 0.13645833730697632
0.18948119878768921 0.33639705181121826 0.13574346899986267
0.21801470220088959 0.33370098471641541 0.13412989675998688
