snapseed-lut/snapseed-film-b03.cube
# Created by: G'MIC (https://gmic.eu)
TITLE "snapseed-film-b03"
# LUT size
LUT_3D_SIZE 5
# Data domain
# LUT data points
DOMAIN_MIN 0.000000 0.000000 0.000000
DOMAIN_MAX 0.903226 0.903226 0.903226
0.020649509504437447 0.089399509131908417 0.0055147060193121433
0.071405224502086639 0.10625000298023224 0.0092116016894578934
0.30269607901573181 0.11482843011617661 0.011090686544775963
0.56464463472366333 0.12898284196853638 0.012867647223174572
0.765625 0.13899102807044983 0.016462417319417
0.081209145486354828 0.14395426213741302 0.058803103864192963
0.17070397734642029 0.16700708866119385 0.080718949437141418
0.400919109582901 0.18035131692886353 0.090318627655506134
0.66732019186019897 0.20116421580314636 0.1023080050945282
0.8653186559677124 0.21630583703517914 0.11143790930509567
0.090931370854377747 0.37959557771682739 0.10447303950786591
0.19495506584644318 0.40935459733009338 0.12908495962619781
0.41237744688987732 0.41127452254295349 0.12806372344493866
0.67310047149658203 0.43008577823638916 0.14136029779911041
0.87122136354446411 0.45441177487373352 0.15964053571224213
0.10116421431303024 0.6621936559677124 0.17794117331504822
0.22691994905471802 0.69552695751190186 0.20845587551593781
0.4483456015586853 0.69699752330780029 0.20980392396450043
0.68958336114883423 0.69761031866073608 0.20937499403953552
0.87853348255157471 0.71270430088043213 0.2237745076417923
0.12708333134651184 0.86274510622024536 0.25921157002449036
0.25010892748832703 0.88965141773223877 0.29313042759895325
0.48278185725212097 0.89276963472366333 0.29744687676429749
0.71995502710342407 0.89281046390533447 0.3011438250541687
0.8878403902053833 0.89084970951080322 0.3002927303314209
0.010825163684785366 0.11053921282291412 0.046772874891757965
0.041224129498004913 0.12105119973421097 0.059259258210659027
0.27583742141723633 0.1288398802280426 0.073999188840389252
0.53641748428344727 0.14187091588973999 0.088153593242168427
0.73336738348007202 0.15559642016887665 0.10701253265142441
0.083380997180938721 0.14563590288162231 0.14563590288162231
0.17955474555492401 0.17730799317359924 0.1750703752040863
0.41513481736183167 0.19449211657047272 0.19036628305912018
0.67808419466018677 0.21132217347621918 0.20874181389808655
0.87426245212554932 0.22797976434230804 0.2280319482088089
0.092279411852359772 0.37939134240150452 0.21844363212585449
0.2049223929643631 0.4173542857170105 0.25655636191368103
0.43014705181121826 0.42749184370040894 0.26305148005485535
0.69054323434829712 0.45069441199302673 0.2824346125125885
0.8786424994468689 0.47232431173324585 0.30253267288208008
0.099285133183002472 0.6628267765045166 0.31219363212585449
0.22822032868862152 0.6969294548034668 0.34790307283401489
0.46464461088180542 0.71121323108673096 0.36480799317359924
0.70539218187332153 0.71172386407852173 0.36519607901573181
0.88557326793670654 0.72768926620483398 0.38462692499160767
0.12746459245681763 0.86192131042480469 0.41218000650405884
0.25190860033035278 0.88938367366790771 0.45083516836166382
0.50000679492950439 0.89829111099243164 0.46870234608650208
0.73306101560592651 0.89935320615768433 0.46909725666046143
0.89689773321151733 0.89828884601593018 0.47238108515739441
0.012071078643202782 0.11605392396450043 0.18327206373214722
0.047651145607233047 0.12647059559822083 0.19538398087024689
0.27346813678741455 0.12751226127147675 0.20557598769664764
0.53517156839370728 0.13995097577571869 0.22549019753932953
0.73192399740219116 0.1547589898109436 0.24977532029151917
0.087949350476264954 0.15508578717708588 0.29311680793762207
0.19202069938182831 0.18865741789340973 0.32741692662239075
0.41544118523597717 0.19399510324001312 0.33472225069999695
0.68031042814254761 0.21070259809494019 0.35580068826675415
0.8725966215133667 0.22837691009044647 0.38168570399284363
0.090992644429206848 0.38063725829124451 0.37144607305526733
0.20447303354740143 0.4181576669216156 0.40747550129890442
0.44264706969261169 0.44068628549575806 0.43088236451148987
0.70539218187332153 0.46513479948043823 0.45526960492134094
0.88696891069412231 0.48803102970123291 0.48100489377975464
0.10000000149011612 0.66409313678741455 0.47512254118919373
0.22863562405109406 0.69701796770095825 0.51200979948043823
0.47371324896812439 0.71764707565307617 0.53823530673980713
0.71979165077209473 0.72193628549575806 0.54754900932312012
0.89560866355895996 0.74236112833023071 0.56905639171600342
0.12818627059459686 0.86135625839233398 0.57841092348098755
0.25077614188194275 0.88973987102508545 0.61666667461395264
0.50371736288070679 0.90046977996826172 0.64140111207962036
0.74761027097702026 0.90555548667907715 0.65202206373214722
0.90105533599853516 0.90425515174865723 0.65139567852020264
0.012561274692416191 0.12015931308269501 0.34865197539329529
0.05702614039182663 0.1303921639919281 0.36341911554336548
0.27426469326019287 0.12757353484630585 0.36397057771682739
0.53394609689712524 0.13909313082695007 0.38419118523597717
0.73180145025253296 0.15414623916149139 0.41053920984268188
0.098223038017749786 0.16832107305526733 0.47136440873146057
0.20789079368114471 0.20175652205944061 0.50637257099151611
0.42377451062202454 0.20214460790157318 0.50629079341888428
0.67865604162216187 0.21252043545246124 0.51917892694473267
0.87349534034729004 0.22900326550006866 0.54562902450561523
0.098897062242031097 0.39240196347236633 0.55269604921340942
0.216523677110672 0.43176063895225525 0.59660947322845459
0.4632352888584137 0.45962008833885193 0.61795341968536377
0.70667892694473267 0.46617648005485535 0.62573528289794922
0.88731616735458374 0.49027776718139648 0.64961189031600952
0.097426474094390869 0.66348040103912354 0.63952207565307617
0.22902369499206543 0.69748777151107788 0.67645013332366943
0.47536763548851013 0.71819853782653809 0.69932597875595093
0.73057597875595093 0.73639708757400513 0.7188725471496582
0.90514707565307617 0.75459557771682739 0.74054330587387085
0.12818627059459686 0.86170345544815063 0.73039215803146362
0.24970044195652008 0.88989651203155518 0.76173073053359985
0.50228762626647949 0.90112340450286865 0.78508985042572021
0.7566380500793457 0.90992647409439087 0.80365604162216187
0.90888482332229614 0.91094088554382324 0.80887800455093384
0.014950980432331562 0.13202615082263947 0.52279412746429443
0.072167761623859406 0.14283087849617004 0.53243464231491089
0.29029819369316101 0.1385825127363205 0.53110700845718384
0.53807193040847778 0.14054331183433533 0.53555965423583984
0.73500138521194458 0.15653593838214874 0.56147199869155884
0.10431645065546036 0.17971132695674896 0.64940083026885986
0.2154003381729126 0.21072986721992493 0.68281137943267822
0.43705067038536072 0.21128132939338684 0.68126362562179565
0.68216913938522339 0.21308551728725433 0.68307459354400635
0.8727419376373291 0.22996096312999725 0.7018427848815918
0.10620914399623871 0.40986520051956177 0.72185450792312622
0.2272467315196991 0.44859752058982849 0.75848990678787231
0.47473445534706116 0.47124186158180237 0.77738970518112183
0.71182596683502197 0.47320264577865601 0.77734887599945068
0.88759523630142212 0.48987609148025513 0.78885483741760254
0.10594362765550613 0.67410129308700562 0.79556775093078613
0.23927696049213409 0.70840823650360107 0.82535398006439209
0.49003267288208008 0.7293505072593689 0.83952206373214722
0.74466913938522339 0.74955070018768311 0.85723036527633667
0.90514707565307617 0.75759118795394897 0.86128807067871094
0.12756672501564026 0.86144471168518066 0.84952342510223389
0.24929192662239075 0.88948345184326172 0.87684732675552368
0.50274378061294556 0.89963233470916748 0.889515221118927
0.75486117601394653 0.91035538911819458 0.90021103620529175
0.91564768552780151 0.91801470518112183 0.90637481212615967
