snapseed-lut/snapseed-film-b02.cube
# Created by: G'MIC (https://gmic.eu)
TITLE "snapseed-film-b02"
# LUT size
LUT_3D_SIZE 5
# Data domain
# LUT data points
DOMAIN_MIN 0.000000 0.000000 0.000000
DOMAIN_MAX 0.903226 0.903226 0.903226
0.037928920239210129 0.050857841968536377 0.028186274692416191
0.095751628279685974 0.050428923219442368 0.034803923219442368
0.28633579611778259 0.040318626910448074 0.055085785686969757
0.54332107305526733 0.049571078270673752 0.087867647409439087
0.83811277151107788 0.065032683312892914 0.12044526636600494
0.065216504037380219 0.1474469006061554 0.10794525593519211
0.15828567743301392 0.15288670361042023 0.095077618956565857
0.39389294385910034 0.12890113890171051 0.05569852888584137
0.6378471851348877 0.053656041622161865 0.030821077525615692
0.93786764144897461 0.027546297758817673 0.087997004389762878
0.047855392098426819 0.4321078360080719 0.25906863808631897
0.091830067336559296 0.42610293626785278 0.26309233903884888
0.39221814274787903 0.41991421580314636 0.18272058665752411
0.71507352590560913 0.43026959896087646 0.068688727915287018
0.9845588207244873 0.43858253955841064 0.03284313902258873
0.057414215058088303 0.72702205181121826 0.45484068989753723
0.085437096655368805 0.71964865922927856 0.45077612996101379
0.37469363212585449 0.68529409170150757 0.41403186321258545
0.67328429222106934 0.71219360828399658 0.30453431606292725
0.96828019618988037 0.74464869499206543 0.14491420984268188
0.58500814437866211 0.94687497615814209 0.74930554628372192
0.64047527313232422 0.95095998048782349 0.77025461196899414
0.6892361044883728 0.92977941036224365 0.73482435941696167
0.79816174507141113 0.91732031106948853 0.71270430088043213
0.93303376436233521 0.92637526988983154 0.61628538370132446
0.021854575723409653 0.074121728539466858 0.069260627031326294
0.076211877167224884 0.068974681198596954 0.057883989065885544
0.26687091588973999 0.049121730029582977 0.055800650268793106
0.50992649793624878 0.062663398683071136 0.09035947173833847
0.7943490743637085 0.08255719393491745 0.11992783099412918
0.053199891000986099 0.1543913334608078 0.16810321807861328
0.1751815527677536 0.16846631467342377 0.16241149604320526
0.40204250812530518 0.14164623618125916 0.11327613890171051
0.64558142423629761 0.081474676728248596 0.061832785606384277
0.92959785461425781 0.042962506413459778 0.076904051005840302
0.048856206238269806 0.46433824300765991 0.34082922339439392
0.125742107629776 0.45430284738540649 0.34676608443260193
0.41133579611778259 0.42802289128303528 0.2748570442199707
0.71570676565170288 0.43388479948043823 0.19107434153556824
0.97708332538604736 0.44316446781158447 0.080337688326835632
0.042013887315988541 0.76203018426895142 0.54174834489822388
0.1160062700510025 0.74822306632995605 0.53145420551300049
0.41979166865348816 0.70759803056716919 0.48948121070861816
0.69037991762161255 0.71772873401641846 0.40369686484336853
0.97177290916442871 0.74739241600036621 0.29193216562271118
0.49762389063835144 0.94899916648864746 0.76249998807907104
0.59754222631454468 0.95684230327606201 0.78854620456695557
0.72430557012557983 0.93476992845535278 0.77638888359069824
0.80900734663009644 0.9159858226776123 0.75020420551300049
0.93457019329071045 0.92620277404785156 0.68044203519821167
0.02187499962747097 0.08964461088180542 0.15422794222831726
0.077553100883960724 0.086478754878044128 0.12440767139196396
0.27420341968536377 0.051409315317869186 0.10508578270673752
0.52132350206375122 0.060539215803146362 0.10238970816135406
0.7967524528503418 0.080514706671237946 0.13378268480300903
0.058312907814979553 0.16899509727954865 0.26823937892913818
0.19716095924377441 0.19518654048442841 0.26743599772453308
0.40949755907058716 0.16497141122817993 0.21901553869247437
0.65894609689712524 0.10606617480516434 0.15093955397605896
0.92847901582717896 0.054656863212585449 0.084654144942760468
0.046200979501008987 0.4635416567325592 0.43719363212585449
0.060232844203710556 0.48335376381874084 0.45044934749603271
0.43848040699958801 0.44993871450424194 0.38823530077934265
0.72261029481887817 0.43792891502380371 0.32162991166114807
0.98039215803146362 0.44285127520561218 0.22663398087024689
0.048897057771682739 0.79748773574829102 0.65490198135375977
0.02749183215200901 0.79095184803009033 0.63511031866073608
0.49037989974021912 0.74571079015731812 0.59644609689712524
0.72401958703994751 0.73272061347961426 0.52267158031463623
0.97536766529083252 0.75467735528945923 0.44303515553474426
0.46337828040122986 0.95627045631408691 0.81617647409439087
0.53488564491271973 0.96979165077209473 0.83114790916442871
0.73764294385910034 0.94746726751327515 0.81983250379562378
0.83316993713378906 0.9266543984413147 0.80631124973297119
0.94403588771820068 0.93002450466156006 0.75940907001495361
0.021507352590560913 0.10857842862606049 0.26384803652763367
0.11915849149227142 0.11415441334247589 0.25267565250396729
0.29025736451148987 0.092585787177085876 0.19834558665752411
0.52990198135375977 0.06090686097741127 0.17089460790157318
0.7992851734161377 0.077614374458789825 0.15477940440177917
0.060539215803146362 0.20361520349979401 0.40020424127578735
0.23031726479530334 0.22958879172801971 0.41130173206329346
0.45022466778755188 0.23041258752346039 0.35332924127578735
0.66505306959152222 0.12912583351135254 0.27073118090629578
0.93095725774765015 0.049380447715520859 0.17617782950401306
0.047732844948768616 0.463419109582901 0.54313725233078003
0.086172379553318024 0.47875815629959106 0.54640519618988037
0.45808824896812439 0.48204657435417175 0.51464462280273438
0.7188725471496582 0.44105392694473267 0.44344362616539001
0.97806370258331299 0.42722627520561218 0.36629903316497803
0.041789215058088303 0.77199757099151611 0.72493875026702881
0.023651961237192154 0.79064548015594482 0.73278188705444336
0.44405636191368103 0.78241419792175293 0.69626224040985107
0.74791663885116577 0.74307596683502197 0.63020831346511841
0.97610294818878174 0.7499387264251709 0.57636845111846924
0.46546158194541931 0.9665645956993103 0.88251632452011108
0.51857978105545044 0.97847902774810791 0.89077478647232056
0.70230793952941895 0.96149915456771851 0.86252045631408691
0.85902774333953857 0.93529409170150757 0.85753679275512695
0.94665038585662842 0.93270015716552734 0.81632626056671143
0.027553103864192963 0.1315767914056778 0.38333332538604736
0.16965550184249878 0.15063317120075226 0.3864651620388031
0.33803102374076843 0.14908088743686676 0.32969772815704346
0.54942804574966431 0.072385616600513458 0.27457109093666077
0.79724264144897461 0.077682465314865112 0.23930418491363525
0.091033495962619781 0.24487335979938507 0.54813456535339355
0.27414670586585999 0.26796025037765503 0.55711013078689575
0.53321081399917603 0.27128267288208008 0.50940907001495361
0.73053508996963501 0.24388615787029266 0.44107434153556824
0.93386667966842651 0.053885262459516525 0.31306281685829163
0.04840686172246933 0.48104578256607056 0.65345185995101929
0.098420478403568268 0.48949483036994934 0.65229445695877075
0.50569850206375122 0.50526958703994751 0.64611929655075073
0.75455468893051147 0.52271240949630737 0.59769201278686523
0.96951931715011597 0.41208469867706299 0.49537035822868347
0.051919937133789062 0.75467729568481445 0.79399508237838745
0.050170209258794785 0.75602531433105469 0.78313589096069336
0.44936683773994446 0.75900733470916748 0.76760619878768921
0.76168298721313477 0.76207107305526733 0.73688727617263794
0.96697986125946045 0.74137395620346069 0.68908631801605225
0.5226510763168335 0.95336329936981201 0.92625278234481812
0.54576748609542847 0.96878403425216675 0.93205338716506958
0.69223171472549438 0.96297657489776611 0.91790574789047241
0.85072165727615356 0.95065361261367798 0.89680689573287964
0.94767385721206665 0.93820130825042725 0.87433052062988281
