snapseed-lut/snapseed-film-a01.cube
# Created by: G'MIC (https://gmic.eu)
TITLE "snapseed-film-a01"
# LUT size
LUT_3D_SIZE 5
# Data domain
# LUT data points
DOMAIN_MIN 0.000000 0.000000 0.000000
DOMAIN_MAX 0.903226 0.903226 0.903226
0.031188724562525749 0.076286762952804565 0.017647059634327888
0.041789215058088303 0.083394609391689301 0.028941992670297623
0.26752451062202454 0.05257352814078331 0.040379900485277176
0.55116420984268188 0.052757352590560913 0.034742645919322968
0.86936277151107788 0.06456291675567627 0.039889704436063766
0.076266348361968994 0.091115199029445648 0.061192810535430908
0.15556918084621429 0.10812227427959442 0.061036217957735062
0.37640932202339172 0.066237747669219971 0.038929738104343414
0.64189130067825317 0.014276960864663124 0.062847226858139038
0.95998775959014893 0.001647603465244174 0.12846541404724121
0.045465685427188873 0.28529411554336548 0.12573529779911041
0.10224673897027969 0.28823530673980713 0.13694852590560913
0.40189951658248901 0.3125612735748291 0.054534312337636948
0.70465683937072754 0.29430148005485535 0.021936275064945221
0.99064546823501587 0.27538809180259705 0.076245911419391632
0.034191176295280457 0.52855390310287476 0.21593137085437775
0.0061683007515966892 0.52091509103775024 0.23837825655937195
0.31911763548851013 0.51537990570068359 0.19350489974021912
0.70428919792175293 0.56887257099151611 0.027879901230335236
0.98353755474090576 0.59146243333816528 0.0062908497639000416
0.052205882966518402 0.78033089637756348 0.36879086494445801
0.0089392699301242828 0.7944716215133667 0.39777368307113647
0.35749590396881104 0.75584155321121216 0.40198120474815369
0.67634803056716919 0.78098446130752563 0.27873775362968445
0.97205197811126709 0.81058007478713989 0.060981754213571548
0.019628265872597694 0.12020016461610794 0.12377450615167618
0.043627452105283737 0.13950164616107941 0.12869688868522644
0.26149919629096985 0.08915441483259201 0.10310456901788712
0.5203431248664856 0.072120100259780884 0.07555147260427475
0.83184909820556641 0.082427829504013062 0.039025057107210159
0.055657677352428436 0.15631809830665588 0.18508985638618469
0.18438634276390076 0.17318445444107056 0.19499137997627258
0.40018382668495178 0.15442538261413574 0.16744281351566315
0.65989917516708374 0.09949619323015213 0.12901006639003754
0.93132263422012329 0.048243466764688492 0.083961963653564453
0.04554738849401474 0.37773692607879639 0.2483251541852951
0.13647876679897308 0.37964326143264771 0.26703432202339172
0.41325569152832031 0.37767568230628967 0.22261029481887817
0.70823121070861816 0.36887255311012268 0.15957926213741302
0.97555148601531982 0.3827478289604187 0.072596676647663116
0.035886440426111221 0.61605393886566162 0.35142976045608521
0.015318627469241619 0.61183279752731323 0.35048338770866394
0.35093951225280762 0.57900333404541016 0.32471403479576111
0.70988565683364868 0.6271241307258606 0.2274918407201767
0.98256397247314453 0.64959830045700073 0.090468414127826691
0.17263072729110718 0.81791943311691284 0.49217048287391663
0.16567493975162506 0.83130216598510742 0.5101965069770813
0.44585373997688293 0.81550925970077515 0.51460379362106323
0.69146919250488281 0.82352256774902344 0.44303515553474426
0.96829837560653687 0.85004305839538574 0.29003721475601196
0.027267156168818474 0.19626225531101227 0.36004900932312012
0.17234477400779724 0.20972220599651337 0.3760620653629303
0.37720587849617004 0.20876225829124451 0.35183823108673096
0.59276962280273438 0.18854166567325592 0.3280024528503418
0.83020836114883423 0.084865197539329529 0.26329657435417175
0.05236927792429924 0.23429329693317413 0.42434641718864441
0.21860703825950623 0.26816448569297791 0.45745506882667542
0.47816583514213562 0.27961599826812744 0.43711194396018982
0.70690363645553589 0.25306373834609985 0.39773285388946533
0.94829797744750977 0.10127995908260345 0.3235974907875061
0.046139705926179886 0.4529411792755127 0.46280637383460999
0.063419118523597717 0.47432598471641541 0.48161765933036804
0.45042893290519714 0.46115195751190186 0.45814952254295349
0.71678918600082397 0.44037988781929016 0.41832107305526733
0.97906452417373657 0.4282066822052002 0.3710988461971283
0.04117647185921669 0.73400735855102539 0.56783086061477661
0.033864375203847885 0.73145431280136108 0.56966912746429443
0.45765930414199829 0.69270831346511841 0.54074752330780029
0.74056375026702881 0.7033088207244873 0.50318628549575806
0.98345589637756348 0.70812910795211792 0.43974670767784119
0.31840276718139648 0.88968539237976074 0.66870921850204468
0.4330405592918396 0.90952485799789429 0.71078431606292725
0.612479567527771 0.88513076305389404 0.68549835681915283
0.75653588771820068 0.86564540863037109 0.65986520051956177
0.95996052026748657 0.88687360286712646 0.58415716886520386
0.13253676891326904 0.32910540699958801 0.635661780834198
0.27953431010246277 0.34285131096839905 0.65488147735595703
0.55220586061477661 0.35992646217346191 0.6670343279838562
0.75422793626785278 0.36323529481887817 0.64197301864624023
0.90085786581039429 0.46294936537742615 0.63445675373077393
0.1090686246752739 0.36053922772407532 0.68950158357620239
0.30537176132202148 0.39204797148704529 0.73358523845672607
0.62875819206237793 0.41881126165390015 0.74542486667633057
0.85040843486785889 0.44101303815841675 0.71915847063064575
0.99402922391891479 0.5112949013710022 0.70076256990432739
0.042279411107301712 0.53848040103912354 0.69044119119644165
0.076000809669494629 0.54679328203201294 0.7090686559677124
0.50349265336990356 0.56170344352722168 0.72095590829849243
0.82028186321258545 0.61697304248809814 0.73069852590560913
0.97912579774856567 0.6142769455909729 0.69209557771682739
0.03700980544090271 0.77199757099151611 0.7547181248664856
0.020220588892698288 0.78116828203201294 0.76488971710205078
0.45373773574829102 0.77714461088180542 0.75410538911819458
0.77408087253570557 0.76672792434692383 0.73682600259780884
0.96027368307113647 0.75447303056716919 0.70392155647277832
0.34264704585075378 0.9368668794631958 0.82743048667907715
0.42495915293693542 0.95847630500793457 0.85061275959014893
0.65002048015594482 0.94042068719863892 0.84044116735458374
0.82988148927688599 0.91158086061477661 0.82937091588973999
0.94752174615859985 0.91734069585800171 0.80533087253570557
0.4735293984413147 0.52957510948181152 0.83968549966812134
0.53807193040847778 0.54619419574737549 0.85302287340164185
0.69803923368453979 0.58088237047195435 0.86589056253433228
0.86817806959152222 0.658843994140625 0.88167893886566162
0.93500137329101562 0.66844362020492554 0.86083877086639404
0.4982571005821228 0.56889981031417847 0.90298199653625488
0.57200890779495239 0.58601802587509155 0.91978484392166138
0.75206971168518066 0.61852538585662842 0.92083334922790527
0.92278730869293213 0.69431513547897339 0.92224949598312378
0.99816858768463135 0.71376633644104004 0.9061773419380188
0.27544933557510376 0.65569853782653809 0.86830061674118042
0.40801331400871277 0.67909854650497437 0.89922386407852173
0.66644197702407837 0.71264296770095825 0.91343951225280762
0.88449752330780029 0.77837008237838745 0.91732031106948853
0.98448389768600464 0.80996048450469971 0.90853762626647949
0.27479574084281921 0.8099672794342041 0.89491420984268188
0.37687227129936218 0.81973719596862793 0.90775465965270996
0.57048606872558594 0.81160134077072144 0.89487332105636597
0.80951803922653198 0.83529412746429443 0.89877450466156006
0.96120643615722656 0.88838505744934082 0.91838234663009644
0.5883101224899292 0.93987613916397095 0.93346947431564331
0.62080836296081543 0.94747644662857056 0.94069081544876099
0.72567403316497803 0.94637799263000488 0.93918842077255249
0.85164076089859009 0.94756948947906494 0.93947440385818481
0.94707703590393066 0.94494146108627319 0.92663401365280151
