snapseed-lut/snapseed-film-l02.cube
# Created by: G'MIC (https://gmic.eu)
TITLE "snapseed-film-l02"
# LUT size
LUT_3D_SIZE 32
# Data domain
DOMAIN_MIN 0.0 0.0 0.0
DOMAIN_MAX 1.0 1.0 1.0
# LUT data points
0.12175244837999344 0.18455882370471954 0.10287990421056747
0.10392156988382339 0.1924632340669632 0.11243872344493866
0.1060866042971611 0.19189132750034332 0.11096813529729843
0.10923203080892563 0.19189134240150452 0.11053921282291412
0.11593136936426163 0.19221813976764679 0.11317402124404907
0.12406045943498611 0.19060458242893219 0.11084558814764023
0.13468137383460999 0.19025735557079315 0.10833333432674408
0.15126633644104004 0.1929534375667572 0.11158088594675064
0.17138479650020599 0.19718137383460999 0.11513480544090271
0.19317810237407684 0.19742646813392639 0.11554329842329025
0.21740196645259857 0.19644607603549957 0.11427696049213409
0.2584967315196991 0.20136846601963043 0.1165032684803009
0.29546567797660828 0.20508578419685364 0.12009803950786591
0.33643791079521179 0.2069036066532135 0.1215890496969223
0.37463235855102539 0.20962010324001312 0.12598039209842682
0.42146649956703186 0.20955882966518402 0.1283496618270874
0.46727940440177917 0.21045750379562378 0.12808413803577423
0.51795345544815063 0.21182598173618317 0.13462010025978088
0.55757761001586914 0.2150939553976059 0.13905230164527893
0.59950977563858032 0.21789215505123138 0.14087009429931641
0.63484472036361694 0.22236520051956177 0.14350490272045135
0.66979163885116577 0.22628676891326904 0.15024510025978088
0.69432187080383301 0.22975897789001465 0.15461601316928864
0.71537989377975464 0.23216912150382996 0.15661764144897461
0.7322508692741394 0.23698937892913818 0.16060048341751099
0.74669116735458374 0.24068626761436462 0.16446077823638916
0.75718951225280762 0.24197304248809814 0.1680351197719574
0.76660537719726562 0.24466912448406219 0.17101715505123138
0.77722632884979248 0.2519812285900116 0.17381535470485687
0.78639703989028931 0.25573939085006714 0.17818626761436462
0.79558825492858887 0.2609068751335144 0.18511030077934265
0.77126222848892212 0.27922794222831726 0.20110294222831726
0.12830881774425507 0.18290440738201141 0.10085784643888474
0.10324754565954208 0.19234068691730499 0.11182598024606705
0.10651551932096481 0.19160538911819458 0.11064133793115616
0.1096813753247261 0.1926470547914505 0.11176470667123795
0.11550245434045792 0.19356617331504822 0.11311274766921997
0.1232026219367981 0.19117647409439087 0.11019199341535568
0.13455882668495178 0.19142156839370728 0.11072304099798203
0.15183822810649872 0.19354574382305145 0.11292891949415207
0.17150735855102539 0.1977328360080719 0.11697304248809814
0.19352534413337708 0.19750818610191345 0.1161356195807457
0.21875 0.19779412448406219 0.11685048788785934
0.25886440277099609 0.19938725233078003 0.11723856627941132
0.29534313082695007 0.20416666567325592 0.12193627655506134
0.33737745881080627 0.20663808286190033 0.12467319518327713
0.37438726425170898 0.2083333283662796 0.12837009131908417
0.42113971710205078 0.20843544602394104 0.13141340017318726
0.46727940440177917 0.21098856627941132 0.13272058963775635
0.51678919792175293 0.21274510025978088 0.13829657435417175
0.55751633644104004 0.21680963039398193 0.14158496260643005
0.59957104921340942 0.21954657137393951 0.14325980842113495
0.63349676132202148 0.22320261597633362 0.14481209218502045
0.66801470518112183 0.22671568393707275 0.15147058665752411
0.69195258617401123 0.22959558665752411 0.15608660876750946
0.71329659223556519 0.23223039507865906 0.15784314274787903
0.72873777151107788 0.23752042651176453 0.16023284196853638
0.74448531866073608 0.24411764740943909 0.16280637681484222
0.7547793984413147 0.24548611044883728 0.16576796770095825
0.76433825492858887 0.24718137085437775 0.16783088445663452
0.77549022436141968 0.25416666269302368 0.17209967970848083
0.78494691848754883 0.25843548774719238 0.17638887465000153
0.79295343160629272 0.26360294222831726 0.18425245583057404
0.76979166269302368 0.28057599067687988 0.20104166865348816
0.1368463933467865 0.17975898087024689 0.11646240949630737
0.11854575574398041 0.18807189166545868 0.12569443881511688
0.12164351344108582 0.18554601073265076 0.12426470220088959
0.12461192905902863 0.18513073027133942 0.12339325249195099
0.12943220138549805 0.18417073786258698 0.12238561362028122
0.13643790781497955 0.18300653994083405 0.12111927568912506
0.14850898087024689 0.18159721791744232 0.11875000596046448
0.16273148357868195 0.18453839421272278 0.12141884118318558
0.18265931308269501 0.18754085898399353 0.12569445371627808
0.2049223780632019 0.18955610692501068 0.12600763142108917
0.23300653696060181 0.18988969922065735 0.12687909603118896
0.27335241436958313 0.19193899631500244 0.12960919737815857
0.30996733903884888 0.1959354430437088 0.13286356627941132
0.35111656785011292 0.19765795767307281 0.13416394591331482
0.38933822512626648 0.19932597875595093 0.13596813380718231
0.43702343106269836 0.20036083459854126 0.13905909657478333
0.48321756720542908 0.20457515120506287 0.14169389009475708
0.533619225025177 0.2064746618270874 0.14828431606292725
0.57668167352676392 0.20844906568527222 0.15168845653533936
0.61846405267715454 0.21190768480300903 0.15353350341320038
0.65105533599853516 0.21514160931110382 0.15499728918075562
0.68357843160629272 0.21825979650020599 0.15888480842113495
0.70859205722808838 0.22282816469669342 0.16444717347621918
0.73069852590560913 0.22559231519699097 0.16613562405109406
0.74634397029876709 0.23057597875595093 0.16851170361042023
0.75945675373077393 0.23506943881511688 0.16987337172031403
0.77229028940200806 0.23944035172462463 0.17488427460193634
0.78304743766784668 0.24321892857551575 0.17953431606292725
0.7934640645980835 0.24770562350749969 0.18315631151199341
0.80270290374755859 0.25189268589019775 0.18735702335834503
0.81225490570068359 0.25763890147209167 0.19524101912975311
0.79548615217208862 0.27087420225143433 0.20927287638187408
0.18216912448406219 0.15343137085437775 0.14530228078365326
0.15512663125991821 0.16431780159473419 0.15665848553180695
0.15740738809108734 0.16329656541347504 0.155255988240242
0.15952476859092712 0.16269063949584961 0.15562364459037781
0.163317009806633 0.16229575872421265 0.15653593838214874
0.17086057364940643 0.15960648655891418 0.15298201143741608
0.18216912448406219 0.16004902124404907 0.15230800211429596
0.19877451658248901 0.15962691605091095 0.15380580723285675
0.21801470220088959 0.16329656541347504 0.15645425021648407
0.24424700438976288 0.16527096927165985 0.15912990272045135
0.27130311727523804 0.16756534576416016 0.16090686619281769
0.30966773629188538 0.16981208324432373 0.15703976154327393
0.34662988781929016 0.17248775064945221 0.15825162827968597
0.38832378387451172 0.17474807798862457 0.16222086548805237
0.43075981736183167 0.17434641718864441 0.16366422176361084
0.48119553923606873 0.1742919385433197 0.16558416187763214
0.53223723173141479 0.17800244688987732 0.1708197146654129
0.58592724800109863 0.1788194328546524 0.17516340315341949
0.62758719921112061 0.17972494661808014 0.1756604015827179
0.67134398221969604 0.18451796472072601 0.17890113592147827
0.70522195100784302 0.18547113239765167 0.17719227075576782
0.74058419466018677 0.18927696347236633 0.18237335979938507
0.7657543420791626 0.19397467374801636 0.18833062052726746
0.78899103403091431 0.19740605354309082 0.19080881774425507
0.80411219596862793 0.20175653696060181 0.19259260594844818
0.81552290916442871 0.20420752465724945 0.19144199788570404
0.8294185996055603 0.20885075628757477 0.19641885161399841
0.84172791242599487 0.21417485177516937 0.20118464529514313
0.8522876501083374 0.2201116532087326 0.20343136787414551
0.86137658357620239 0.22534722089767456 0.20693762600421906
0.86901557445526123 0.23004494607448578 0.21319444477558136
0.84448528289794922 0.2481413334608078 0.23180146515369415
0.17824755609035492 0.15925244987010956 0.14258578419685364
0.15000000596046448 0.16985294222831726 0.15343137085437775
0.15437091886997223 0.16807597875595093 0.15298201143741608
0.15882353484630585 0.16883170604705811 0.15390112996101379
0.16446077823638916 0.16911764442920685 0.15392157435417175
0.17052696645259857 0.16752451658248901 0.15204249322414398
0.18259803950786591 0.1664828360080719 0.15257352590560913
0.1979779452085495 0.16721813380718231 0.15312500298023224
0.21801470220088959 0.17003676295280457 0.15600490570068359
0.24158497154712677 0.17248775064945221 0.15706698596477509
0.2708946168422699 0.17414215207099915 0.16060048341751099
0.31068217754364014 0.17520426213741302 0.1595383882522583
0.34473040699958801 0.1768382340669632 0.15937499701976776
0.38682597875595093 0.17812499403953552 0.16292892396450043
0.43014705181121826 0.17910538613796234 0.16292892396450043
0.4795956015586853 0.17963643372058868 0.16562500596046448
0.52771651744842529 0.18345588445663452 0.17003676295280457
0.58100491762161255 0.18498773872852325 0.17371323704719543
0.62610292434692383 0.18609069287776947 0.1768382340669632
0.67022061347961426 0.19007353484630585 0.17971813678741455
0.70410537719726562 0.1924632340669632 0.17830882966518402
0.7392769455909729 0.19669117033481598 0.18468137085437775
0.76464462280273438 0.2013888955116272 0.18960376083850861
0.78995096683502197 0.20551469922065735 0.19307598471641541
0.80608665943145752 0.21058005094528198 0.19383171200752258
0.81495100259780884 0.21433822810649872 0.19191177189350128
0.82841092348098755 0.21983252465724945 0.19850897789001465
0.84240198135375977 0.22518382966518402 0.20435048639774323
0.8511846661567688 0.22920750081539154 0.20279820263385773
0.86047792434692383 0.23316992819309235 0.2049223929643631
0.8690563440322876 0.23762254416942596 0.21280637383460999
0.84338235855102539 0.25367647409439087 0.22965686023235321
0.17569443583488464 0.16866828501224518 0.14540441334247589
0.15214461088180542 0.17716504633426666 0.15377859771251678
0.15541937947273254 0.1759735643863678 0.15341776609420776
0.1596609503030777 0.17529955506324768 0.15411899983882904
0.16619691252708435 0.1752859503030777 0.15488153696060181
0.17357707023620605 0.1744212806224823 0.1550108939409256
0.18519200384616852 0.17393790185451508 0.15443217754364014
0.20035403966903687 0.17562635242938995 0.15529683232307434
0.21932189166545868 0.1773897111415863 0.15767973661422729
0.24330747127532959 0.17858797311782837 0.15850354731082916
0.27091500163078308 0.18110701441764832 0.16158087551593781
0.30663806200027466 0.18014705181121826 0.15938861668109894
0.34201386570930481 0.18176062405109406 0.1585375964641571
0.3839324414730072 0.18339461088180542 0.1616489589214325
0.42785948514938354 0.18558007478713989 0.16288807988166809
0.47888752818107605 0.18596813082695007 0.16714325547218323
0.52598041296005249 0.18699619174003601 0.16917210817337036
0.58029001951217651 0.1896650493144989 0.17432598769664764
0.62431913614273071 0.19321213662624359 0.17749182879924774
0.6685253381729126 0.19763073325157166 0.17855392396450043
0.70203572511672974 0.20055146515369415 0.1792483776807785
0.73764294385910034 0.20484068989753723 0.18292483687400818
0.76500540971755981 0.21171022951602936 0.18778595328330994
0.78703022003173828 0.21452206373214722 0.19033905863761902
0.80392158031463623 0.21881808340549469 0.19396787881851196
0.81770831346511841 0.22350899875164032 0.19485294818878174
0.82985430955886841 0.22907815873622894 0.20013615489006042
0.84131944179534912 0.23533496260643005 0.20408496260643005
0.85114377737045288 0.23842592537403107 0.20701934397220612
0.85901415348052979 0.24115605652332306 0.2102600634098053
0.8664623498916626 0.24536357820034027 0.21513479948043823
0.84814131259918213 0.25966095924377441 0.23000408709049225
0.18265931308269501 0.18020834028720856 0.14730392396450043
0.1563112735748291 0.19062499701976776 0.15919117629528046
0.15833333134651184 0.18835784494876862 0.15786357223987579
0.16200980544090271 0.18819445371627808 0.15872141718864441
0.16703431308269501 0.18676470220088959 0.15900735557079315
0.17573529481887817 0.18555964529514313 0.15692402422428131
0.18492646515369415 0.18498773872852325 0.1563725471496582
0.20010213553905487 0.18631535768508911 0.1563112735748291
0.21930147707462311 0.18854166567325592 0.15649509429931641
0.24409723281860352 0.1892361044883728 0.15882353484630585
0.26985293626785278 0.19240196049213409 0.16268382966518402
0.30531048774719238 0.19330066442489624 0.15800653398036957
0.34019607305526733 0.19473038613796234 0.15845587849617004
0.38104575872421265 0.19566994905471802 0.1617647111415863
0.42365196347236633 0.19503676891326904 0.16231617331504822
0.476817786693573 0.19573122262954712 0.16813725233078003
0.52438724040985107 0.19589461386203766 0.16964869201183319
0.57837009429931641 0.19944852590560913 0.17549020051956177
0.62146651744842529 0.20620915293693542 0.17883987724781036
0.66721814870834351 0.20986519753932953 0.18075980246067047
0.70236921310424805 0.21384803950786591 0.18280230462551117
0.73829656839370728 0.21801470220088959 0.18449755012989044
0.76570671796798706 0.22491830587387085 0.19007353484630585
0.78988969326019287 0.22953431308269501 0.19473038613796234
0.80516749620437622 0.23280230164527893 0.19887663424015045
0.81973040103912354 0.23676469922065735 0.20428921282291412
0.83368057012557983 0.2415032833814621 0.2082107812166214
0.8436274528503418 0.2450367659330368 0.21072304248809814
0.85214459896087646 0.25132760405540466 0.21203023195266724
0.86137664318084717 0.25543299317359924 0.21488970518112183
0.86801469326019287 0.25962010025978088 0.21966911852359772
0.84209561347961426 0.27702206373214722 0.23664215207099915
0.18188317120075226 0.19430147111415863 0.14797794818878174
0.15488152205944061 0.20549428462982178 0.15957926213741302
0.15830610692501068 0.20366966724395752 0.1592864990234375
0.16060729324817657 0.20279818773269653 0.15909585356712341
0.1649918258190155 0.20206291973590851 0.1582924872636795
0.17324347794055939 0.20074890553951263 0.15703976154327393
0.18412990868091583 0.19777368009090424 0.15655636787414551
0.19849535822868347 0.19898556172847748 0.15518110990524292
0.21879085898399353 0.200898677110672 0.15729166567325592
0.24185729026794434 0.20232842862606049 0.16051198542118073
0.27022057771682739 0.20449346303939819 0.16309231519699097
0.30319991707801819 0.20631808042526245 0.16008307039737701
0.3371119499206543 0.2070261538028717 0.16143789887428284
0.38028323650360107 0.20846949517726898 0.16209830343723297
0.42171162366867065 0.20861928164958954 0.16341911256313324
0.4728485643863678 0.20917074382305145 0.16909721493721008
0.52024102210998535 0.21047112345695496 0.16782407462596893
0.57220184803009033 0.21368463337421417 0.17481617629528046
0.61545479297637939 0.21858659386634827 0.17519743740558624
0.66174423694610596 0.2237132340669632 0.17943218350410461
0.69703835248947144 0.22763480246067047 0.18153595924377441
0.7360498309135437 0.23276142776012421 0.18508987128734589
0.76299703121185303 0.23844633996486664 0.19124455749988556
0.78739786148071289 0.24168708920478821 0.19511845707893372
0.8046908974647522 0.24618737399578094 0.19765795767307281
0.81842315196990967 0.25053104758262634 0.20355391502380371
0.83088237047195435 0.25561684370040894 0.20791122317314148
0.84229987859725952 0.25876224040985107 0.21129494905471802
0.85319989919662476 0.26564541459083557 0.21284042298793793
0.86232298612594604 0.27034994959831238 0.21654412150382996
0.86928099393844604 0.27381539344787598 0.22218137979507446
0.84830480813980103 0.2887459397315979 0.23684641718864441
0.17512254416942596 0.21727940440177917 0.15067401528358459
0.15465685725212097 0.22610294818878174 0.15870098769664764
0.15927287936210632 0.22477534413337708 0.15886436402797699
0.16166259348392487 0.22410131990909576 0.15888480842113495
0.1668504923582077 0.22365196049213409 0.15998774766921997
0.17512254416942596 0.22279411554336548 0.15988563001155853
0.18498773872852325 0.22126226127147675 0.15870098769664764
0.1999591588973999 0.22140523791313171 0.15878267586231232
0.2186887264251709 0.22242647409439087 0.16011029481887817
0.24279004335403442 0.22246730327606201 0.16080473363399506
0.26862746477127075 0.22438725829124451 0.16354165971279144
0.30459558963775635 0.22602123022079468 0.16450163722038269
0.34031862020492554 0.22634804248809814 0.16409313678741455
0.38108661770820618 0.22720588743686676 0.16484884917736053
0.41917893290519714 0.22769607603549957 0.16758579015731812
0.47050651907920837 0.22771652042865753 0.17071078717708588
0.5197712779045105 0.22930963337421417 0.17397876083850861
0.57181370258331299 0.23198530077934265 0.17849265038967133
0.61237746477127075 0.23682598769664764 0.17598038911819458
0.65723037719726562 0.24136029183864594 0.17959558963775635
0.69375002384185791 0.24528186023235321 0.18239377439022064
0.73112744092941284 0.25030636787414551 0.18560048937797546
0.75904816389083862 0.25596404075622559 0.19070671498775482
0.78443628549575806 0.26158088445663452 0.19515931606292725
0.80132764577865601 0.26531863212585449 0.19705882668495178
0.81531864404678345 0.26887255907058716 0.20036764442920685
0.82890111207962036 0.27526551485061646 0.20624999701976776
0.84001225233078003 0.27947303652763367 0.21053922176361084
0.85140931606292725 0.28719362616539001 0.21815769374370575
0.86127448081970215 0.29330065846443176 0.22457107901573181
0.8702818751335144 0.29840686917304993 0.23088234663009644
0.84540438652038574 0.31495097279548645 0.24687500298023224
0.18629494309425354 0.23666258156299591 0.15404412150382996
0.15939542651176453 0.24773284792900085 0.16478757560253143
0.16309912502765656 0.24644607305526733 0.1643722802400589
0.16559776663780212 0.24629630148410797 0.16482160985469818
0.17091503739356995 0.24624182283878326 0.16560457646846771
0.17938454449176788 0.24463507533073425 0.16399781405925751
0.18974673748016357 0.2434232085943222 0.16419525444507599
0.2030024528503418 0.24450573325157166 0.16249999403953552
0.22132353484630585 0.2448529452085495 0.16188725829124451
0.24381127953529358 0.24358661472797394 0.16264978051185608
0.26895424723625183 0.24515931308269501 0.16562500596046448
0.30467051267623901 0.24637119472026825 0.16591094434261322
0.3399101197719574 0.24799837172031403 0.164807990193367
0.38066446781158447 0.24933959543704987 0.16886572539806366
0.42015931010246277 0.24830473959445953 0.16917891800403595
0.47101032733917236 0.24889025092124939 0.17300516366958618
0.52047252655029297 0.25166803598403931 0.17629356682300568
0.57128274440765381 0.25469771027565002 0.18033088743686676
0.60867375135421753 0.25829246640205383 0.17980663478374481
0.65533089637756348 0.2609068751335144 0.18200573325157166
0.69223862886428833 0.26530498266220093 0.1846473217010498
0.73031044006347656 0.27054736018180847 0.18670342862606049
0.75931370258331299 0.27786627411842346 0.19329385459423065
0.78433418273925781 0.28163805603981018 0.19740603864192963
0.80046296119689941 0.28517839312553406 0.20081017911434174
0.81464463472366333 0.28809234499931335 0.20612744987010956
0.82994967699050903 0.29436957836151123 0.21294254064559937
0.84187090396881104 0.29881533980369568 0.21744279563426971
0.85313856601715088 0.30552151799201965 0.22199073433876038
0.86220729351043701 0.31104981899261475 0.22700844705104828
0.86985296010971069 0.31629902124404907 0.23353758454322815
0.84470999240875244 0.33343547582626343 0.24932597577571869
0.18094362318515778 0.2710171639919281 0.16084559261798859
0.16194853186607361 0.27941176295280457 0.17034313082695007
0.16756534576416016 0.27990195155143738 0.17148692905902863
0.17024102807044983 0.27957513928413391 0.17173202335834503
0.17469362914562225 0.28014704585075378 0.17328430712223053
0.18194445967674255 0.27785950899124146 0.17128267884254456
0.19234068691730499 0.2757965624332428 0.17028185725212097
0.20604576170444489 0.27500000596046448 0.1700776219367981
0.22408087551593781 0.27469363808631897 0.17132352292537689
0.24456699192523956 0.27391749620437622 0.17064951360225677
0.26991420984268188 0.2710784375667572 0.16966912150382996
0.30388069152832031 0.27422386407852173 0.17118054628372192
0.33915442228317261 0.27659314870834351 0.17334559559822083
0.38210785388946533 0.27828842401504517 0.17495913803577423
0.41832107305526733 0.27977940440177917 0.17310048639774323
0.46891340613365173 0.28047385811805725 0.17837010324001312
0.51932185888290405 0.28462010622024536 0.18125000596046448
0.57089459896087646 0.28633579611778259 0.18621324002742767
0.60908901691436768 0.28862333297729492 0.18394607305526733
0.65287989377975464 0.29197302460670471 0.18805147707462311
0.68970590829849243 0.29740604758262634 0.19131945073604584
0.73100489377975464 0.30183824896812439 0.19485294818878174
0.76058000326156616 0.30661764740943909 0.20004086196422577
0.78425246477127075 0.30894607305526733 0.2029411792755127
0.80126631259918213 0.31245917081832886 0.20488151907920837
0.81568628549575806 0.31574755907058716 0.21035538613796234
0.82971811294555664 0.32109886407852173 0.21587009727954865
0.84319853782653809 0.32726716995239258 0.22261029481887817
0.85251224040985107 0.33257761597633362 0.22457107901573181
0.86070263385772705 0.33725491166114807 0.22734886407852173
0.86850488185882568 0.34148284792900085 0.23333333432674408
0.85012257099151611 0.35637253522872925 0.24693627655506134
0.19454656541347504 0.30402371287345886 0.16599264740943909
0.16993464529514313 0.31676879525184631 0.178942009806633
0.17395152151584625 0.31686413288116455 0.18050108850002289
0.17572849988937378 0.31704795360565186 0.1805555522441864
0.17812499403953552 0.31715685129165649 0.17963643372058868
0.18664896488189697 0.31520968675613403 0.17765523493289948
0.19732433557510376 0.31458333134651184 0.17661356925964355
0.21058687567710876 0.3140522837638855 0.1739242821931839
0.22857435047626495 0.31431782245635986 0.1740400493144989
0.2501838207244873 0.311383455991745 0.17283496260643005
0.27428513765335083 0.30831289291381836 0.17314134538173676
0.31099537014961243 0.30618190765380859 0.17937090992927551
0.34626224637031555 0.30825161933898926 0.18016748130321503
0.38799703121185303 0.3105187714099884 0.18398691713809967
0.42334559559822083 0.3136846125125885 0.18216912448406219
0.47282817959785461 0.3161560595035553 0.1851443350315094
0.5203363299369812 0.31911084055900574 0.18939951062202454
0.57073122262954712 0.32160946726799011 0.19458740949630737
0.60981076955795288 0.32361790537834167 0.19200709462165833
0.65341097116470337 0.32642975449562073 0.19358660280704498
0.69095861911773682 0.33016747236251831 0.1981004923582077
0.73065769672393799 0.33441585302352905 0.20102123916149139
0.76025331020355225 0.33973309397697449 0.20571213960647583
0.78611111640930176 0.34281045198440552 0.20819035172462463
0.80308413505554199 0.34507760405540466 0.20954521000385284
0.81756532192230225 0.34944853186607361 0.21190768480300903
0.83234614133834839 0.35428920388221741 0.21968273818492889
0.84564948081970215 0.36031454801559448 0.22591911256313324
0.85398966073989868 0.36466503143310547 0.23171976208686829
0.86193490028381348 0.3687431812286377 0.23711873590946198
0.86887252330780029 0.37267157435417175 0.24219772219657898
0.843239426612854 0.39027774333953857 0.25763887166976929
0.19926470518112183 0.34062498807907104 0.17322303354740143
0.17334559559822083 0.35281863808631897 0.18425245583057404
0.17910538613796234 0.3539828360080719 0.18623366951942444
0.18167892098426819 0.35359477996826172 0.18627451360225677
0.18498773872852325 0.35287991166114807 0.18566176295280457
0.19313725829124451 0.35214459896087646 0.18278186023235321
0.20226715505123138 0.34969362616539001 0.18100489675998688
0.2154616117477417 0.35102123022079468 0.18265931308269501
0.23492647707462311 0.35116422176361084 0.18345588445663452
0.25590279698371887 0.34873363375663757 0.18296568095684052
0.28045344352722168 0.34509804844856262 0.18290440738201141
0.31691175699234009 0.34297382831573486 0.18872548639774323
0.35055145621299744 0.3438725471496582 0.18982842564582825
0.39268791675567627 0.3455473780632019 0.19242237508296967
0.42787989974021912 0.35024508833885193 0.18952205777168274
