snapseed-lut/snapseed-film-a04.cube
# Created by: G'MIC (https://gmic.eu)
TITLE "snapseed-fim-a04"
# LUT size
LUT_3D_SIZE 32
# Data domain
DOMAIN_MIN 0.0 0.0 0.0
DOMAIN_MAX 1.0 1.0 1.0
# LUT data points
0.024632353335618973 0.058517158031463623 0.12444853037595749
0 0.070649512112140656 0.13124999403953552
0 0.070588238537311554 0.12761436402797699
0 0.071711607277393341 0.12677696347236633
0.0010416667209938169 0.069485291838645935 0.12941177189350128
0.012316177599132061 0.069444440305233002 0.13055554032325745
0.048284314572811127 0.06709558516740799 0.12910538911819458
0.078308820724487305 0.067810453474521637 0.13686683773994446
0.1199142187833786 0.061703432351350784 0.140625
0.15365603566169739 0.056290850043296814 0.13901142776012421
0.19087009131908417 0.046752449125051498 0.13866421580314636
0.22808414697647095 0.040175653994083405 0.14485293626785278
0.25992646813392639 0.037132352590560913 0.14705882966518402
0.30087825655937195 0.03839869424700737 0.15526960790157318
0.33786764740943909 0.037745099514722824 0.15502451360225677
0.37753266096115112 0.03958333283662796 0.1595996618270874
0.40982431173324585 0.041544117033481598 0.16462418437004089
0.44865196943283081 0.044301468878984451 0.17034313082695007
0.48012664914131165 0.046139705926179886 0.16848447918891907
0.51427698135375977 0.048345588147640228 0.17340686917304993
0.54279005527496338 0.050081696361303329 0.17779819667339325
0.58026963472366333 0.051348038017749786 0.1768382340669632
0.61727941036224365 0.053084153681993484 0.18029004335403442
0.64307600259780884 0.056495096534490585 0.18308822810649872
0.67790031433105469 0.05680147185921669 0.18774509429931641
0.7139093279838562 0.057291667908430099 0.18682597577571869
0.75204253196716309 0.059252452105283737 0.1893586665391922
0.78474265336990356 0.06145833432674408 0.1926470547914505
0.81889301538467407 0.062888070940971375 0.19548611342906952
0.85194039344787598 0.062969774007797241 0.19728349149227142
0.87113970518112183 0.065318629145622253 0.20079657435417175
0.84442400932312012 0.082414217293262482 0.2186274528503418
0.032598040997982025 0.054901961237192154 0.12671568989753723
0 0.072181373834609985 0.13627451658248901
0 0.071772880852222443 0.13270017504692078
0 0.072671569883823395 0.13149510324001312
0.00067401962587609887 0.070036761462688446 0.13033087551593781
0.012826797552406788 0.071037575602531433 0.13239379227161407
0.050980392843484879 0.069607846438884735 0.1302083283662796
0.085457511246204376 0.06825980544090271 0.13486519455909729
0.12720587849617004 0.063909314572811127 0.1351715624332428
0.15661764144897461 0.060845587402582169 0.13165849447250366
0.19074754416942596 0.05257352814078331 0.1303921639919281
0.22908495366573334 0.043607022613286972 0.13982842862606049
0.26164215803146362 0.040441177785396576 0.14258578419685364
0.30153185129165649 0.038480393588542938 0.14728347957134247
0.33970588445663452 0.039154410362243652 0.15024510025978088
0.37879902124404907 0.039379086345434189 0.15737335383892059
0.41343951225280762 0.042463235557079315 0.16560457646846771
0.45275735855102539 0.044424019753932953 0.17254902422428131
0.48494690656661987 0.043954245746135712 0.17201797664165497
0.51875001192092896 0.045526959002017975 0.17438726127147675
0.55024510622024536 0.047814544290304184 0.17757353186607361
0.58229166269302368 0.049203433096408844 0.17769607901573181
0.62069040536880493 0.052083335816860199 0.18525327742099762
0.64791667461395264 0.053615197539329529 0.18670342862606049
0.68331295251846313 0.054656866937875748 0.19127859175205231
0.71427696943283081 0.056985292583703995 0.19037990272045135
0.75104165077209473 0.059354577213525772 0.19405637681484222
0.78339463472366333 0.061703432351350784 0.19834558665752411
0.81887257099151611 0.062071077525615692 0.20302288234233856
0.85179740190505981 0.062520429491996765 0.204861119389534
0.86942404508590698 0.065134800970554352 0.20459559559822083
0.84087008237838745 0.08223038911819458 0.21979166567325592
0.025102125480771065 0.065849676728248596 0.14554737508296967
0 0.0797385573387146 0.15167483687400818
0 0.080385349690914154 0.14774645864963531
0 0.080793850123882294 0.14413125813007355
0.00038807190139777958 0.078615196049213409 0.14187093079090118
0.018144063651561737 0.078819438815116882 0.1417415589094162
0.061151962727308273 0.077573530375957489 0.14021651446819305
0.097181372344493866 0.075476579368114471 0.14359340071678162
0.14125818014144897 0.070547379553318024 0.14303512871265411
0.17295750975608826 0.067626640200614929 0.13632896542549133
0.20841504633426666 0.059334151446819305 0.1355392187833786
0.2460920512676239 0.047440085560083389 0.14072032272815704
0.27726715803146362 0.040543302893638611 0.13762255012989044
0.3162173330783844 0.035471133887767792 0.13970588147640228
0.35747548937797546 0.034089051187038422 0.14928512275218964
0.39784178137779236 0.032237198203802109 0.15599128603935242
0.43333333730697632 0.034633714705705643 0.16265657544136047
0.47126224637031555 0.03368055447936058 0.16774916648864746
0.50686275959014893 0.034300107508897781 0.16845044493675232
0.54144203662872314 0.036090686917304993 0.17549020051956177
0.57318216562271118 0.038235295563936234 0.18252314627170563
0.60816997289657593 0.039746727794408798 0.1822303980588913
0.64636439085006714 0.040965411812067032 0.1885552853345871
0.67234474420547485 0.042667482048273087 0.19162583351135254
0.70927292108535767 0.042701523751020432 0.19659584760665894
0.74354571104049683 0.043586600571870804 0.19662989675998688
0.77778464555740356 0.04548611119389534 0.20296840369701385
0.8066176176071167 0.047691993415355682 0.20494282245635986
0.8448188304901123 0.047957517206668854 0.20915712416172028
0.8796500563621521 0.049074076116085052 0.21331018209457397
0.89417892694473267 0.050837419927120209 0.21562500298023224
0.87305968999862671 0.064542487263679504 0.22906455397605896
0.043566174805164337 0.063909314572811127 0.16695262491703033
0 0.085437096655368805 0.17745098471641541
0 0.087111935019493103 0.17500682175159454
0 0.087629355490207672 0.17188861966133118
0.0013888889225199819 0.085232846438884735 0.17128269374370575
0.029050925746560097 0.085314542055130005 0.17206563055515289
0.077267155051231384 0.08396650105714798 0.16954657435417175
0.11323529481887817 0.082468681037425995 0.16875682771205902
0.1628267914056778 0.075571887195110321 0.16703431308269501
0.20273691415786743 0.067565359175205231 0.1614583283662796
0.24597631394863129 0.056964870542287827 0.15851715207099915
0.28888890147209167 0.042864922434091568 0.15692402422428131
0.3226102888584137 0.033476307988166809 0.1542075127363205
0.36271104216575623 0.026525054126977921 0.15469090640544891
0.40676060318946838 0.021507352590560913 0.15345180034637451
0.44816854596138 0.017456427216529846 0.15497004985809326
0.4819580614566803 0.015468410216271877 0.15631808340549469
0.52285540103912354 0.012030228972434998 0.16098855435848236
0.56143110990524292 0.011540032923221588 0.16062772274017334
0.59808003902435303 0.011907679960131645 0.16693219542503357
0.63270694017410278 0.012377451173961163 0.17326389253139496
0.67430555820465088 0.009783497080206871 0.17604166269302368
0.71320122480392456 0.0069104032590985298 0.18016748130321503
0.74346411228179932 0.0081086596474051476 0.18445670604705811
0.78150194883346558 0.0084150331094861031 0.19127179682254791
0.81840276718139648 0.0051062093116343021 0.19119690358638763
0.85727119445800781 0.0059572439640760422 0.19732435047626495
0.88984888792037964 0.0063521242700517178 0.20204247534275055
0.93058282136917114 0.0067129628732800484 0.20831972360610962
0.96401822566986084 0.0071555012837052345 0.2133578360080719
0.97720587253570557 0.0067606209777295589 0.21805554628372192
0.94225895404815674 0.027267156168818474 0.23909313976764679
0.044301468878984451 0.088235296308994293 0.18541666865348816
0 0.11053921282291412 0.19546568393707275
0 0.11239787191152573 0.1926470547914505
0 0.11225490272045135 0.18827612698078156
0.0020833334419876337 0.11041666567325592 0.18302695453166962
0.031311273574829102 0.11053921282291412 0.18388479948043823
0.078431375324726105 0.109620101749897 0.18351715803146362
0.12181372195482254 0.10641340166330338 0.17969772219657898
0.17401960492134094 0.10300245136022568 0.17677696049213409
0.21439951658248901 0.099244289100170135 0.16930146515369415
0.25772058963775635 0.090870097279548645 0.16703431308269501
0.30194035172462463 0.07916666567325592 0.17044524848461151
0.33719363808631897 0.068504899740219116 0.16580882668495178
0.37773695588111877 0.058496728539466858 0.15943627059459686
0.41409313678741455 0.045526959002017975 0.15508578717708588
0.45310455560684204 0.036315359175205231 0.15526960790157318
0.48131126165390015 0.026409313082695007 0.15120504796504974
0.52113968133926392 0.021568628028035164 0.1511642187833786
0.55986517667770386 0.01811683177947998 0.14895834028720856
0.5984681248664856 0.017953431233763695 0.15692402422428131
0.62883991003036499 0.016768790781497955 0.16186682879924774
0.67113971710205078 0.016789216548204422 0.16580882668495178
0.70878267288208008 0.011499182321131229 0.16950573027133942
0.74356615543365479 0.01274509821087122 0.17745098471641541
0.78455883264541626 0.011233660392463207 0.18339461088180542
0.81642156839370728 0.0099264709278941154 0.1819852888584137
0.8533700704574585 0.010743464343249798 0.1858864426612854
0.88498777151107788 0.010784314014017582 0.19166666269302368
0.924468994140625 0.009763072244822979 0.19805963337421417
0.96006947755813599 0.010620915330946445 0.20569853484630585
0.97254902124404907 0.012928921729326248 0.21047794818878174
0.93572306632995605 0.033210784196853638 0.23008579015731812
0.037581697106361389 0.11636029183864594 0.20420750975608826
0 0.13570261001586914 0.21493056416511536
0 0.13709151744842529 0.20981752872467041
0 0.13798339664936066 0.2061614990234375
0.0026348039973527193 0.13574346899986267 0.19934640824794769
0.034068629145622253 0.13710512220859528 0.19788944721221924
0.08272058516740799 0.13805146515369415 0.19899918138980865
0.12794117629528046 0.13751360774040222 0.19161219894886017
0.18243463337421417 0.13406862318515778 0.18760211765766144
0.22342047095298767 0.12876497209072113 0.17860157787799835
0.27062910795211792 0.1232026144862175 0.17559230327606201
0.31641474366188049 0.11246596276760101 0.1726851761341095
0.35226714611053467 0.1042279377579689 0.16729983687400818
0.39232704043388367 0.093933820724487305 0.16096813976764679
0.42638891935348511 0.077593952417373657 0.15725082159042358
0.4625476598739624 0.064876094460487366 0.1542007178068161
0.49047523736953735 0.052069719880819321 0.14556780457496643
0.52969765663146973 0.042973857372999191 0.14499592781066895
0.56738829612731934 0.036968953907489777 0.14683416485786438
0.60400325059890747 0.034803923219442368 0.15089869499206543
0.63389164209365845 0.031304467469453812 0.15298883616924286
0.6733660101890564 0.026797384023666382 0.1580473929643631
0.71035540103912354 0.020356753841042519 0.16112472116947174
0.73937910795211792 0.018811274319887161 0.16382759809494019
0.77973860502243042 0.016407951712608337 0.17050653696060181
0.81519609689712524 0.014440358616411686 0.17267157137393951
0.85208332538604736 0.014903322793543339 0.17967048287391663
0.8831903338432312 0.015870098024606705 0.18580475449562073
0.92218136787414551 0.014678649604320526 0.18792891502380371
0.95606619119644165 0.014276960864663124 0.19291938841342926
0.96687096357345581 0.015788400545716286 0.20122548937797546
0.93966501951217651 0.032414216548204422 0.21936275064945221
0.046078432351350784 0.15091912448406219 0.22156862914562225
0 0.17475490272045135 0.23492647707462311
0 0.17745098471641541 0.23331290483474731
0 0.17883987724781036 0.22845180332660675
0.0022671569604426622 0.1768382340669632 0.22015930712223053
0.031495098024606705 0.17843137681484222 0.21917891502380371
0.080024510622024536 0.17800244688987732 0.21752451360225677
0.12657271325588226 0.17990195751190186 0.20714870095252991
0.18541666865348816 0.17751225829124451 0.20202206075191498
0.23292483389377594 0.17130310833454132 0.19452615082263947
0.28370097279548645 0.16599264740943909 0.18811275064945221
0.32865607738494873 0.15904821455478668 0.1821078360080719
0.36703431606292725 0.15202206373214722 0.1770220547914505
0.40931373834609985 0.14342319965362549 0.17146651446819305
0.44650736451148987 0.1353553980588913 0.16979166865348816
0.48439541459083557 0.1250612735748291 0.16550244390964508
0.51830059289932251 0.11437908560037613 0.15782271325588226
0.55508577823638916 0.10300245136022568 0.15379901230335236
0.58504903316497803 0.094015516340732574 0.15230801701545715
0.61844360828399658 0.082475490868091583 0.15042892098426819
0.64460784196853638 0.069035947322845459 0.14662989974021912
0.67493873834609985 0.054473038762807846 0.1460171639919281
0.70598447322845459 0.039011433720588684 0.14323936402797699
0.73388481140136719 0.030269607901573181 0.14117647707462311
0.773182213306427 0.025939542800188065 0.14797794818878174
0.80508577823638916 0.024387255311012268 0.15428921580314636
0.84375 0.023590685799717903 0.1617034375667572
0.87751227617263794 0.022303922101855278 0.16727940738201141
0.91601306200027466 0.021221404895186424 0.17234477400779724
0.94781458377838135 0.021691177040338516 0.18000409007072449
0.9590073823928833 0.023713234812021255 0.18811275064945221
0.91856616735458374 0.045465685427188873 0.21139705181121826
0.047242648899555206 0.1858864426612854 0.24358659982681274
0 0.21011029183864594 0.25888481736183167
0 0.21258170902729034 0.25573256611824036
0 0.21380037069320679 0.25036084651947021
0.0022263072896748781 0.21401144564151764 0.24301470816135406
0.027886709198355675 0.21544797718524933 0.2398965060710907
0.070588238537311554 0.21591095626354218 0.23860293626785278
0.12189541757106781 0.2173883467912674 0.22924837470054626
0.18609069287776947 0.21437907218933105 0.22365196049213409
0.2368532121181488 0.20880991220474243 0.21169660985469818
0.29019609093666077 0.20390112698078156 0.20620913803577423
0.33511030673980713 0.19901280105113983 0.19591502845287323
0.37787988781929016 0.19434231519699097 0.19154411554336548
0.42237880825996399 0.18683278560638428 0.1845860481262207
0.46109068393707275 0.18169935047626495 0.18137255311012268
0.50199484825134277 0.17210648953914642 0.17630718648433685
0.53717321157455444 0.1634463369846344 0.16815087199211121
0.57424426078796387 0.15173611044883728 0.16296978294849396
0.60672652721405029 0.14083604514598846 0.1618940532207489
0.63674432039260864 0.12816585600376129 0.15614786744117737
0.65944308042526245 0.11356208473443985 0.14748091995716095
0.68609070777893066 0.094669118523597717 0.14454656839370728
0.71433138847351074 0.076776951551437378 0.14008714258670807
0.73741823434829712 0.062969774007797241 0.13198529183864594
0.77691316604614258 0.05722358450293541 0.13854166865348816
0.80788391828536987 0.055943626910448074 0.14569035172462463
0.8449823260307312 0.053206700831651688 0.14974129199981689
0.87767559289932251 0.051205065101385117 0.15416666865348816
0.91280639171600342 0.050040852278470993 0.15910947322845459
0.94377720355987549 0.050428923219442368 0.16754494607448578
0.95449346303939819 0.052267156541347504 0.17685866355895996
0.92107844352722168 0.069730393588542938 0.20030637085437775
0.037254903465509415 0.23627451062202454 0.275919109582901
0.00036764706601388752 0.25428920984268188 0.28872549533843994
0.00063316995510831475 0.2592320442199707 0.28843951225280762
0.00075571896741166711 0.26031455397605896 0.28327205777168274
0.0072916666977107525 0.25667890906333923 0.2710784375667572
0.033435456454753876 0.25743463635444641 0.26535949110984802
0.072916664183139801 0.25631126761436462 0.25986519455909729
0.1267973929643631 0.25770014524459839 0.24744690954685211
0.19215686619281769 0.25692403316497803 0.24185049533843994
0.24268791079521179 0.25459557771682739 0.23165850341320038
0.2966911792755127 0.25386029481887817 0.22745098173618317
0.34566992521286011 0.24946896731853485 0.21981209516525269
0.38841912150382996 0.2447916716337204 0.21231617033481598
0.43462011218070984 0.23743872344493866 0.2050449401140213
0.47549018263816833 0.23045343160629272 0.2032475471496582
0.51774919033050537 0.22107842564582825 0.19942809641361237
0.55612742900848389 0.21390931308269501 0.19240196049213409
0.59767156839370728 0.20422793924808502 0.18854166567325592
0.63102531433105469 0.19507759809494019 0.18909314274787903
0.66427695751190186 0.18596813082695007 0.18321079015731812
0.69152367115020752 0.17308005690574646 0.17659313976764679
0.72254902124404907 0.15931372344493866 0.1768995076417923
0.75461602210998535 0.14556780457496643 0.17303921282291412
0.78063726425170898 0.13621322810649872 0.16697303950786591
0.81603348255157471 0.12890113890171051 0.16834151744842529
0.84203433990478516 0.12352941185235977 0.16948530077934265
0.87581700086593628 0.11834150552749634 0.16917891800403595
0.90355390310287476 0.11427696049213409 0.16862745583057404
0.93888884782791138 0.11119281500577927 0.1719362735748291
0.96723854541778564 0.11004901677370071 0.17853347957134247
0.97555148601531982 0.11078431457281113 0.18615196645259857
0.93406862020492554 0.13210783898830414 0.21145834028720856
0.051919937133789062 0.27500000596046448 0.29133984446525574
0.0019607844296842813 0.29926469922065735 0.31031456589698792
0.0023760893382132053 0.30117785930633545 0.30575299263000488
0.0017837689956650138 0.30363559722900391 0.30198800563812256
0.0050857844762504101 0.30167484283447266 0.29444441199302673
0.025177014991641045 0.2991625964641571 0.2865196168422699
0.060641340911388397 0.29609882831573486 0.27665442228317261
0.11443354934453964 0.29720860719680786 0.2655637264251709
0.1857638955116272 0.29920342564582825 0.26186683773994446
0.24413128197193146 0.29692944884300232 0.2547726035118103
0.3020833432674408 0.2956291139125824 0.24857024848461151
0.34997278451919556 0.29436957836151123 0.23453159630298615
0.39507764577865601 0.29093137383460999 0.22853349149227142
0.44209557771682739 0.28447714447975159 0.21915850043296814
0.47990196943283081 0.27916666865348816 0.21229574084281921
0.5227123498916626 0.27080610394477844 0.20460239052772522
0.56390249729156494 0.26337149739265442 0.19534994661808014
0.60535132884979248 0.25547385215759277 0.19021649658679962
0.6383170485496521 0.24907407164573669 0.19170752167701721
0.67622548341751099 0.23948122560977936 0.1894812136888504
0.70824480056762695 0.22992920875549316 0.18561410903930664
0.74119687080383301 0.21723857522010803 0.18862336874008179
0.77766883373260498 0.20656998455524445 0.18870505690574646
0.80729168653488159 0.19801878929138184 0.18300652503967285
0.8410947322845459 0.18786083161830902 0.18151551485061646
0.86629903316497803 0.18082107603549957 0.18363970518112183
0.89829111099243164 0.17493189871311188 0.18233932554721832
0.92669522762298584 0.16952612996101379 0.18045343458652496
0.95912307500839233 0.16525734961032867 0.18180146813392639
0.98479026556015015 0.16311274468898773 0.1885552853345871
0.99219769239425659 0.16531862318515778 0.1992238461971283
0.94785541296005249 0.18596813082695007 0.22896242141723633
0.040870096534490585 0.33063724637031555 0.32408088445663452
0.0020220589358359575 0.34944853186607361 0.33939951658248901
0.0020424835383892059 0.35275736451148987 0.33584558963775635
0.0016544116660952568 0.35390117764472961 0.33108657598495483
0.0046568629331886768 0.35177695751190186 0.32205882668495178
0.017258988693356514 0.34887662529945374 0.3123774528503418
0.04221813753247261 0.34417891502380371 0.30116420984268188
0.10208333283662796 0.34609884023666382 0.29250407218933105
0.17904411256313324 0.34736520051956177 0.28933823108673096
0.23956289887428284 0.34497550129890442 0.2790849506855011
0.29810050129890442 0.34509804844856262 0.27273285388946533
0.35018381476402283 0.34707921743392944 0.26062089204788208
0.39810049533843994 0.34546568989753723 0.25208333134651184
0.44844770431518555 0.34062498807907104 0.24203431606292725
0.48774510622024536 0.3335171639919281 0.22984068095684052
0.53043299913406372 0.32585784792900085 0.2209150493144989
0.57199752330780029 0.31987333297729492 0.21072304248809814
0.61305147409439087 0.30974265933036804 0.20275735855102539
0.64520019292831421 0.30292075872421265 0.19873365759849548
0.6824755072593689 0.29473039507865906 0.19105392694473267
0.71417486667633057 0.28762254118919373 0.18417075276374817
0.75110292434692383 0.27916666865348816 0.18553921580314636
0.78774511814117432 0.27032274007797241 0.18604983389377594
0.8172793984413147 0.26317402720451355 0.17984068393707275
0.85255306959152222 0.2543300986289978 0.17704249918460846
0.87561273574829102 0.24957108497619629 0.17867647111415863
0.90929329395294189 0.24374999105930328 0.17665441334247589
0.93988972902297974 0.23915441334247589 0.17420342564582825
0.97162991762161255 0.23662172257900238 0.17926877737045288
0.99491423368453979 0.2344362735748291 0.18672385811805725
0.99950981140136719 0.23633578419685364 0.19479165971279144
0.96464461088180542 0.25189951062202454 0.22034314274787903
0.051102939993143082 0.37902370095252991 0.33986926078796387
0.0016952614532783628 0.4014706015586853 0.36386844515800476
0.0030909585766494274 0.40398967266082764 0.36056643724441528
0.0023897059727460146 0.40552154183387756 0.35790440440177917
0.0020424837712198496 0.40343138575553894 0.35124590992927551
0.0082175927236676216 0.4014161229133606 0.33992373943328857
0.027696078643202782 0.39632353186607361 0.3245302140712738
0.093436822295188904 0.39649373292922974 0.3215482234954834
0.16991421580314636 0.39775323867797852 0.31893381476402283
0.23116150498390198 0.39857706427574158 0.30915030837059021
0.29019609093666077 0.39816176891326904 0.29985705018043518
0.34413129091262817 0.39968681335449219 0.28845316171646118
0.39468955993652344 0.39916256070137024 0.27988156676292419
0.44758984446525574 0.39468955993652344 0.26888614892959595
0.48927697539329529 0.38995099067687988 0.25492238998413086
0.53423881530761719 0.38380312919616699 0.24324619770050049
0.57301878929138184 0.37555146217346191 0.22602805495262146
0.61456286907196045 0.36736109852790833 0.21572713553905487
0.64669120311737061 0.35878947377204895 0.20909585058689117
0.68396651744842529 0.35106205940246582 0.19987745583057404
0.71747004985809326 0.34394064545631409 0.18943355977535248
0.75126636028289795 0.33839869499206543 0.18368054926395416
0.78831702470779419 0.33262526988983154 0.17891475558280945
0.81772875785827637 0.32908496260643005 0.17101715505123138
0.85221272706985474 0.32210648059844971 0.16599944233894348
0.8797793984413147 0.31652367115020752 0.16781045496463776
0.9125068187713623 0.31305146217346191 0.1621391624212265
0.94150322675704956 0.31019195914268494 0.15696486830711365
0.97159594297409058 0.3072916567325592 0.16146513819694519
0.99530917406082153 0.30544659495353699 0.17011848092079163
0.99961191415786743 0.30641341209411621 0.17937092483043671
0.9530637264251709 0.32457107305526733 0.21203023195266724
0.050306372344493866 0.41917893290519714 0.35900735855102539
0.0022671569604426622 0.44362744688987732 0.3858456015586853
0.003451797179877758 0.44569036364555359 0.38331291079521179
0.0041666668839752674 0.44865196943283081 0.38282272219657898
0.0049632354639470577 0.45024511218070984 0.38069853186607361
0.01006944477558136 0.4463030993938446 0.36770832538604736
0.028186274692416191 0.4422181248664856 0.35349264740943909
0.090706691145896912 0.44252452254295349 0.34785538911819458
0.16917891800403595 0.44454658031463623 0.34681373834609985
0.23065768182277679 0.44209557771682739 0.33664214611053467
0.29001224040985107 0.44056373834609985 0.32837009429931641
0.34056371450424194 0.44262665510177612 0.31123363971710205
0.39087009429931641 0.44215685129165649 0.3021446168422699
0.44526144862174988 0.43931779265403748 0.2904820442199707
0.49099263548851013 0.43872550129890442 0.27628675103187561
0.5386233925819397 0.4335988461971283 0.26482844352722168
0.57785946130752563 0.4231821596622467 0.24489377439022064
