snapseed-lut/snapseed-film-x05.cube
# Created by: G'MIC (https://gmic.eu)
TITLE "snapseed-film-x05"
# LUT size
LUT_3D_SIZE 32
# Data domain
DOMAIN_MIN 0.0 0.0 0.0
DOMAIN_MAX 1.0 1.0 1.0
# LUT data points
0.15808823704719543 0.19178920984268188 0.10575980693101883
0.14803922176361084 0.19644607603549957 0.12120097875595093
0.15594363212585449 0.19603759050369263 0.11732026189565659
0.16386845707893372 0.19922386109828949 0.11247957497835159
0.17144608497619629 0.20110294222831726 0.109375
0.1891135573387146 0.2033088207244873 0.10618872195482254
0.21109068393707275 0.20876225829124451 0.10214460641145706
0.23149509727954865 0.21345995366573334 0.097814545035362244
0.26323530077934265 0.22015930712223053 0.094914212822914124
0.2877655029296875 0.22647058963775635 0.087050653994083405
0.32549020648002625 0.23167891800403595 0.083026960492134094
0.37071079015731812 0.23927696049213409 0.078962422907352448
0.40729168057441711 0.25122550129890442 0.079963237047195435
0.44683414697647095 0.26166260242462158 0.075776144862174988
0.47861519455909729 0.27218136191368103 0.070343136787414551
0.51266342401504517 0.28157678246498108 0.066339865326881409
0.54393380880355835 0.29109475016593933 0.058006532490253448
0.5732843279838562 0.29908087849617004 0.051899511367082596
0.59417891502380371 0.30665850639343262 0.042177289724349976
0.61568629741668701 0.31476715207099915 0.037071079015731812
0.63167893886566162 0.32252857089042664 0.035294119268655777
0.64638477563858032 0.32867646217346191 0.034681372344493866
0.655739426612854 0.33157676458358765 0.032822709530591965
0.65937501192092896 0.33229166269302368 0.027818627655506134
0.66027367115020752 0.33398693799972534 0.025081699714064598
0.661213219165802 0.33547794818878174 0.024019608274102211
0.66401141881942749 0.33760213851928711 0.026511440053582191
0.66482841968536377 0.33743873238563538 0.026776960119605064
0.66468542814254761 0.33747959136962891 0.026960784569382668
0.66423612833023071 0.33764296770095825 0.026919933035969734
0.66458332538604736 0.33786764740943909 0.027205882593989372
0.64644604921340942 0.34338235855102539 0.047794118523597717
0.16305147111415863 0.19050244987010956 0.10000000149011612
0.14687499403953552 0.19564950466156006 0.11930146813392639
0.15367646515369415 0.19483251869678497 0.11488970369100571
0.16252042353153229 0.19887661933898926 0.11182598024606705
0.16887255012989044 0.20079657435417175 0.10765931010246277
0.18619279563426971 0.20402368903160095 0.10463644564151764
0.20716911554336548 0.20906862616539001 0.10085784643888474
0.2305963933467865 0.21307191252708435 0.098754085600376129
0.26053920388221741 0.21979166567325592 0.094852939248085022
0.28778597712516785 0.22628676891326904 0.086968950927257538
0.32408088445663452 0.23321078717708588 0.083394609391689301
0.36732026934623718 0.24332107603549957 0.075306370854377747
0.40496322512626648 0.25508579611778259 0.07555147260427475
0.44464871287345886 0.26566585898399353 0.073100492358207703
0.47732841968536377 0.27248775959014893 0.070159316062927246
0.5128471851348877 0.28133168816566467 0.066789217293262482
0.54397469758987427 0.2921568751335144 0.057271238416433334
0.57199752330780029 0.30055147409439087 0.050857841968536377
0.59060454368591309 0.30694445967674255 0.043014705181121826
0.61335784196853638 0.31562501192092896 0.037867646664381027
0.63012665510177612 0.32265117764472961 0.033374182879924774
0.64160537719726562 0.33033087849617004 0.033517155796289444
0.65271651744842529 0.33294528722763062 0.031801469624042511
0.65863972902297974 0.33437499403953552 0.027634803205728531
0.66060048341751099 0.33551880717277527 0.025367647409439087
0.66176468133926392 0.33670341968536377 0.025061273947358131
0.66366422176361084 0.33725491166114807 0.026266342028975487
0.66452205181121826 0.33676469326019287 0.026470588520169258
0.66507351398468018 0.33703023195266724 0.025653593242168427
0.66458332538604736 0.33739784359931946 0.025245098397135735
0.66470587253570557 0.33737745881080627 0.025245098397135735
0.6465073823928833 0.34307599067687988 0.045159313827753067
0.16305147111415863 0.18568219244480133 0.10206291079521179
0.15306372940540314 0.19227941334247589 0.11907680332660675
0.15739378333091736 0.19068627059459686 0.11281998455524445
0.16676878929138184 0.19312363862991333 0.11066856980323792
0.1773284375667572 0.1965482085943222 0.10863970220088959
0.19287171959877014 0.19863834977149963 0.10582108050584793
0.21370507776737213 0.20351308584213257 0.10020425170660019
0.23545750975608826 0.2072780579328537 0.094846136868000031
0.26429739594459534 0.21343955397605896 0.089848853647708893
0.29500272870063782 0.22295071184635162 0.084960512816905975
0.33155637979507446 0.23051470518112183 0.085539214313030243
0.37862202525138855 0.24024373292922974 0.08082108199596405
0.41576799750328064 0.25114378333091736 0.080208331346511841
0.45497685670852661 0.26162856817245483 0.077233113348484039
0.48568218946456909 0.26746323704719543 0.070526957511901855
0.52217453718185425 0.27692672610282898 0.067224942147731781
0.55106890201568604 0.28717318177223206 0.057325705885887146
0.58257758617401123 0.29632353782653809 0.051572714000940323
0.60125952959060669 0.30445945262908936 0.04534994438290596
0.62502044439315796 0.31352126598358154 0.040482021868228912
0.63978755474090576 0.32144609093666077 0.036254081875085831
0.65357440710067749 0.32698118686676025 0.033843956887722015
0.66236382722854614 0.32947304844856262 0.031331699341535568
0.67120099067687988 0.33349674940109253 0.030126631259918213
0.67220866680145264 0.33402100205421448 0.026048475876450539
0.6742851734161377 0.3362540602684021 0.02659313753247261
0.67610293626785278 0.3367442786693573 0.026851851493120193
0.67790037393569946 0.33654001355171204 0.02749183215200901
0.67821347713470459 0.33712553977966309 0.027873093262314796
0.67760074138641357 0.3375476598739624 0.027900325134396553
0.67794120311737061 0.33762255311012268 0.028104577213525772
0.664317786693573 0.34178921580314636 0.043872550129890442
0.19787582755088806 0.16742239892482758 0.10098039358854294
0.18218955397605896 0.17308007180690765 0.12107843160629272
0.18958333134651184 0.17413535714149475 0.11860021948814392
0.19897876679897308 0.17653186619281769 0.11504629254341125
0.20696486532688141 0.18010622262954712 0.11219362914562225
0.22207926213741302 0.1823529452085495 0.11076389253139496
0.24219772219657898 0.1843341588973999 0.10563725233078003
0.26486930251121521 0.18988288938999176 0.10361519455909729
0.29571077227592468 0.19485294818878174 0.10106208920478821
0.32453703880310059 0.20524236559867859 0.09630991518497467
0.36213234066963196 0.21207107603549957 0.094383165240287781
0.41039624810218811 0.22203159332275391 0.09063180536031723
0.44714051485061646 0.23388479650020599 0.088848039507865906
0.48668304085731506 0.24365468323230743 0.086397059261798859
0.51997548341751099 0.25361520051956177 0.079473040997982025
0.55462956428527832 0.26210513710975647 0.072194986045360565
0.5852055549621582 0.27133035659790039 0.063820801675319672
0.61589056253433228 0.28082108497619629 0.057209968566894531
0.63921570777893066 0.28803786635398865 0.047943901270627975
0.66252040863037109 0.2969975471496582 0.043178103864192963
0.67751908302307129 0.30473172664642334 0.039215687662363052
0.692463219165802 0.31307190656661987 0.038235295563936234
0.70154547691345215 0.31730663776397705 0.035927288234233856
0.70933419466018677 0.31960785388946533 0.03437500074505806
0.71073669195175171 0.32126906514167786 0.031338505446910858
0.71090686321258545 0.32283496856689453 0.031331699341535568
0.71208471059799194 0.32344090938568115 0.031985294073820114
0.71323531866073608 0.3232843279838562 0.031781047582626343
0.71226173639297485 0.32355663180351257 0.031236382201313972
0.71119958162307739 0.3240332305431366 0.030964052304625511
0.71139705181121826 0.32393789291381836 0.031045753508806229
0.69346410036087036 0.32914623618125916 0.051776960492134094
0.19454656541347504 0.16997548937797546 0.098100490868091583
0.17898283898830414 0.17598038911819458 0.12052696198225021
0.1858251690864563 0.17681780457496643 0.11756535619497299
0.19458742439746857 0.18041257560253143 0.11468546092510223
0.20594362914562225 0.18523284792900085 0.11525735259056091
0.21966911852359772 0.18733660876750946 0.11323529481887817
0.23995098471641541 0.19031862914562225 0.1093137264251709
0.26207107305526733 0.19346405565738678 0.10631127655506134
0.28897058963775635 0.19969362020492554 0.10238970816135406
0.31952616572380066 0.20723038911819458 0.09756944328546524
0.35551470518112183 0.21458333730697632 0.094607844948768616
0.4025326669216156 0.22171160578727722 0.083415023982524872
0.43835783004760742 0.23296569287776947 0.081862747669219971
0.47857436537742615 0.24234068393707275 0.07924836128950119
0.51446080207824707 0.25428920984268188 0.077022060751914978
0.55200159549713135 0.2645016610622406 0.07289624959230423
0.58312904834747314 0.27569442987442017 0.063521243631839752
0.61378675699234009 0.28615197539329529 0.058762256056070328
0.63515114784240723 0.29616010189056396 0.051817812025547028
0.66158086061477661 0.30545341968536377 0.047365196049213409
0.67804324626922607 0.31419527530670166 0.044362746179103851
0.69148284196853638 0.32395833730697632 0.044730391353368759
0.70161354541778564 0.32767567038536072 0.040604572743177414
0.71121323108673096 0.33155637979507446 0.040134802460670471
0.71237742900848389 0.33143383264541626 0.036907680332660675
0.71323531866073608 0.33321079611778259 0.036090686917304993
0.71399104595184326 0.33294528722763062 0.036254085600376129
0.71629899740219116 0.33198529481887817 0.036397058516740799
0.71666663885116577 0.33253675699234009 0.036683004349470139
0.71609479188919067 0.33278185129165649 0.036437910050153732
0.71593135595321655 0.33247548341751099 0.036274511367082596
0.69767159223556519 0.3382965624332428 0.057046569883823395
0.18925651907920837 0.17252859473228455 0.10430963337421417
0.17724671959877014 0.17904411256313324 0.12361110746860504
0.18518517911434174 0.17926198244094849 0.12159585207700729
0.1924632340669632 0.18182869255542755 0.11821895092725754
0.20537173748016357 0.18590685725212097 0.11648284643888474
0.2197984904050827 0.18832379579544067 0.11422929912805557
0.23839870095252991 0.19082924723625183 0.10861928761005402
0.26112473011016846 0.19681373238563538 0.1064610555768013
0.2903594970703125 0.20210376381874084 0.10351306945085526
0.316721111536026 0.20861248672008514 0.096058011054992676
0.35273692011833191 0.2164624035358429 0.094893790781497955
0.39488017559051514 0.22431236505508423 0.087506808340549469
0.43114784359931946 0.23498775064945221 0.085477940738201141
0.47066992521286011 0.24641884863376617 0.082196354866027832
0.5074346661567688 0.25808823108673096 0.07916666567325592
0.54686820507049561 0.27009803056716919 0.076075710356235504
0.57767570018768311 0.28093001246452332 0.066850490868091583
0.61154007911682129 0.29264706373214722 0.063214875757694244
0.6347426176071167 0.30356752872467041 0.056215960532426834
0.66090685129165649 0.31360295414924622 0.052900325506925583
0.67779815196990967 0.32355663180351257 0.049550652503967285
0.69483250379562378 0.33274099230766296 0.049325980246067047
0.70347219705581665 0.33663532137870789 0.046037584543228149
0.71172386407852173 0.34076794981956482 0.04424019530415535
0.71349406242370605 0.34251090884208679 0.042483661323785782
0.71499186754226685 0.34313726425170898 0.041523691266775131
0.71636027097702026 0.342633455991745 0.041312634944915771
0.71697306632995605 0.3415849506855011 0.040931373834609985
0.71661221981048584 0.34162580966949463 0.041149236261844635
0.71557736396789551 0.34210240840911865 0.04102669283747673
0.71568626165390015 0.34199348092079163 0.041094772517681122
0.70204252004623413 0.3458537757396698 0.057066995650529861
0.18921568989753723 0.17101715505123138 0.10030636936426163
0.17291666567325592 0.17598038911819458 0.12064950913190842
0.18190358579158783 0.17802289128303528 0.11993464082479477
0.19001226127147675 0.18227122724056244 0.11746323853731155
0.19889706373214722 0.18602940440177917 0.11397058516740799
0.21644200384616852 0.1908496618270874 0.11488970369100571
0.23541666567325592 0.19381126761436462 0.11109068989753723
0.25396242737770081 0.20046976208686829 0.11113154143095016
0.2810661792755127 0.20674020051956177 0.10894607752561569
0.30857843160629272 0.21493054926395416 0.10261437296867371
0.34485295414924622 0.22187499701976776 0.10073529183864594
0.38635620474815369 0.22890114784240723 0.093647874891757965
0.42113971710205078 0.23884804546833038 0.08915441483259201
0.46170341968536377 0.25073528289794922 0.087418295443058014
0.49797794222831726 0.26121324300765991 0.080269604921340942
0.53611111640930176 0.2747957706451416 0.077757351100444794
0.57038402557373047 0.28682598471641541 0.070118457078933716
0.60606616735458374 0.29975488781929016 0.068933822214603424
0.63221001625061035 0.31427696347236633 0.064276963472366333
0.66004902124404907 0.32751226425170898 0.063112743198871613
0.67967730760574341 0.3383578360080719 0.059395425021648407
0.69644606113433838 0.34840685129165649 0.058823529630899429
0.70861929655075073 0.35320672392845154 0.054758984595537186
0.71642154455184937 0.35661765933036804 0.05367647111415863
0.71864789724349976 0.36023283004760742 0.053921569138765335
0.71825981140136719 0.36213234066963196 0.05263480544090271
0.71954655647277832 0.36288803815841675 0.053247548639774323
0.72058820724487305 0.36250001192092896 0.053186275064945221
0.71997547149658203 0.36217322945594788 0.052389707416296005
0.71952611207962036 0.36233657598495483 0.051736108958721161
0.71960783004760742 0.36225488781929016 0.051838234066963196
0.70202207565307617 0.36703431606292725 0.072794117033481598
0.1858251541852951 0.1734272837638855 0.10157271474599838
0.17105799913406372 0.17949347198009491 0.12461192160844803
0.17759394645690918 0.18113425374031067 0.12336601316928864
0.18560048937797546 0.18307462334632874 0.11943763494491577
0.19534313678741455 0.18727533519268036 0.11703431606292725
0.21230937540531158 0.19182325899600983 0.11642156541347504
0.23129086196422577 0.19620098173618317 0.11405228823423386
0.24990467727184296 0.20332925021648407 0.11307189613580704
0.27614378929138184 0.21031454205513 0.1094362735748291
0.3058006763458252 0.21871595084667206 0.10343817621469498
0.33960375189781189 0.22618463635444641 0.10312499850988388
0.38013345003128052 0.23523284494876862 0.094621464610099792
0.41466501355171204 0.24409723281860352 0.09168708324432373
0.4555419385433197 0.25703296065330505 0.089828431606292725
0.49142158031463623 0.26930147409439087 0.08429330587387085
0.53155636787414551 0.28200572729110718 0.080215141177177429
0.56533908843994141 0.29714733362197876 0.072392426431179047
0.60241013765335083 0.30978351831436157 0.072181373834609985
0.6309436559677124 0.3238561749458313 0.068103216588497162
0.66008991003036499 0.33774510025978088 0.06713644415140152
0.67947304248809814 0.34929874539375305 0.065447986125946045
0.69589459896087646 0.36113154888153076 0.064603760838508606
0.70752996206283569 0.36652371287345886 0.061213236302137375
0.71766752004623413 0.37054735422134399 0.060927286744117737
0.72069716453552246 0.37298476696014404 0.060845587402582169
0.72226309776306152 0.37683823704719543 0.060988560318946838
0.72407406568527222 0.37670207023620605 0.060797929763793945
0.72508174180984497 0.37581697106361389 0.0607026107609272
0.72542208433151245 0.37525191903114319 0.060334969311952591
0.72519063949584961 0.37553784251213074 0.059967320412397385
0.7250816822052002 0.37528592348098755 0.059967316687107086
0.71011030673980713 0.37914621829986572 0.077900320291519165
0.17830882966518402 0.17996323108673096 0.10980392247438431
0.16776961088180542 0.18370097875595093 0.12579657137393951
0.17448936402797699 0.18437500298023224 0.12354984134435654
0.18151552975177765 0.18823529779911041 0.12046568840742111
0.19062499701976776 0.19123774766921997 0.11801470816135406
0.20745505392551422 0.19667075574398041 0.11776960641145706
0.22634804248809814 0.20110294222831726 0.11366421729326248
0.24603758752346039 0.2083333283662796 0.11384803801774979
0.27610293030738831 0.21409313380718231 0.11207108199596405
0.30120506882667542 0.22463235259056091 0.10537172853946686
0.33756127953529358 0.23290440440177917 0.10526961088180542
0.37279412150382996 0.24391339719295502 0.097344778478145599
0.40790441632270813 0.25318628549575806 0.093504898250102997
0.44926470518112183 0.26644197106361389 0.091830067336559296
0.48786765336990356 0.27892157435417175 0.087561272084712982
0.5295751690864563 0.29297387599945068 0.084987744688987732
0.56495100259780884 0.30755719542503357 0.08231208473443985
0.60361522436141968 0.32248774170875549 0.08223038911819458
0.63131129741668701 0.33600899577140808 0.075776152312755585
0.65931373834609985 0.35073530673980713 0.074448525905609131
0.67953431606292725 0.36168304085731506 0.075408503413200378
0.69950979948043823 0.37291666865348816 0.073223039507865906
0.71315360069274902 0.37969774007797241 0.072303920984268188
0.72279411554336548 0.38498774170875549 0.072487741708755493
0.72655230760574341 0.38837829232215881 0.073447711765766144
0.73106616735458374 0.39111518859863281 0.074142158031463623
0.73210781812667847 0.39093136787414551 0.074040032923221588
0.73339462280273438 0.39087009429931641 0.074325978755950928
0.73355793952941895 0.39136028289794922 0.074142158031463623
0.73286360502243042 0.39164623618125916 0.072998367249965668
0.73296570777893066 0.39154410362243652 0.073284313082695007
0.71501225233078003 0.39626225829124451 0.094730392098426819
0.17918708920478821 0.18400734663009644 0.10563725233078003
0.16540034115314484 0.1906658411026001 0.12806372344493866
0.17248775064945221 0.1910334974527359 0.125742107629776
0.17985430359840393 0.19403594732284546 0.12312772125005722
0.1874387264251709 0.19748774170875549 0.12044526636600494
0.20440496504306793 0.20283906161785126 0.1202273964881897
0.22446896135807037 0.20780229568481445 0.11693219095468521
0.2416871041059494 0.21535946428775787 0.11786492913961411
0.26889297366142273 0.22357025742530823 0.1165032684803009
0.29686135053634644 0.2325163334608078 0.11166257411241531
0.33171975612640381 0.24236111342906952 0.11094771325588226
0.36981210112571716 0.25221949815750122 0.10458878427743912
0.40332922339439392 0.26143792271614075 0.10104166716337204
0.44520696997642517 0.2743736207485199 0.099530234932899475
0.48335376381874084 0.28854167461395264 0.093239374458789825
0.52685868740081787 0.3046228289604187 0.092415571212768555
0.56333738565444946 0.32077887654304504 0.088657408952713013
0.60153186321258545 0.3369280993938446 0.090032674372196198
0.6298406720161438 0.34953704476356506 0.083864375948905945
0.66137665510177612 0.36384803056716919 0.082189545035362244
0.68041938543319702 0.37448939681053162 0.081569984555244446
0.6997753381729126 0.38790848851203918 0.081249997019767761
0.71418845653533936 0.39448529481887817 0.079507090151309967
0.72491824626922607 0.39950981736183167 0.08118872344493866
0.72906452417373657 0.40308412909507751 0.081079788506031036
0.73133170604705811 0.40600490570068359 0.080555558204650879
0.73205339908599854 0.40584149956703186 0.080467045307159424
0.73353755474090576 0.40482029318809509 0.080290026962757111
0.73382353782653809 0.40486791729927063 0.080405771732330322
0.73330610990524292 0.40545344352722168 0.079684093594551086
0.73325157165527344 0.4051879346370697 0.079820267856121063
0.71560454368591309 0.41000816226005554 0.10159313678741455
0.17432598769664764 0.18933823704719543 0.11666666716337204
0.16249999403953552 0.19368872046470642 0.13314950466156006
0.16850490868091583 0.19546568393707275 0.13192401826381683
0.17792075872421265 0.19846813380718231 0.1300245076417923
0.18805147707462311 0.20275735855102539 0.12794117629528046
0.20379902422428131 0.20843544602394104 0.12606208026409149
0.22555147111415863 0.21458333730697632 0.1250612735748291
0.24029819667339325 0.22475489974021912 0.12604166567325592
0.2654411792755127 0.2344975471496582 0.12426470220088959
0.29571077227592468 0.24364787340164185 0.12017973512411118
0.32879900932312012 0.25410538911819458 0.11911764740943909
0.36446079611778259 0.26617646217346191 0.11072304099798203
0.39810049533843994 0.27469363808631897 0.10735294222831726
0.43968546390533447 0.28954246640205383 0.10533088445663452
0.47812500596046448 0.30318626761436462 0.099693626165390015
0.52165031433105469 0.32036355137825012 0.099468953907489777
0.55898690223693848 0.33831697702407837 0.096078433096408844
0.60061275959014893 0.35294118523597717 0.098100490868091583
0.63073939085006714 0.36544117331504822 0.092830881476402283
0.6611519455909729 0.38106617331504822 0.091789215803146362
0.68206697702407837 0.39262661337852478 0.091789215803146362
0.70404410362243652 0.40453431010246277 0.09105391800403595
0.71734070777893066 0.41227534413337708 0.091870918869972229
0.72671568393707275 0.41611519455909729 0.09270833432674408
0.73100489377975464 0.4186478853225708 0.091482840478420258
0.73290443420410156 0.42083331942558289 0.090502448379993439
0.73474264144897461 0.42091503739356995 0.090298205614089966
0.73615193367004395 0.42015931010246277 0.090318627655506134
0.73737746477127075 0.41952615976333618 0.090808823704719543
0.73719364404678345 0.41926059126853943 0.090461604297161102
0.73750001192092896 0.41936275362968445 0.090931370854377747
0.72457104921340942 0.42291668057441711 0.10710784047842026
0.17283496260643005 0.19742646813392639 0.11435865610837936
0.15749593079090118 0.20265524089336395 0.13633579015731812
0.16539351642131805 0.20429602265357971 0.13468818366527557
0.17510212957859039 0.20850354433059692 0.13289760053157806
0.18478348851203918 0.21370504796504974 0.13161765038967133
0.20110294222831726 0.21925380825996399 0.13159042596817017
0.22093546390533447 0.22645016014575958 0.1286560446023941
0.24049563705921173 0.23695534467697144 0.13114787638187408
0.26750409603118896 0.24626225233078003 0.13116830587387085
0.29496186971664429 0.25748232007026672 0.12681782245635986
0.32814544439315796 0.26832106709480286 0.1266748309135437
0.36322847008705139 0.2821827232837677 0.12031590938568115
0.39695671200752258 0.29138070344924927 0.11582925170660019
0.43812638521194458 0.30659723281860352 0.11356890201568604
0.47843137383460999 0.31989377737045288 0.10843545198440552
0.52348178625106812 0.33511030673980713 0.10998094081878662
0.56206423044204712 0.35302287340164185 0.11066176742315292
0.60310453176498413 0.37054735422134399 0.11113154143095016
0.63264566659927368 0.38264569640159607 0.10495642572641373
0.66350084543228149 0.39748775959014893 0.10580065846443176
0.68574345111846924 0.40969502925872803 0.10535129904747009
0.70863968133926392 0.42158907651901245 0.10241013020277023
0.72457790374755859 0.42899644374847412 0.10198121517896652
0.73410946130752563 0.43314951658248901 0.10212418437004089
0.73893654346466064 0.43548476696014404 0.10140931606292725
0.74272871017456055 0.43660131096839905 0.098692804574966431
0.74371600151062012 0.43613836169242859 0.098161764442920685
0.74440360069274902 0.43543708324432373 0.097303919494152069
0.74603080749511719 0.43466097116470337 0.097147330641746521
0.74606478214263916 0.43457242846488953 0.096364386379718781
0.74616008996963501 0.43455880880355835 0.09665033221244812
0.72871726751327515 0.43952205777168274 0.11887254565954208
0.17015931010246277 0.20398284494876862 0.11642156541347504
0.15600490570068359 0.21078431606292725 0.14001224935054779
0.16386845707893372 0.21380718052387238 0.13995097577571869
0.17248775064945221 0.21821895241737366 0.1370915025472641
0.18437500298023224 0.22303920984268188 0.13768382370471954
0.20232842862606049 0.22990195453166962 0.13750000298023224
0.22242647409439087 0.23707108199596405 0.1356617659330368
0.23984885215759277 0.24850897490978241 0.13680556416511536
0.26770833134651184 0.26004901528358459 0.13823530077934265
0.29677289724349976 0.2708333432674408 0.13302695751190186
0.32953432202339172 0.28302696347236633 0.13486519455909729
