snapseed-lut/snapseed-film-b04.cube
# Created by: G'MIC (https://gmic.eu)
TITLE "snapseed-film-b04"
# LUT size
LUT_3D_SIZE 32
# Data domain
DOMAIN_MIN 0.0 0.0 0.0
DOMAIN_MAX 1.0 1.0 1.0
# LUT data points
0.056862745434045792 0.14381127059459686 0.065502449870109558
0.035845588892698288 0.15484069287776947 0.076838232576847076
0.040053106844425201 0.15337009727954865 0.07708333432674408
0.049673199653625488 0.15735293924808502 0.081576794385910034
0.059313725680112839 0.15821078419685364 0.078431375324726105
0.07132352888584137 0.15763887763023376 0.078819446265697479
0.088602937757968903 0.15588235855102539 0.077389702200889587
0.11139705777168274 0.15600490570068359 0.080004088580608368
0.1407475471496582 0.15588235855102539 0.081985294818878174
0.17167074978351593 0.15968137979507446 0.083741828799247742
0.21213234961032867 0.16115196049213409 0.084803923964500427
0.25725078582763672 0.1636233776807785 0.086274512112140656
0.29981619119644165 0.16758579015731812 0.089705884456634521
0.35271650552749634 0.17107842862606049 0.094260625541210175
0.40281862020492554 0.17230391502380371 0.090931370854377747
0.45890524983406067 0.17267157137393951 0.092933006584644318
0.5109068751335144 0.17346814274787903 0.092442810535430908
0.56605392694473267 0.17499999701976776 0.098100490868091583
0.60900735855102539 0.17812499403953552 0.099142156541347504
0.65294116735458374 0.18137255311012268 0.10251225531101227
0.68459963798522949 0.18394607305526733 0.098917484283447266
0.7128063440322876 0.18792891502380371 0.10220587998628616
0.73343545198440552 0.19211602210998535 0.10510620474815369
0.75214463472366333 0.1924632340669632 0.10545343160629272
0.76638078689575195 0.19532270729541779 0.10702614486217499
0.77696079015731812 0.19883579015731812 0.10545343160629272
0.78762257099151611 0.19881534576416016 0.10535129904747009
0.79564952850341797 0.19926470518112183 0.10778186470270157
0.80573934316635132 0.20261436700820923 0.11139705777168274
0.81660538911819458 0.20674020051956177 0.11621731519699097
0.82622551918029785 0.20900735259056091 0.11758578568696976
0.80098038911819458 0.22598038613796234 0.13529412448406219
0.064460784196853638 0.1406862735748291 0.061029411852359772
0.037867646664381027 0.1563725471496582 0.075857840478420258
0.043423201888799667 0.15573938190937042 0.07708333432674408
0.050061274319887161 0.15796568989753723 0.077634803950786591
0.060049019753932953 0.15937499701976776 0.07708333432674408
0.073835782706737518 0.15802696347236633 0.077226303517818451
0.092279411852359772 0.15686275064945221 0.078799016773700714
0.11029411852359772 0.15939544141292572 0.079513885080814362
0.13688725233078003 0.15955881774425507 0.078921571373939514
0.16576796770095825 0.16249999403953552 0.079595588147640228
0.20723038911819458 0.16372549533843994 0.083088234066963196
0.25565767288208008 0.16687092185020447 0.085845589637756348
0.29736518859863281 0.16960784792900085 0.088112741708755493
0.35053107142448425 0.17295750975608826 0.093259803950786591
0.40042892098426819 0.17450980842113495 0.09068627655506134
0.45533087849617004 0.17591911554336548 0.092156864702701569
0.50794523954391479 0.17645014822483063 0.092606201767921448
0.56109070777893066 0.1771446019411087 0.098161764442920685
0.60455477237701416 0.18051470816135406 0.10022467374801636
0.64938724040985107 0.18382352590560913 0.10318627208471298
0.68388479948043823 0.1859477162361145 0.10067401826381683
0.71439951658248901 0.18927696347236633 0.10312499850988388
0.73543715476989746 0.19146241247653961 0.10322712361812592
0.75416666269302368 0.1929534375667572 0.10367646813392639
0.76825982332229614 0.19642564654350281 0.10657680034637451
0.77512252330780029 0.20085784792900085 0.10631127655506134
0.78564131259918213 0.20102123916149139 0.1077614426612854
0.79411762952804565 0.20183824002742767 0.1094362735748291
0.80622959136962891 0.20451387763023376 0.11188725382089615
0.81668710708618164 0.20784313976764679 0.11537989974021912
0.82598036527633667 0.21041665971279144 0.11844363063573837
0.80042892694473267 0.22665441036224365 0.1351102888584137
0.07236519455909729 0.13670343160629272 0.083231210708618164
0.052022058516740799 0.14783497154712677 0.094424016773700714
0.060205608606338501 0.14991828799247742 0.097242645919322968
0.066973038017749786 0.15035402774810791 0.097201794385910034
0.076286762952804565 0.14989788830280304 0.094832524657249451
0.089202076196670532 0.15036764740943909 0.096514157950878143
0.10878267139196396 0.1491830050945282 0.097671568393707275
0.12781862914562225 0.15032678842544556 0.098338782787322998
0.15592318773269653 0.15022467076778412 0.099407672882080078
0.18525326251983643 0.15347221493721008 0.09915577620267868
0.2274918258190155 0.15461602807044983 0.10277777165174484
0.2733796238899231 0.15793164074420929 0.10548066347837448
0.31505310535430908 0.1616421639919281 0.10794525593519211
0.36746323108673096 0.1643110066652298 0.1131604015827179
0.41495096683502197 0.16621731221675873 0.11047793924808502
0.4726579487323761 0.16823256015777588 0.11276552081108093
0.52574890851974487 0.16938997805118561 0.11177150905132294
0.57971811294555664 0.1700163334608078 0.11633986234664917
0.62418979406356812 0.1717524528503418 0.11698665469884872
0.66881126165390015 0.17393790185451508 0.11774918437004089
0.70055145025253296 0.17606888711452484 0.11533223837614059
0.731781005859375 0.178942009806633 0.1179330125451088
0.75279140472412109 0.18139298260211945 0.11905636638402939
0.77122145891189575 0.18251633644104004 0.1196691170334816
0.7845383882522583 0.18722085654735565 0.12175926566123962
0.79319852590560913 0.19064544141292572 0.12193627655506134
0.80452752113342285 0.19200026988983154 0.12348856031894684
0.81299018859863281 0.19209559261798859 0.12569443881511688
0.82303237915039062 0.19573122262954712 0.12898966670036316
0.83344221115112305 0.19987063109874725 0.1316380649805069
0.84511852264404297 0.20396243035793304 0.13468137383460999
0.82728755474090576 0.21729984879493713 0.14897876977920532
0.13255719840526581 0.10189951211214066 0.13617238402366638
0.10383987426757812 0.11734068393707275 0.15357436239719391
0.10914351791143417 0.11875680834054947 0.15575979650020599
0.11595179885625839 0.11924700438976288 0.15588915348052979
0.12399918586015701 0.11774918437004089 0.15191994607448578
0.13912037014961243 0.11950571835041046 0.1529003381729126
0.15886436402797699 0.11885213106870651 0.15437090396881104
0.18014025688171387 0.12037717550992966 0.15622957050800323
0.20749591290950775 0.12017973512411118 0.15682190656661987
0.23752723634243011 0.12198393791913986 0.15715549886226654
0.27798205614089966 0.12297794222831726 0.15782271325588226
0.32463234663009644 0.12367238104343414 0.15657681226730347
0.36762663722038269 0.12634803354740143 0.15933415293693542
0.42120099067687988 0.12972493469715118 0.16461737453937531
0.47387665510177612 0.13227124512195587 0.16223447024822235
0.53258436918258667 0.13303376734256744 0.16458334028720856
0.58843958377838135 0.13389162719249725 0.1657339334487915
0.64366823434829712 0.13443627953529358 0.16713644564151764
0.68658769130706787 0.13398011028766632 0.16651009023189545
0.73008579015731812 0.13578431308269501 0.16705474257469177
0.7627791166305542 0.13756127655506134 0.16329656541347504
0.79254496097564697 0.14046160876750946 0.16582924127578735
0.81392979621887207 0.14436274766921997 0.1667892187833786
0.83349674940109253 0.1456495076417923 0.16658496856689453
0.84718137979507446 0.15076933801174164 0.17017292976379395
0.85606616735458374 0.15547387301921844 0.17003676295280457
0.8666803240776062 0.15616150200366974 0.17272603511810303
0.87663394212722778 0.15676063299179077 0.17512254416942596
0.88586604595184326 0.16068220138549805 0.17574211955070496
0.89468276500701904 0.16454249620437622 0.17755989730358124
0.90810871124267578 0.16909721493721008 0.18282270431518555
0.88276141881942749 0.18660131096839905 0.20098039507865906
0.13308823108673096 0.11115196347236633 0.13670343160629272
0.1044117659330368 0.12708333134651184 0.15367646515369415
0.1108660101890564 0.12794117629528046 0.15539215505123138
0.11648284643888474 0.12810458242893219 0.15428921580314636
0.12567402422428131 0.12745098769664764 0.1512254923582077
0.13956291973590851 0.1281658411026001 0.15287990868091583
0.16096813976764679 0.12757353484630585 0.15698529779911041
0.17751225829124451 0.1284109354019165 0.15608660876750946
0.20484068989753723 0.12837009131908417 0.15484069287776947
0.23267975449562073 0.13122957944869995 0.15522876381874084
0.27530637383460999 0.13186274468898773 0.15857842564582825
0.32066994905471802 0.13284313678741455 0.15812908113002777
0.36305147409439087 0.13394607603549957 0.15900735557079315
0.41587010025978088 0.1356004923582077 0.16225489974021912
0.46825981140136719 0.13988970220088959 0.1613357812166214
0.52792072296142578 0.14148284494876862 0.16448122262954712
0.58114790916442871 0.14199347794055939 0.16350081562995911
0.63633579015731812 0.14166666567325592 0.16531862318515778
0.68143379688262939 0.14046160876750946 0.16676878929138184
0.72671568393707275 0.14270833134651184 0.1666666716337204
0.76294940710067749 0.14475083351135254 0.16576796770095825
0.79552698135375977 0.14810049533843994 0.16746322810649872
0.81597220897674561 0.15126635134220123 0.16683004796504974
0.83578431606292725 0.15281862020492554 0.16703431308269501
0.8470996618270874 0.15800651907920837 0.16938316822052002
0.85379904508590698 0.16439950466156006 0.17273284494876862
0.86548203229904175 0.1652982085943222 0.1753472238779068
0.87653183937072754 0.16746322810649872 0.17794117331504822
0.88688725233078003 0.16893382370471954 0.17759394645690918
0.89583331346511841 0.17254902422428131 0.17871733009815216
0.90655636787414551 0.1769607812166214 0.18216912448406219
0.88057595491409302 0.19417892396450043 0.20073530077934265
0.1302083283662796 0.12422385066747665 0.13986927270889282
0.10541258007287979 0.1372753381729126 0.1545751541852951
0.11233660578727722 0.13803786039352417 0.15669935941696167
0.11734068393707275 0.13700298964977264 0.15503811836242676
0.12626633048057556 0.13607026636600494 0.15263479948043823
0.14044798910617828 0.13789486885070801 0.15492238104343414
0.15872140228748322 0.1371527761220932 0.15604573488235474
0.17860837280750275 0.13742510974407196 0.15501768887042999
0.20490196347236633 0.13696897029876709 0.15430964529514313
0.23408906161785126 0.1393858939409256 0.15465685725212097
0.27412176132202148 0.13958333432674408 0.15729166567325592
0.31698662042617798 0.1415509432554245 0.15750953555107117
0.35753676295280457 0.14346404373645782 0.15974265336990356
0.41114515066146851 0.1451525092124939 0.16428378224372864
0.46333742141723633 0.14848856627941132 0.16392973065376282
0.5228690505027771 0.15118464827537537 0.16648964583873749
0.57589870691299438 0.1483728289604187 0.16403186321258545
0.63359886407852173 0.14877450466156006 0.1667892187833786
0.67908501625061035 0.1488698273897171 0.16734747588634491
0.72334557771682739 0.15102124214172363 0.16535948216915131
0.7578158974647522 0.15472495555877686 0.16638071835041046
0.79334151744842529 0.15702612698078156 0.16548201441764832
0.81489646434783936 0.16059368848800659 0.16622413694858551
0.83494687080383301 0.16154004633426666 0.1663602888584137
0.84823668003082275 0.16697303950786591 0.1706358939409256
0.85569852590560913 0.17226308584213257 0.17363151907920837
0.86783772706985474 0.17359068989753723 0.17632080614566803
0.87745100259780884 0.17591911554336548 0.17916665971279144
0.88723450899124146 0.17896923422813416 0.17783224582672119
0.89699071645736694 0.18178105354309082 0.17794798314571381
0.90533089637756348 0.18290440738201141 0.17855392396450043
0.88692814111709595 0.19779412448406219 0.19311682879924774
0.1407475471496582 0.13933824002742767 0.14178921282291412
0.11078431457281113 0.15484069287776947 0.15912990272045135
0.11727941036224365 0.15723039209842682 0.16200980544090271
0.12071078270673752 0.15698529779911041 0.1612132340669632
0.12812499701976776 0.15575979650020599 0.15851715207099915
0.14158497750759125 0.15357434749603271 0.15741421282291412
0.15833333134651184 0.15159313380718231 0.15600490570068359
0.17963644862174988 0.15130719542503357 0.15467730164527893
0.20618872344493866 0.14987744390964508 0.15490196645259857
0.23384395241737366 0.15161356329917908 0.15516747534275055
0.27193626761436462 0.15287990868091583 0.15661764144897461
0.31439951062202454 0.15526960790157318 0.15900735557079315
0.35655638575553894 0.15710784494876862 0.16072304546833038
0.40955883264541626 0.157986119389534 0.16376632452011108
0.45631128549575806 0.15943627059459686 0.16213235259056091
0.51425653696060181 0.16143791377544403 0.163317009806633
0.570567786693573 0.16100898385047913 0.16386845707893372
0.62830883264541626 0.16102941334247589 0.16813725233078003
0.67410129308700562 0.16182598471641541 0.16601307690143585
0.72144609689712524 0.16562500596046448 0.1666666716337204
0.75802695751190186 0.16899509727954865 0.16915848851203918
0.7909926176071167 0.17377451062202454 0.16825979948043823
0.81329655647277832 0.17685866355895996 0.16889296472072601
0.83259803056716919 0.17757353186607361 0.16985294222831726
0.84761029481887817 0.18169933557510376 0.17371323704719543
0.8594362735748291 0.18498773872852325 0.17254902422428131
0.86948531866073608 0.18780636787414551 0.17604166269302368
0.87928920984268188 0.18878675997257233 0.17849265038967133
0.88988971710205078 0.19281044602394104 0.17783905565738678
0.89857023954391479 0.1964869350194931 0.17865604162216187
0.90692400932312012 0.19613970816135406 0.17935049533843994
0.88057595491409302 0.21384803950786591 0.19730392098426819
0.13982842862606049 0.15727123618125916 0.14195260405540466
0.10959967970848083 0.17328430712223053 0.15743464231491089
0.11615604162216187 0.17372684180736542 0.15952476859092712
0.12053376436233521 0.17353621125221252 0.15905499458312988
0.1272875964641571 0.17408087849617004 0.15520833432674408
0.13852804899215698 0.17139841616153717 0.15409177541732788
0.15520833432674408 0.16819852590560913 0.15241013467311859
0.17696759104728699 0.16821214556694031 0.15392838418483734
0.20400325953960419 0.16658495366573334 0.15543299913406372
0.23171977698802948 0.16813725233078003 0.15518790483474731
0.27116015553474426 0.16656453907489777 0.15639296174049377
0.31066858768463135 0.16978484392166138 0.15834695100784302
0.35353347659111023 0.17091502249240875 0.15927286446094513
0.40717592835426331 0.17258985340595245 0.16406591236591339
0.45257353782653809 0.17248775064945221 0.1595996618270874
0.51004219055175781 0.1743532121181488 0.16216640174388885
0.56684374809265137 0.17651824653148651 0.16207790374755859
0.62385618686676025 0.17743055522441864 0.1663602888584137
0.66922652721405029 0.1770288497209549 0.16437226533889771
0.71691179275512695 0.17975899577140808 0.16629901528358459
0.75372409820556641 0.18331290781497955 0.16663944721221924
0.78784716129302979 0.18594770133495331 0.16640113294124603
0.81044387817382812 0.18972630798816681 0.16811002790927887
0.83104568719863892 0.19133986532688141 0.16940358281135559
0.84446483850479126 0.19358661770820618 0.16981209814548492
0.85700571537017822 0.19726307690143585 0.17128267884254456
0.86994826793670654 0.20130719244480133 0.17521786689758301
0.88018792867660522 0.20334967970848083 0.17781862616539001
0.88756811618804932 0.20706699788570404 0.17847903072834015
0.89601713418960571 0.21059368550777435 0.17833605408668518
0.90492242574691772 0.2114378958940506 0.17832925915718079
0.88488560914993286 0.2271241694688797 0.19391338527202606
0.13400734961032867 0.18425245583057404 0.14362744987010956
0.11170343309640884 0.19534313678741455 0.15588235855102539
0.11621732264757156 0.19505719840526581 0.15706700086593628
0.12224264442920685 0.19528186321258545 0.15731209516525269
0.13057598471641541 0.19515931606292725 0.15539215505123138
0.14291258156299591 0.19499592483043671 0.15561683475971222
0.15925244987010956 0.19368872046470642 0.15526960790157318
0.17753268778324127 0.19307598471641541 0.1545138955116272
0.20165440440177917 0.19166666269302368 0.15398284792900085
0.2305351197719574 0.1925245076417923 0.15418709814548492
0.26727941632270813 0.19129902124404907 0.15337009727954865
0.30688318610191345 0.19244280457496643 0.15655636787414551
0.34779411554336548 0.1925857812166214 0.15765930712223053
0.40042892098426819 0.19299428164958954 0.15986520051956177
0.44595587253570557 0.19307598471641541 0.15839460492134094
0.50504499673843384 0.19487336277961731 0.16343954205513
0.56213235855102539 0.19650734961032867 0.16591094434261322
0.62101715803146362 0.19724264740943909 0.16752451658248901
0.66613560914993286 0.19705882668495178 0.1648692786693573
0.71249997615814209 0.19895833730697632 0.1669117659330368
0.74779409170150757 0.20040848851203918 0.16446077823638916
0.78468137979507446 0.20441175997257233 0.16476716101169586
0.8082311749458313 0.20890523493289948 0.16464461386203766
0.82959556579589844 0.21029411256313324 0.16605392098426819
0.84495508670806885 0.21409313380718231 0.1702001690864563
0.85477942228317261 0.21721813082695007 0.1720588207244873
0.86732029914855957 0.21973039209842682 0.17600081861019135
0.87812501192092896 0.22187499701976776 0.17941176891326904
0.88837826251983643 0.22632761299610138 0.17663398385047913
0.89632350206375122 0.22967730462551117 0.17489787936210632
0.90765929222106934 0.23345588147640228 0.1772671639919281
0.88112747669219971 0.25098040699958801 0.19528186321258545
0.14274917542934418 0.20618872344493866 0.14360703527927399
0.11100899428129196 0.22093544900417328 0.15790441632270813
0.11599945276975632 0.22112609446048737 0.15921840071678162
0.12045887857675552 0.22125545144081116 0.15867374837398529
0.12863563001155853 0.22150735557079315 0.15720996260643005
0.14288535714149475 0.22121459245681763 0.15775462985038757
0.16107025742530823 0.22007760405540466 0.15870098769664764
0.17926877737045288 0.21752451360225677 0.15662446618080139
0.20482024550437927 0.21452206373214722 0.15627042949199677
0.23185594379901886 0.21521651744842529 0.15512664616107941
0.26676881313323975 0.2136642187833786 0.15561683475971222
0.30609339475631714 0.21607436239719391 0.15877586603164673
0.34793707728385925 0.2153390645980835 0.15908905863761902
0.39934641122817993 0.21463780105113983 0.15955881774425507
0.44599676132202148 0.21613563597202301 0.16125409305095673
0.50224673748016357 0.21734748780727386 0.16360975801944733
0.55982440710067749 0.2199891060590744 0.16516885161399841
0.61776959896087646 0.2207924872636795 0.16875000298023224
0.66360974311828613 0.22031588852405548 0.16590414941310883
0.70927286148071289 0.22189544141292572 0.164807990193367
0.74434912204742432 0.22303920984268188 0.16540034115314484
0.77973860502243042 0.22685867547988892 0.16431781649589539
0.80277097225189209 0.23112745583057404 0.16638071835041046
0.8258170485496521 0.23323120176792145 0.16911764442920685
0.84121054410934448 0.23587282001972198 0.17084014415740967
0.85571891069412231 0.23717321455478668 0.17052696645259857
0.86812359094619751 0.24023692309856415 0.17497275769710541
0.87935048341751099 0.24330064654350281 0.17849265038967133
0.8882148265838623 0.24699755012989044 0.17568084597587585
0.89573127031326294 0.25044253468513489 0.17525871098041534
0.90584152936935425 0.2531658411026001 0.17828838527202606
0.88039213418960571 0.27099674940109253 0.19603757560253143
0.13884803652763367 0.24595588445663452 0.14859068393707275
0.11636029183864594 0.25716912746429443 0.16078431904315948
0.11917892098426819 0.25437089800834656 0.15986520051956177
0.12428513169288635 0.25475898385047913 0.15976306796073914
0.13167892396450043 0.25618872046470642 0.15882353484630585
0.1445261538028717 0.25686275959014893 0.15964053571224213
0.16225489974021912 0.25557598471641541 0.16047793626785278
0.17992240190505981 0.25175651907920837 0.16021242737770081
0.20428921282291412 0.24950979650020599 0.15882353484630585
0.22975899279117584 0.24810048937797546 0.15655636787414551
0.26525735855102539 0.2447916716337204 0.15508578717708588
0.30539214611053467 0.2461601197719574 0.1561887264251709
0.34785538911819458 0.24712009727954865 0.15698529779911041
0.40030637383460999 0.24697715044021606 0.1613970547914505
0.44718137383460999 0.24926470220088959 0.16354165971279144
0.50351309776306152 0.24979573488235474 0.1666666716337204
0.55866014957427979 0.24934639036655426 0.16486926376819611
0.61544120311737061 0.2501838207244873 0.16838234663009644
0.66043710708618164 0.25159314274787903 0.16693219542503357
0.70937502384185791 0.25257351994514465 0.16973039507865906
0.74607843160629272 0.25410538911819458 0.16940358281135559
0.78008580207824707 0.25698530673980713 0.16917891800403595
0.80537170171737671 0.26174429059028625 0.17099672555923462
0.82708334922790527 0.26323530077934265 0.1719362735748291
0.84176874160766602 0.26292893290519714 0.17183415591716766
0.85404413938522339 0.26403185725212097 0.1719362735748291
0.86838233470916748 0.26913803815841675 0.17767564952373505
0.88026958703994751 0.27187499403953552 0.1822303980588913
0.88921570777893066 0.27661353349685669 0.18026961386203766
0.89712011814117432 0.27977940440177917 0.17800244688987732
0.90582108497619629 0.2813725471496582 0.17873774468898773
0.88639706373214722 0.29442402720451355 0.19080881774425507
0.1496119350194931 0.28267973661422729 0.1494281142950058
0.11785130202770233 0.29736518859863281 0.16497141122817993
0.12267837673425674 0.29685458540916443 0.16539351642131805
0.12725354731082916 0.29688182473182678 0.1645016223192215
0.13637661933898926 0.29536354541778564 0.16249999403953552
0.14821621775627136 0.29441723227500916 0.16230256855487823
0.16415441036224365 0.29242235422134399 0.16247956454753876
0.18120233714580536 0.29146921634674072 0.16248638927936554
0.20637254416942596 0.28864380717277527 0.16209150850772858
0.23079383373260498 0.2876429557800293 0.15816992521286011
0.26587009429931641 0.28425246477127075 0.15702612698078156
0.30738699436187744 0.2830541729927063 0.1616421639919281
0.34865197539329529 0.28286352753639221 0.16270425915718079
0.40106207132339478 0.2836056649684906 0.16596542298793793
0.44979575276374817 0.28539621829986572 0.16848446428775787
0.50616824626922607 0.28526690602302551 0.17097629606723785
0.56006264686584473 0.2852192223072052 0.17022058367729187
0.61642158031463623 0.28517156839370728 0.17224264144897461
0.66297662258148193 0.28709831833839417 0.17120097577571869
0.71074342727661133 0.28966501355171204 0.17399917542934418
0.74564951658248901 0.28990334272384644 0.17294389009475708
0.7796977162361145 0.29250410199165344 0.17060865461826324
0.80552154779434204 0.29790306091308594 0.17431917786598206
0.83008581399917603 0.29883578419685364 0.17677696049213409
0.84447163343429565 0.29928514361381531 0.17656591534614563
0.85649508237838745 0.29997959733009338 0.17610293626785278
0.8699755072593689 0.30309095978736877 0.18097767233848572
0.88329249620437622 0.30622959136962891 0.18529412150382996
0.89270836114883423 0.30957245826721191 0.18366692960262299
0.90108245611190796 0.31290170550346375 0.18390524387359619
0.9089665412902832 0.31407272815704346 0.18329249322414398
0.8808823823928833 0.33073940873146057 0.19871322810649872
0.15520833432674408 0.32205882668495178 0.15471813082695007
0.12310048937797546 0.33713236451148987 0.16966912150382996
0.12839053571224213 0.3367442786693573 0.17058824002742767
0.13351716101169586 0.33521243929862976 0.16932190954685211
0.14136029779911041 0.3328431248664856 0.16568627953529358
0.15095995366573334 0.32984068989753723 0.16245916485786438
0.1664828360080719 0.32622548937797546 0.16115196049213409
0.18468137085437775 0.32867646217346191 0.16276551783084869
0.21096813678741455 0.32916668057441711 0.16482843458652496
0.23470181226730347 0.32834964990615845 0.16160130500793457
0.26881128549575806 0.32199755311012268 0.15955881774425507
0.30839461088180542 0.31985294818878174 0.16229574382305145
0.35091912746429443 0.31936275959014893 0.16274510324001312
0.4047589898109436 0.31915852427482605 0.16615603864192963
