snapseed-lut/snapseed-film-a01.cube
# Created by: G'MIC (https://gmic.eu)
TITLE "snapseed-film-a01"
# LUT size
LUT_3D_SIZE 32
# Data domain
DOMAIN_MIN 0.0 0.0 0.0
DOMAIN_MAX 1.0 1.0 1.0
# LUT data points
0.031188724562525749 0.076286762952804565 0.017647059634327888
0.012316176667809486 0.089828431606292725 0.022794118151068687
0.016278594732284546 0.086499184370040894 0.02312091551721096
0.019362745806574821 0.087173208594322205 0.026470588520169258
0.022794118151068687 0.087806373834609985 0.026470588520169258
0.027328431606292725 0.088153600692749023 0.025551469996571541
0.03278186172246933 0.087561272084712982 0.023897059261798859
0.041789215058088303 0.083394609391689301 0.028941992670297623
0.06507352739572525 0.076409310102462769 0.035968136042356491
0.086907677352428436 0.07103758305311203 0.037418302148580551
0.12224264442920685 0.064522057771682739 0.039767157286405563
0.15753675997257233 0.058721404522657394 0.036968953907489777
0.19509804248809814 0.054901961237192154 0.037806373089551926
0.23408906161785126 0.054697714745998383 0.041932187974452972
0.26752451062202454 0.05257352814078331 0.040379900485277176
0.30917078256607056 0.051552284508943558 0.04117647185921669
0.34532269835472107 0.05153186246752739 0.041482843458652496
0.38664215803146362 0.052328430116176605 0.042892158031463623
0.42060863971710205 0.053574346005916595 0.03972630575299263
0.46660539507865906 0.051960784941911697 0.039889704436063766
0.50937497615814209 0.050755720585584641 0.04091094434261322
0.55116420984268188 0.052757352590560913 0.034742645919322968
0.59771239757537842 0.053043298423290253 0.032087415456771851
0.64136028289794922 0.054473038762807846 0.029656862840056419
0.69033902883529663 0.056515522301197052 0.029575163498520851
0.73339462280273438 0.059742648154497147 0.029963234439492226
0.78490602970123291 0.060661762952804565 0.031678922474384308
0.82787990570068359 0.062745101749897003 0.035355392843484879
0.86936277151107788 0.06456291675567627 0.039889704436063766
0.89985698461532593 0.066503264009952545 0.046119280159473419
0.9111519455909729 0.067524507641792297 0.052879903465509415
0.8702206015586853 0.085906863212585449 0.074693627655506134
0.036029413342475891 0.076164215803146362 0.016237745061516762
0.010906863026320934 0.092279411852359772 0.022610293701291084
0.0151756526902318 0.089460782706737518 0.02291666716337204
0.019035946577787399 0.089808009564876556 0.026797385886311531
0.021813726052641869 0.090379901230335236 0.032169118523597717
0.027410130947828293 0.090543307363986969 0.029636437073349953
0.033026959747076035 0.089583329856395721 0.026409313082695007
0.038827616721391678 0.086049839854240417 0.026899509131908417
0.061948530375957489 0.081249997019767761 0.031311273574829102
0.086213238537311554 0.074448525905609131 0.030739376321434975
0.12267156690359116 0.066973038017749786 0.03284313902258873
0.16017156839370728 0.059477120637893677 0.03159722313284874
0.19552695751190186 0.055147059261798859 0.034068629145622253
0.2344362735748291 0.054677288979291916 0.039542485028505325
0.26654410362243652 0.053063724189996719 0.04117647185921669
0.30900734663009644 0.051654413342475891 0.04152369499206543
0.34636437892913818 0.051368467509746552 0.042054742574691772
0.38713234663009644 0.052022058516740799 0.045404411852359772
0.41928106546401978 0.054493464529514313 0.045118466019630432
0.46433824300765991 0.052450980991125107 0.045220587402582169
0.50765931606292725 0.051552280783653259 0.045649513602256775
0.54932600259780884 0.053492646664381027 0.044914215803146362
0.59466910362243652 0.054432187229394913 0.039522059261798859
0.63658088445663452 0.056311275810003281 0.034068629145622253
0.68580478429794312 0.058292482048273087 0.034558825194835663
0.72855395078659058 0.059558823704719543 0.035784315317869186
0.78270018100738525 0.061376631259918213 0.036315355449914932
0.82702207565307617 0.063419118523597717 0.037683822214603424
0.86713647842407227 0.06519608199596405 0.041074346750974655
0.89732438325881958 0.067790038883686066 0.044138070195913315
0.90863972902297974 0.067830882966518402 0.047732844948768616
0.86752450466156006 0.085539214313030243 0.067953430116176605
0.038071896880865097 0.074816174805164337 0.027655227109789848
0.020812910050153732 0.087254904210567474 0.033782679587602615
0.026838235557079315 0.084987744688987732 0.032979302108287811
0.032720588147640228 0.084055013954639435 0.034735839813947678
0.037438724189996719 0.08335375040769577 0.036172386258840561
0.045996729284524918 0.084443077445030212 0.033694174140691757
0.055657681077718735 0.083272062242031097 0.030167486518621445
0.06689133495092392 0.077805005013942719 0.033912032842636108
0.08944036066532135 0.071670748293399811 0.03839869424700737
0.11188045144081116 0.066789217293262482 0.035661764442920685
0.1494280993938446 0.059232022613286972 0.033843953162431717
0.18692810833454132 0.050374455749988556 0.034470316022634506
0.22126226127147675 0.044709965586662292 0.037581700831651688
0.2568763792514801 0.04374999925494194 0.043246187269687653
0.2899918258190155 0.041932187974452972 0.043280232697725296
0.33086195588111877 0.041591774672269821 0.046051196753978729
0.3672521710395813 0.040774781256914139 0.052539490163326263
0.4082312285900116 0.04091094434261322 0.055249184370040894
0.44368872046470642 0.042674291878938675 0.051102939993143082
0.48858252167701721 0.041360292583703995 0.051450159400701523
0.52901005744934082 0.041312634944915771 0.052920747548341751
0.57030230760574341 0.042830880731344223 0.05263480544090271
0.61787855625152588 0.043423201888799667 0.05541938915848732
0.66086602210998535 0.04389297217130661 0.057863559573888779
0.70905500650405884 0.044294659048318863 0.060600489377975464
0.74914216995239258 0.045200165361166 0.061989378184080124
0.80167484283447266 0.046139705926179886 0.059429462999105453
0.84665036201477051 0.047814536839723587 0.061335783451795578
0.88762253522872925 0.049128543585538864 0.066115193068981171
0.91921979188919067 0.050919119268655777 0.07084694504737854
0.92933005094528198 0.052553102374076843 0.076511435210704803
0.89908087253570557 0.065972223877906799 0.093423202633857727
0.086315363645553589 0.039154410362243652 0.041544117033481598
0.049550652503967285 0.051981210708618164 0.051613561809062958
0.062540844082832336 0.048856209963560104 0.052655231207609177
0.075782954692840576 0.047617103904485703 0.054473038762807846
0.08827614039182663 0.045629087835550308 0.053390525281429291
0.10585512220859528 0.046555008739233017 0.050190631300210953
0.12745098769664764 0.04583333432674408 0.047875814139842987
0.15066720545291901 0.040148422122001648 0.047099675983190536
0.1787581741809845 0.032720588147640228 0.049918301403522491
0.2009599506855011 0.029132626950740814 0.049312364310026169
0.23218953609466553 0.019342321902513504 0.047140523791313171
0.26501908898353577 0.01423611119389534 0.050408493727445602
0.2921568751335144 0.0096813729032874107 0.052022058516740799
0.32300516963005066 0.0084763066843152046 0.053853485733270645
0.35759803652763367 0.0062704244628548622 0.055657677352428436
0.39919659495353699 0.0038330608513206244 0.059456698596477509
0.43587282299995422 0.0037581699434667826 0.065482020378112793
0.47667485475540161 0.0027165033388882875 0.070036761462688446
0.51262253522872925 0.0033088237978518009 0.074836596846580505
0.55915027856826782 0.0015114378184080124 0.08255719393491745
0.59927153587341309 0.00031318081892095506 0.089515253901481628
0.64133983850479126 0.00083741825073957443 0.092299841344356537
0.68759530782699585 0.00065359479049220681 0.097351580858230591
0.72994279861450195 0.00046977127203717828 0.10220587998628616
0.77763479948043823 0.00081699347356334329 0.11064133793115616
0.81687086820602417 0.00044934640754945576 0.11727941036224365
0.87052011489868164 0.00033360568340867758 0.12265115231275558
0.91474670171737671 0.00055147061357274652 0.13261847198009491
0.95682191848754883 0.00038126361323520541 0.14215686917304993
0.98681235313415527 0.0015318627702072263 0.15130037069320679
0.9972221851348877 0.001429738593287766 0.16168299317359924
0.95606619119644165 0.020976308733224869 0.18010622262954712
0.086580879986286163 0.048529412597417831 0.045036762952804565
0.048774510622024536 0.064154408872127533 0.054901961237192154
0.059763070195913315 0.061151959002017975 0.053860295563936234
0.072549022734165192 0.061029411852359772 0.057128269225358963
0.090870097279548645 0.060232844203710556 0.058946076780557632
0.10853757709264755 0.058558005839586258 0.054575160145759583
0.13118872046470642 0.057169117033481598 0.050306372344493866
0.15488153696060181 0.053574346005916595 0.052961602807044983
0.18002450466156006 0.04846813902258873 0.053186275064945221
0.20508578419685364 0.044566996395587921 0.049611926078796387
0.23578430712223053 0.034620098769664764 0.044852942228317261
0.26582923531532288 0.026266342028975487 0.047242648899555206
0.29399511218070984 0.018382353708148003 0.047058824449777603
0.32524511218070984 0.014665033668279648 0.046854577958583832
0.35808822512626648 0.012377451173961163 0.049816176295280457
0.39748775959014893 0.0086192814633250237 0.052839051932096481
0.43686684966087341 0.0079861106351017952 0.062091503292322159
0.47806373238563538 0.0055759805254638195 0.066176474094390869
0.51399105787277222 0.005412581842392683 0.068974681198596954
0.55808824300765991 0.0046568629331886768 0.073590688407421112
0.59832519292831421 0.0035130721516907215 0.079248368740081787
0.63872551918029785 0.0024509804788976908 0.085110291838645935
0.68703025579452515 0.0034109477419406176 0.092095591127872467
0.72653186321258545 0.0014093137579038739 0.094362743198871613
0.77520430088043213 0.001776960794813931 0.10371731966733932
0.81599265336990356 0.0014093137579038739 0.11366421729326248
0.87240606546401978 0.001450163428671658 0.1196078434586525
0.91758579015731812 0.0010416667209938169 0.12726715207099915
0.95643383264541626 0.00065359479049220681 0.13980801403522491
0.98641747236251831 0.0014705882640555501 0.14926470816135406
0.99730390310287476 0.0032475490588694811 0.15925244987010956
0.95459556579589844 0.021568628028035164 0.17438726127147675
0.07514297217130661 0.061478752642869949 0.052022058516740799
0.044791664928197861 0.076470591127872467 0.060294117778539658
0.05680827796459198 0.072555825114250183 0.059109479188919067
0.071847766637802124 0.072426468133926392 0.060559634119272232
0.089440368115901947 0.072058826684951782 0.061376631259918213
0.10938180983066559 0.072181373834609985 0.058169934898614883
0.13415032625198364 0.07228349894285202 0.054248366504907608
0.15678785741329193 0.069076798856258392 0.053928375244140625
0.18568219244480133 0.064787581562995911 0.054799836128950119
0.20735293626785278 0.060614101588726044 0.048876632004976273
0.23837827146053314 0.050490196794271469 0.04403594508767128
0.26944443583488464 0.040754355490207672 0.045744825154542923
0.29707923531532288 0.032536763697862625 0.043504901230335236
0.32834967970848083 0.027342047542333603 0.043940629810094833
0.36074343323707581 0.021323530003428459 0.044914215803146362
0.39908087253570557 0.015386710874736309 0.04833197221159935
0.43449753522872925 0.013732298277318478 0.056583605706691742
0.47506126761436462 0.0092933010309934616 0.059681370854377747
0.51547521352767944 0.007958877831697464 0.062411490827798843
0.55925244092941284 0.0049632354639470577 0.069607846438884735
0.59889703989028931 0.0030228756368160248 0.076974399387836456
0.64158499240875244 0.0026348039973527193 0.078349679708480835
0.68797653913497925 0.0019880172330886126 0.086015798151493073
0.73124998807907104 0.0018586601363494992 0.094832517206668854
0.77871733903884888 0.0019267428433522582 0.10487473011016846
0.81860697269439697 0.0014093137579038739 0.11366421729326248
0.87292349338531494 0.0016748366178944707 0.11790577322244644
0.91678923368453979 0.0010620915563777089 0.12489786744117737
0.95875543355941772 0.00099400861654430628 0.13690768182277679
0.98880720138549805 0.0023897059727460146 0.14687499403953552
0.99571079015731812 0.0018382353009656072 0.15714868903160095
0.96362334489822388 0.016360294073820114 0.17320260405540466
0.080575980246067047 0.074264705181121826 0.057598039507865906
0.042034313082695007 0.094607844948768616 0.066544115543365479
0.054370913654565811 0.090318627655506134 0.06519608199596405
0.069117650389671326 0.08923611044883728 0.065951794385910034
0.084803923964500427 0.089583329856395721 0.062071077525615692
0.10933414846658707 0.090829253196716309 0.059538397938013077
0.13786764442920685 0.090808823704719543 0.057046569883823395
0.15988563001155853 0.090175658464431763 0.053472224622964859
0.18958333134651184 0.085968136787414551 0.053492646664381027
0.21182598173618317 0.082700170576572418 0.048018787056207657
0.24632352590560913 0.075183823704719543 0.047487746924161911
0.27955472469329834 0.065788403153419495 0.048631533980369568
0.3072303831577301 0.058823529630899429 0.047426469624042511
0.33770427107810974 0.052022058516740799 0.04415849968791008
0.36832109093666077 0.041421569883823395 0.04374999925494194
0.40479981899261475 0.033108662813901901 0.044464871287345886
0.4363153874874115 0.02395833283662796 0.046466507017612457
0.47714459896087646 0.017585784196853638 0.050428923219442368
0.51881128549575806 0.012111927382647991 0.057393793016672134
0.56360292434692383 0.0087009808048605919 0.062745101749897003
0.60396242141723633 0.0048611108213663101 0.070363566279411316
0.64773285388946533 0.0036151960957795382 0.078553922474384308
0.6946486234664917 0.0036356209311634302 0.087459146976470947
0.73535537719726562 0.0026960785035043955 0.094056375324726105
0.78227126598358154 0.0021854573860764503 0.10373774170875549
0.82279413938522339 0.0020220589358359575 0.10857842862606049
0.8775327205657959 0.0020220589358359575 0.11411355435848236
0.9220588207244873 0.0020220589358359575 0.12303921580314636
0.96149921417236328 0.00063316995510831475 0.13263888657093048
0.98899102210998535 0.0018586602527648211 0.14430147409439087
0.99785536527633667 0.0018995098071172833 0.15833333134651184
0.953125 0.022120097652077675 0.17886029183864594
0.076266348361968994 0.091115199029445648 0.061192810535430908
0.035314545035362244 0.11041666567325592 0.069138064980506897
0.047446899116039276 0.10852396488189697 0.069921024143695831
0.061628539115190506 0.10784313827753067 0.070200160145759583
0.080718956887722015 0.10514705628156662 0.06456291675567627
0.1060866042971611 0.10601851344108582 0.063112743198871613
0.13698936998844147 0.10716911405324936 0.064379088580608368
0.15556918084621429 0.10812227427959442 0.061036217957735062
0.18645833432674408 0.10573938488960266 0.059436272829771042
0.21651007235050201 0.10245778411626816 0.052553106099367142
0.25281861424446106 0.097610294818878174 0.047242648899555206
0.28178104758262634 0.09221813827753067 0.047392431646585464
0.31296980381011963 0.084027774631977081 0.043892975896596909
0.34689539670944214 0.076620377600193024 0.04076116532087326
0.37640932202339172 0.066237747669219971 0.038929738104343414
0.4125136137008667 0.055964056402444839 0.038439542055130005
0.44229301810264587 0.042967047542333603 0.038180824369192123
0.48137253522872925 0.035355392843484879 0.040441177785396576
0.52054059505462646 0.026831427589058876 0.04708605632185936
0.56123369932174683 0.022017974406480789 0.051184643059968948
0.59770560264587402 0.017578976228833199 0.056134257465600967
0.64189130067825317 0.014276960864663124 0.062847226858139038
0.68884801864624023 0.011301743797957897 0.070969492197036743
0.73061680793762207 0.010743463411927223 0.079003266990184784
0.77762115001678467 0.0088031049817800522 0.086104303598403931
0.82038396596908569 0.0080678099766373634 0.096466496586799622
0.87465280294418335 0.0053308825008571148 0.10481344908475876
0.91854572296142578 0.0027165033388882875 0.11392973363399506
0.95998775959014893 0.001647603465244174 0.12846541404724121
0.98837149143218994 0.0026279957965016365 0.13986247777938843
0.99313724040985107 0.0043300655670464039 0.1478145569562912
0.95582109689712524 0.021895423531532288 0.16627860069274902
0.057598039507865906 0.11593136936426163 0.071629904210567474
0.029718136414885521 0.13112744688987732 0.07916666567325592
0.042095586657524109 0.12761436402797699 0.079289212822914124
0.056924019008874893 0.12696078419685364 0.078941985964775085
0.074877448379993439 0.12573529779911041 0.075367644429206848
0.098917476832866669 0.12542891502380371 0.07352941483259201
0.12861520051956177 0.1251838207244873 0.072916664183139801
0.15241013467311859 0.12908495962619781 0.06519608199596405
0.18811275064945221 0.12904411554336548 0.066299021244049072
0.2168300598859787 0.13110703229904175 0.06125408411026001
0.25392156839370728 0.12763480842113495 0.055637255311012268
0.28907272219657898 0.12089461088180542 0.056229576468467712
0.32052695751190186 0.11574754863977432 0.052389707416296005
0.35488152503967285 0.1075776219367981 0.045424837619066238
0.38897058367729187 0.10024509578943253 0.046384803950786591
0.42534723877906799 0.09035947173833847 0.047222219407558441
0.45629087090492249 0.083455882966518402 0.046446077525615692
0.49442401528358459 0.072549022734165192 0.046752449125051498
0.52916663885116577 0.060049019753932953 0.045363564044237137
0.56642156839370728 0.04846813902258873 0.045159313827753067
0.59824347496032715 0.038153592497110367 0.045812904834747314
0.63596814870834351 0.030269607901573181 0.044424019753932953
0.67935049533843994 0.025081697851419449 0.050020426511764526
0.71954655647277832 0.02236519567668438 0.058578431606292725
0.76642155647277832 0.019260618835687637 0.065890520811080933
0.80931371450424194 0.018014706671237946 0.072303920984268188
0.86225491762161255 0.016993463039398193 0.080575980246067047
0.90392154455184937 0.016053922474384308 0.088480390608310699
0.9435049295425415 0.0143382353708148 0.099183008074760437
0.96962827444076538 0.015257352963089943 0.11045752465724945
0.97904413938522339 0.017340686172246933 0.12573529779911041
0.93314951658248901 0.038357842713594437 0.14791665971279144
0.064522057771682739 0.13204656541347504 0.075878269970417023
0.02450980432331562 0.15300245583057404 0.086989372968673706
0.036417488008737564 0.14900599420070648 0.086015798151493073
0.049196623265743256 0.14948257803916931 0.084708608686923981
0.067361108958721161 0.14834558963775635 0.078063726425170898
0.0921364426612854 0.14738562703132629 0.076599940657615662
0.12256944924592972 0.14554738998413086 0.074836596846580505
0.1488766223192215 0.14959152042865753 0.071670755743980408
0.18468137085437775 0.15269607305526733 0.073263883590698242
0.21593137085437775 0.15385350584983826 0.066639430820941925
0.25584149360656738 0.1530228853225708 0.063071899116039276
0.28976714611053467 0.14962555468082428 0.058523964136838913
0.32465279102325439 0.1440359354019165 0.055923201143741608
0.3618532121181488 0.1384599506855011 0.049040034413337708
0.39752858877182007 0.13306780159473419 0.048733662813901901
0.43600219488143921 0.12513618171215057 0.048066448420286179
0.47099670767784119 0.11630582809448242 0.049870643764734268
0.51029413938522339 0.10580065846443176 0.047549020498991013
0.54525458812713623 0.091544114053249359 0.046772874891757965
0.57951384782791138 0.078084148466587067 0.042177285999059677
0.61019206047058105 0.065788403153419495 0.040168844163417816
0.64742648601531982 0.053860295563936234 0.041033495217561722
0.68846672773361206 0.046071626245975494 0.043552558869123459
0.72485703229904175 0.04076797142624855 0.049162581562995911
0.76982563734054565 0.036328978836536407 0.056290846318006516
0.810130774974823 0.035600490868091583 0.061376631259918213
0.85968822240829468 0.030467050150036812 0.067687906324863434
0.89985698461532593 0.02694036066532135 0.076266340911388397
0.93745917081832886 0.024128539487719536 0.087779149413108826
0.96192806959152222 0.024884257465600967 0.098856210708618164
0.97026145458221436 0.028451798483729362 0.11646242439746857
0.92555147409439087 0.051981210708618164 0.1424223929643631
0.044546566903591156 0.16580882668495178 0.085661761462688446
0.013235294260084629 0.17971813678741455 0.09221813827753067
0.024693626910448074 0.17747139930725098 0.092075169086456299
0.039113566279411316 0.17636847496032715 0.092483662068843842
0.061090685427188873 0.17432598769664764 0.08903186023235321
0.085089869797229767 0.17383578419685364 0.089991830289363861
0.11495097726583481 0.17236520349979401 0.088419117033481598
0.13931781053543091 0.1768995076417923 0.082250818610191345
0.17751225829124451 0.17751225829124451 0.079411767423152924
0.21392974257469177 0.18047386407852173 0.072263069450855255
0.25821077823638916 0.1819852888584137 0.068872548639774323
0.29185047745704651 0.18331290781497955 0.06102941557765007
0.32977941632270813 0.18069852888584137 0.056495096534490585
0.369669109582901 0.175469771027565 0.048080064356327057
0.40398284792900085 0.17150735855102539 0.04528186097741127
0.44481208920478821 0.16421568393707275 0.042381532490253448
0.48492646217346191 0.15882353484630585 0.043423201888799667
0.52499997615814209 0.15012255311012268 0.041850488632917404
0.55996733903884888 0.14103348553180695 0.046017155051231384
0.59730392694473267 0.12959559261798859 0.047120098024606705
0.62869691848754883 0.11932189017534256 0.048651959747076035
0.66770833730697632 0.10765931010246277 0.045710783451795578
0.70851713418960571 0.099183008074760437 0.048161763697862625
0.74362742900848389 0.090931370854377747 0.052144609391689301
0.7845383882522583 0.080616824328899384 0.05390113964676857
0.82138478755950928 0.069117650389671326 0.055759802460670471
0.86294937133789062 0.057557187974452972 0.055882353335618973
0.89810049533843994 0.048651959747076035 0.06145833432674408
0.93029004335403442 0.042626630514860153 0.072201795876026154
0.95396238565444946 0.043035134673118591 0.081535942852497101
0.96488970518112183 0.053982842713594437 0.10085784643888474
0.93535536527633667 0.07708333432674408 0.12787990272045135
0.049489375203847885 0.19236111640930176 0.094097226858139038
0.0059640523977577686 0.21123366057872772 0.10510620474815369
0.016258168965578079 0.20802696049213409 0.10378540307283401
0.030657680705189705 0.20686954259872437 0.10456154495477676
0.05104166641831398 0.20449346303939819 0.10504493117332458
0.074775323271751404 0.20370370149612427 0.10576660931110382
0.10406453907489777 0.20292073488235474 0.10533088445663452
0.13084150850772858 0.20505855977535248 0.094812087714672089
0.1684640645980835 0.20408496260643005 0.088582515716552734
0.20511302351951599 0.20998774468898773 0.083210781216621399
0.24865196645259857 0.21415440738201141 0.077777780592441559
0.28828975558280945 0.2180010974407196 0.063596136868000031
0.32802289724349976 0.21717730164527893 0.058476310223340988
0.37179332971572876 0.21442674100399017 0.047875817865133286
0.40859884023666382 0.21370507776737213 0.039685457944869995
0.45108932256698608 0.20881672203540802 0.037677016109228134
0.49056372046470642 0.20330201089382172 0.034640524536371231
0.53157681226730347 0.19732433557510376 0.03235294297337532
0.56574070453643799 0.19195942580699921 0.032734204083681107
0.6077001690864563 0.18417075276374817 0.035518791526556015
0.64224535226821899 0.17444853484630585 0.0370778888463974
0.68131124973297119 0.16491013765335083 0.034946892410516739
0.72208607196807861 0.15479984879493713 0.038609746843576431
0.75669938325881958 0.14628267288208008 0.043790850788354874
0.79754221439361572 0.13449755311012268 0.046173747628927231
0.83433413505554199 0.12277368456125259 0.041503269225358963
0.87349539995193481 0.10867375135421753 0.04520697146654129
0.90565770864486694 0.099632352590560913 0.053308822214603424
0.93636983633041382 0.093504898250102997 0.06242511048913002
0.95614784955978394 0.094342328608036041 0.072120100259780884
0.96860706806182861 0.1060866042971611 0.097814545035362244
0.92663395404815674 0.13519199192523956 0.13220995664596558
0.050245098769664764 0.22132353484630585 0.10361519455909729
0.0061887255869805813 0.23970587551593781 0.11654412001371384
