snapseed-lut/snapseed-film-x04.cube
# Created by: G'MIC (https://gmic.eu)
TITLE "snapseed-film-x04"
# LUT size
LUT_3D_SIZE 5
# Data domain
# LUT data points
DOMAIN_MIN 0.000000 0.000000 0.000000
DOMAIN_MAX 0.903226 0.903226 0.903226
0.016850490123033524 0.048039216548204422 0.0060661765746772289
0.17867647111415863 0.11703431606292725 0.05271650105714798
0.46660539507865906 0.18609069287776947 0.070404410362243652
0.60085785388946533 0.20912989974021912 0.078615196049213409
0.66546165943145752 0.22275325655937195 0.10575980693101883
0.077062904834747314 0.15142974257469177 0.083558008074760437
0.23961056768894196 0.16625136137008667 0.061560455709695816
0.5264706015586853 0.22267156839370728 0.11491012573242188
0.64865195751190186 0.25357434153556824 0.13978756964206696
0.70701932907104492 0.27098309993743896 0.15380582213401794
0.18370097875595093 0.43075981736183167 0.25575980544090271
0.27469363808631897 0.44783499836921692 0.20770014822483063
0.61060047149658203 0.42524510622024536 0.10649509727954865
0.71758580207824707 0.42812499403953552 0.1303921639919281
0.77549022436141968 0.43835783004760742 0.14170752465724945
0.21531862020492554 0.56715685129165649 0.33707109093666077
0.25994688272476196 0.58453834056854248 0.32113969326019287
0.68462008237838745 0.65110296010971069 0.16372549533843994
0.75245100259780884 0.57064950466156006 0.12837009131908417
0.81137657165527344 0.56488972902297974 0.14436274766921997
0.23670342564582825 0.63525331020355225 0.3686070442199707
0.27978622913360596 0.65758436918258667 0.37508168816566467
0.66092729568481445 0.731781005859375 0.2168913334608078
0.82120096683502197 0.71993464231491089 0.15641340613365173
0.81926065683364868 0.64932596683502197 0.14705201983451843
0.0097222225740551949 0.10220587998628616 0.076102942228317261
0.15879629552364349 0.13775192201137543 0.11096813529729843
0.43531456589698792 0.19765113294124603 0.1405637264251709
0.57303923368453979 0.21292892098426819 0.12463235110044479
0.63551199436187744 0.22287581861019135 0.14385893940925598
0.062465958297252655 0.21130172908306122 0.17395152151584625
0.23923611640930176 0.21104982495307922 0.18265931308269501
0.52898967266082764 0.25639978051185608 0.19861790537834167
0.6502450704574585 0.2752382755279541 0.20744825899600983
0.70652914047241211 0.28787446022033691 0.21210284531116486
0.10976307094097137 0.52118057012557983 0.36374592781066895
0.28426605463027954 0.49431508779525757 0.36384803056716919
0.60142970085144043 0.48555964231491089 0.27150735259056091
0.71834146976470947 0.47914624214172363 0.2655024528503418
0.77788674831390381 0.48628133535385132 0.26038944721221924
0.11758578568696976 0.66527777910232544 0.45339053869247437
0.29740607738494873 0.63639020919799805 0.47727397084236145
0.6249387264251709 0.6733660101890564 0.3895629346370697
0.7501838207244873 0.6291462779045105 0.32236519455909729
0.80921840667724609 0.61811679601669312 0.31614241003990173
0.14752860367298126 0.72233796119689941 0.48218274116516113
0.30953842401504517 0.71101802587509155 0.52088326215744019
0.59222495555877686 0.74365466833114624 0.46968951821327209
0.80742102861404419 0.77133035659790039 0.37913945317268372
0.82254445552825928 0.70810633897781372 0.34914669394493103
0.024203430861234665 0.22457107901573181 0.32653185725212097
0.21644200384616852 0.25821077823638916 0.3593137264251709
0.48161765933036804 0.24865196645259857 0.3333333432674408
0.59430146217346191 0.26642155647277832 0.33118873834609985
0.65816998481750488 0.27908498048782349 0.34183007478713989
0.17146651446819305 0.27634802460670471 0.39812090992927551
0.31932869553565979 0.30514022707939148 0.43113428354263306
0.56043714284896851 0.32855391502380371 0.42424431443214417
0.67287582159042358 0.33782681822776794 0.42722627520561218
0.72627991437911987 0.34106752276420593 0.42127588391304016
0.11292891949415207 0.541911780834198 0.51844364404678345
0.25584149360656738 0.56321483850479126 0.54125821590423584
0.58749997615814209 0.56789213418960571 0.54908090829849243
0.72022056579589844 0.58376222848892212 0.54534316062927246
0.78604990243911743 0.59217733144760132 0.546364426612854
0.046078432351350784 0.75845587253570557 0.62444853782653809
0.17626632750034332 0.76278597116470337 0.63035136461257935
0.60827207565307617 0.70263481140136719 0.63455879688262939
0.74552696943283081 0.70594364404678345 0.59509801864624023
0.81158089637756348 0.70185869932174683 0.588786780834198
0.048100490123033524 0.84842729568481445 0.64934641122817993
0.17505446076393127 0.83634263277053833 0.66023284196853638
0.62416255474090576 0.77258980274200439 0.68186277151107788
0.75874179601669312 0.7967524528503418 0.63574349880218506
0.82834964990615845 0.77934366464614868 0.60798609256744385
0.091544114053249359 0.28756126761436462 0.49289214611053467
0.2640114426612854 0.32814544439315796 0.53002452850341797
0.52371323108673096 0.3280637264251709 0.51409316062927246
0.62604165077209473 0.32009804248809814 0.48321077227592468
0.68216913938522339 0.32475489377975464 0.47512254118919373
0.2240196019411087 0.33766341209411621 0.53227120637893677
0.36813044548034668 0.38069853186607361 0.58098441362380981
0.64452618360519409 0.41131538152694702 0.62314128875732422
0.70753675699234009 0.39709970355033875 0.57046568393707275
0.76025331020355225 0.39833876490592957 0.5664488673210144
0.19577205181121826 0.51776963472366333 0.5779411792755127
0.33568218350410461 0.55218541622161865 0.61527782678604126
0.62040442228317261 0.61623775959014893 0.68314951658248901
0.73480391502380371 0.61850488185882568 0.68186277151107788
0.79977536201477051 0.62661361694335938 0.67826801538467407
0.10214460641145706 0.68970590829849243 0.66200977563858032
0.24959151446819305 0.71135616302490234 0.69283086061477661
0.58278185129165649 0.74136030673980713 0.72432595491409302
0.74221813678741455 0.74178922176361084 0.72971814870834351
0.81803518533706665 0.75351309776306152 0.73584556579589844
0.062418300658464432 0.80735296010971069 0.71544116735458374
0.18208061158657074 0.83592051267623901 0.73964458703994751
0.57383579015731812 0.82992243766784668 0.76055967807769775
0.75371736288070679 0.80761849880218506 0.76836186647415161
0.83281582593917847 0.81962823867797852 0.74573123455047607
0.14031863212585449 0.31104981899261475 0.56789213418960571
0.30044254660606384 0.35215142369270325 0.60810863971710205
0.63276147842407227 0.40120506286621094 0.67136436700820923
0.64607840776443481 0.36158087849617004 0.58096408843994141
0.698161780834198 0.35734611749649048 0.56949895620346069
0.25437772274017334 0.3756195604801178 0.61035537719726562
0.39550653100013733 0.42431464791297913 0.66137659549713135
0.67860835790634155 0.45831292867660522 0.72736924886703491
0.74374997615814209 0.44249728322029114 0.67859470844268799
0.77629357576370239 0.43576845526695251 0.65585732460021973
0.23764297366142273 0.52798199653625488 0.62526553869247437
0.37445536255836487 0.57568764686584473 0.67364513874053955
0.65098041296005249 0.65022468566894531 0.75786352157592773
0.77389705181121826 0.65714871883392334 0.77408087253570557
0.81220728158950806 0.65018379688262939 0.74974125623703003
0.16147877275943756 0.65690362453460693 0.68202608823776245
0.31264296174049377 0.68393927812576294 0.71292895078659058
0.62879902124404907 0.73202610015869141 0.76392972469329834
0.76392978429794312 0.76419520378112793 0.8010212779045105
0.82434636354446411 0.77047252655029297 0.80487465858459473
0.1143382340669632 0.75840824842453003 0.7328295111656189
0.25611835718154907 0.78824210166931152 0.76427924633026123
0.58799701929092407 0.81820535659790039 0.79841363430023193
0.74588096141815186 0.83552557229995728 0.8207584023475647
0.82854253053665161 0.83382123708724976 0.81790804862976074
