snapseed-lut/snapseed-film-a04.cube
# Created by: G'MIC (https://gmic.eu)
TITLE "snapseed-fim-a04"
# LUT size
LUT_3D_SIZE 5
# Data domain
# LUT data points
DOMAIN_MIN 0.000000 0.000000 0.000000
DOMAIN_MAX 0.903226 0.903226 0.903226
0.024632353335618973 0.058517158031463623 0.12444853037595749
0.078308820724487305 0.067810453474521637 0.13686683773994446
0.33786764740943909 0.037745099514722824 0.15502451360225677
0.58026963472366333 0.051348038017749786 0.1768382340669632
0.81889301538467407 0.062888070940971375 0.19548611342906952
0.047242648899555206 0.1858864426612854 0.24358659982681274
0.12189541757106781 0.2173883467912674 0.22924837470054626
0.46109068393707275 0.18169935047626495 0.18137255311012268
0.68609070777893066 0.094669118523597717 0.14454656839370728
0.91280639171600342 0.050040852278470993 0.15910947322845459
0.056556373834609985 0.50508576631546021 0.40122547745704651
0.099754899740219116 0.5265318751335144 0.39832514524459839
0.48811274766921997 0.52352941036224365 0.32487744092941284
0.75998777151107788 0.48756128549575806 0.21936275064945221
0.97500002384185791 0.46027371287345886 0.14754901826381683
0.24136029183864594 0.76703429222106934 0.58094364404678345
0.33388480544090271 0.79074752330780029 0.59740602970123291
0.52205884456634521 0.77549022436141968 0.54742646217346191
0.74828433990478516 0.77291667461395264 0.44748774170875549
0.96135622262954712 0.76008987426757812 0.30537176132202148
0.69035941362380981 0.938010573387146 0.80890524387359619
0.7154616117477417 0.94384533166885376 0.82446211576461792
0.754963219165802 0.93778592348098755 0.80224668979644775
0.83192402124404907 0.93257761001586914 0.76915848255157471
0.93145430088043213 0.93191039562225342 0.68779957294464111
0.021834149956703186 0.073468133807182312 0.16838234663009644
0.062322981655597687 0.081815086305141449 0.15962009131908417
0.31662583351135254 0.050919119268655777 0.15204247832298279
0.55136841535568237 0.066258169710636139 0.1773284375667572
0.77570128440856934 0.080467045307159424 0.19344362616539001
0.047099675983190536 0.19021651148796082 0.30848991870880127
0.13373048603534698 0.2158111035823822 0.30098944902420044
0.45154547691345215 0.17933687567710876 0.2323257178068161
0.70320671796798706 0.13317672908306122 0.18741829693317413
0.90728259086608887 0.058172203600406647 0.15454339981079102
0.066993467509746552 0.50232845544815063 0.46484887599945068
0.19136710464954376 0.53221672773361206 0.48295888304710388
0.49323940277099609 0.52158910036087036 0.41462421417236328
0.75686275959014893 0.48506942391395569 0.3102124035358429
0.96863424777984619 0.46039626002311707 0.20873503386974335
0.30949753522872925 0.77753269672393799 0.65149098634719849
0.39275598526000977 0.78839188814163208 0.66190081834793091
0.54426068067550659 0.7770424485206604 0.61672794818878174
0.75394195318222046 0.77397876977920532 0.53410941362380981
0.9608728289604187 0.75797933340072632 0.41023966670036316
0.68359208106994629 0.93494689464569092 0.83159720897674561
0.71097725629806519 0.94145107269287109 0.84387707710266113
0.77158910036087036 0.936015784740448 0.83563458919525146
0.83796977996826172 0.92996323108673096 0.80488830804824829
0.93070310354232788 0.93049651384353638 0.73488110303878784
0.024693626910448074 0.085477940738201141 0.26053920388221741
0.074285127222537994 0.095506541430950165 0.23533497750759125
0.32199755311012268 0.050490196794271469 0.20520833134651184
0.56311273574829102 0.064154408872127533 0.19681373238563538
0.78104573488235474 0.079901963472366333 0.20200164616107941
0.04840686172246933 0.20953840017318726 0.41162171959877014
0.15826524794101715 0.2517973780632019 0.41662582755088806
0.45022466778755188 0.1941380649805069 0.34048205614089966
0.69852942228317261 0.13108660280704498 0.25610703229904175
0.93359881639480591 0.10817673802375793 0.19046840071678162
0.070098042488098145 0.49754902720451355 0.5362744927406311
0.21964870393276215 0.53584557771682739 0.5646854043006897
0.50680148601531982 0.52984070777893066 0.51924020051956177
0.7499387264251709 0.4891543984413147 0.43014705181121826
0.96648281812667847 0.45831292867660522 0.31013068556785583
0.37169116735458374 0.78946077823638916 0.72775733470916748
0.44395425915718079 0.79822301864624023 0.73116832971572876
0.58854168653488159 0.78750002384185791 0.69675242900848389
0.76893383264541626 0.77922791242599487 0.629963219165802
0.95990604162216187 0.76147878170013428 0.5242239236831665
0.71942400932312012 0.93758165836334229 0.87150734663009644
0.72193628549575806 0.9445873498916626 0.87342047691345215
0.78496730327606201 0.94062501192092896 0.86864787340164185
0.85222631692886353 0.93462008237838745 0.85000002384185791
0.9339597225189209 0.93439549207687378 0.79820263385772705
0.026838235557079315 0.11200980097055435 0.36893382668495178
0.12197712063789368 0.13468137383460999 0.35357433557510376
0.37058824300765991 0.074080884456634521 0.30012255907058716
0.5624387264251709 0.06568627804517746 0.25949755311012268
0.78480392694473267 0.078941993415355682 0.22763480246067047
0.052900325506925583 0.24775326251983643 0.53588640689849854
0.22199754416942596 0.29427424073219299 0.54617375135421753
0.52422386407852173 0.28394606709480286 0.48856207728385925
0.69046157598495483 0.15238970518112183 0.36572715640068054
0.92506808042526245 0.095703974366188049 0.26570668816566467
0.069730393588542938 0.49950981140136719 0.62928920984268188
0.2102532684803009 0.53506946563720703 0.65518790483474731
0.52359068393707275 0.55220586061477661 0.62034314870834351
0.73094362020492554 0.49068626761436462 0.53314948081970215
0.95416665077209473 0.44687500596046448 0.43096402287483215
0.34981617331504822 0.77224266529083252 0.7705269455909729
0.43662175536155701 0.78404814004898071 0.77990198135375977
0.61286765336990356 0.79264706373214722 0.77107840776443481
0.77316176891326904 0.78020834922790527 0.71924018859863281
0.9507148265838623 0.75441175699234009 0.62069040536880493
0.74491423368453979 0.94172793626785278 0.91035538911819458
0.754588782787323 0.94894474744796753 0.91240471601486206
0.79497551918029785 0.94405639171600342 0.90079659223556519
0.85992646217346191 0.9376225471496582 0.88982844352722168
0.93700295686721802 0.93462008237838745 0.85087829828262329
0.028349673375487328 0.15404412150382996 0.48249593377113342
0.18704384565353394 0.18490603566169739 0.48498773574829102
0.4236723780632019 0.1806780993938446 0.44023695588111877
0.58267968893051147 0.073876641690731049 0.34650734066963196
0.77421706914901733 0.079895153641700745 0.29788261651992798
0.094424016773700714 0.29812771081924438 0.65630447864532471
0.29309865832328796 0.33689180016517639 0.67180919647216797
0.56375956535339355 0.36313316226005554 0.62636852264404297
0.77482300996780396 0.27984747290611267 0.52830880880355835
0.90351307392120361 0.088870733976364136 0.37491601705551147
0.070608653128147125 0.4988766610622406 0.71568626165390015
0.24859748780727386 0.52905774116516113 0.72800928354263306
0.55657678842544556 0.58341509103775024 0.72832924127578735
0.77414214611053467 0.57926875352859497 0.67947304248809814
0.9293028712272644 0.42961600422859192 0.53302013874053955
0.36247959733009338 0.76448124647140503 0.83306783437728882
0.42076525092124939 0.775177001953125 0.83303380012512207
0.57708334922790527 0.77587831020355225 0.81331700086593628
0.77373367547988892 0.78290438652038574 0.79307597875595093
0.93323123455047607 0.73547112941741943 0.71000140905380249
0.72264432907104492 0.92639565467834473 0.92615741491317749
0.73113882541656494 0.93724352121353149 0.93190133571624756
0.79571759700775146 0.93757492303848267 0.92760074138641357
0.86473309993743896 0.94131946563720703 0.91983246803283691
0.93710732460021973 0.939308762550354 0.89512526988983154
