snapseed-lut/snapseed-film-b01.cube
# Created by: G'MIC (https://gmic.eu)
TITLE "snapseed-film-b01"
# LUT size
LUT_3D_SIZE 5
# Data domain
# LUT data points
DOMAIN_MIN 0.000000 0.000000 0.000000
DOMAIN_MAX 0.903226 0.903226 0.903226
0.02034313790500164 0.084252454340457916 0.007107843179255724
0.069566994905471802 0.10277777165174484 0.0098447715863585472
0.30079656839370728 0.11243872344493866 0.013296568766236305
0.56213235855102539 0.12579657137393951 0.017340686172246933
0.76513481140136719 0.13723446428775787 0.024428104981780052
0.082332521677017212 0.14532269537448883 0.068382352590560913
0.17150735855102539 0.16836191713809967 0.084034577012062073
0.39989784359931946 0.17955474555492401 0.082046568393707275
0.66227537393569946 0.19683416187763214 0.080228753387928009
0.86245238780975342 0.21062092483043671 0.082203157246112823
0.094117648899555206 0.37922793626785278 0.14650735259056091
0.1992851197719574 0.41595178842544556 0.16652368009090424
0.41403186321258545 0.41243872046470642 0.14926470816135406
0.67524510622024536 0.4320465624332428 0.15061274170875549
0.87081289291381836 0.45214459300041199 0.14709965884685516
0.10006127506494522 0.66262257099151611 0.26629900932312012
0.22873774170875549 0.6971813440322876 0.28604984283447266
0.45594361424446106 0.70208334922790527 0.26948529481887817
0.69362747669219971 0.69901961088180542 0.24846813082695007
0.87865608930587769 0.71488970518112183 0.24395425617694855
0.13033087551593781 0.8618464469909668 0.39748775959014893
0.25213098526000977 0.88961058855056763 0.41902914643287659
0.49607843160629272 0.89658904075622559 0.41088646650314331
0.72504079341888428 0.89652776718139648 0.38447713851928711
0.89108794927597046 0.89470314979553223 0.36336463689804077
0.0098243467509746552 0.10310456901788712 0.050367645919322968
0.038813997060060501 0.11734068393707275 0.052743736654520035
0.27209967374801636 0.12551063299179077 0.054309643805027008
0.53321081399917603 0.13870507478713989 0.052042480558156967
0.73157685995101929 0.15226034820079803 0.054282408207654953
0.083183556795120239 0.14534313976764679 0.13414351642131805
0.17894652485847473 0.17522920668125153 0.15174746513366699
0.40920478105545044 0.19132624566555023 0.14840686321258545
0.6736178994178772 0.20532406866550446 0.14547930657863617
0.86894965171813965 0.21941040456295013 0.14543618261814117
0.09221813827753067 0.3798406720161438 0.23547793924808502
0.20251224935054779 0.41851851344108582 0.25951120257377625
0.42704245448112488 0.42320260405540466 0.24207517504692078
0.68402773141860962 0.44372960925102234 0.24019607901573181
0.87521111965179443 0.46516203880310059 0.24101988971233368
0.09979575127363205 0.66284716129302979 0.37959557771682739
0.22992238402366638 0.69700437784194946 0.39763069152832031
0.46907681226730347 0.71006947755813599 0.39103350043296814
0.70328843593597412 0.70988565683364868 0.36478754878044128
0.88493329286575317 0.72666805982589722 0.35938182473182678
0.12845861911773682 0.86287444829940796 0.5169253945350647
0.25037673115730286 0.88917034864425659 0.53665125370025635
0.50366288423538208 0.8996119499206543 0.53877991437911987
0.73433417081832886 0.90002721548080444 0.51384806632995605
0.89677971601486206 0.89906495809555054 0.4910062849521637
0.010845588520169258 0.10747548937797546 0.13633579015731812
0.037111926823854446 0.11533904820680618 0.13274100422859192
0.27003675699234009 0.12218137085437775 0.13223038613796234
0.53210783004760742 0.13658088445663452 0.13112744688987732
0.72798198461532593 0.15067401528358459 0.13210783898830414
0.089624188840389252 0.15308414399623871 0.23198530077934265
0.18683278560638428 0.18083469569683075 0.24386574327945709
0.41384804248809814 0.194567009806633 0.24033904075622559
0.67814546823501587 0.2114991694688797 0.24074755609035492
0.87402641773223877 0.22773012518882751 0.24104030430316925
0.091237746179103851 0.38057598471641541 0.3490196168422699
0.20388072729110718 0.41807597875595093 0.36850491166114807
0.4376838207244873 0.43817400932312012 0.36403185129165649
0.69564950466156006 0.45692402124404907 0.35790440440177917
0.88161766529083252 0.47973856329917908 0.35894608497619629
0.099754899740219116 0.66292893886566162 0.49687498807907104
0.22792074084281921 0.69742649793624878 0.51501226425170898
0.47714459896087646 0.71611517667770386 0.51678919792175293
0.71697306632995605 0.72138482332229614 0.49828431010246277
0.89172792434692383 0.73535537719726562 0.49148285388946533
0.12906454503536224 0.8619077205657959 0.63656049966812134
0.25003403425216675 0.88934499025344849 0.65278458595275879
0.50283902883529663 0.90087831020355225 0.65484070777893066
0.74562907218933105 0.90539216995239258 0.64356619119644165
0.89985698461532593 0.90343821048736572 0.61981886625289917
0.010906863026320934 0.11188725382089615 0.24025735259056091
0.04146241769194603 0.1182393804192543 0.2327001541852951
0.26819851994514465 0.12224264442920685 0.21917891502380371
0.53161764144897461 0.13492646813392639 0.22279411554336548
0.72738969326019287 0.14934641122817993 0.22461192309856415
0.092544935643672943 0.15882353484630585 0.3526756763458252
0.19557462632656097 0.1904752254486084 0.36720451712608337
0.41509395837783813 0.19487336277961731 0.34673205018043518
0.67855393886566162 0.211682990193367 0.3470996618270874
0.8731345534324646 0.22750544548034668 0.34978213906288147
0.098100490868091583 0.39093136787414551 0.48057597875595093
0.20923201739788055 0.42406043410301208 0.4982638955116272
0.44712010025978088 0.44681373238563538 0.49509802460670471
0.70471811294555664 0.46691176295280457 0.49142158031463623
0.8880922794342041 0.48937910795211792 0.48978754878044128
0.099142156541347504 0.66256129741668701 0.61660540103912354
0.22785948216915131 0.69697713851928711 0.63770425319671631
0.47628676891326904 0.71636027097702026 0.63437497615814209
0.72665441036224365 0.73186272382736206 0.62738972902297974
0.89763075113296509 0.74785536527633667 0.62359070777893066
0.12941177189350128 0.86141753196716309 0.74532264471054077
0.25036084651947021 0.88920885324478149 0.76014429330825806
0.50218546390533447 0.9015318751335144 0.76303106546401978
0.75390112400054932 0.90917074680328369 0.76025331020355225
0.90607982873916626 0.90923881530761719 0.74392706155776978
0.012540849857032299 0.11562500149011612 0.36072304844856262
0.05001361295580864 0.12635484337806702 0.35010892152786255
0.26940357685089111 0.12242647260427475 0.33143383264541626
0.53188318014144897 0.13421159982681274 0.32888069748878479
0.72747820615768433 0.15014296770095825 0.33315631747245789
0.098093681037425995 0.16874319314956665 0.48154956102371216
0.20630444586277008 0.20093728601932526 0.49763527512550354
0.42013207077980042 0.20004084706306458 0.47165030241012573
0.67963641881942749 0.21259532868862152 0.4639093279838562
0.87298929691314697 0.22923249006271362 0.46622869372367859
0.10179737955331802 0.39940768480300903 0.61064130067825317
0.2188725471496582 0.4364447295665741 0.63042622804641724
0.46076390147209167 0.4585171639919281 0.62497955560684204
0.70506536960601807 0.46740195155143738 0.60882353782653809
0.88754087686538696 0.49016204476356506 0.60986518859863281
0.10367646813392639 0.66874998807907104 0.73545753955841064
0.23116150498390198 0.70074886083602905 0.7510485053062439
0.47951388359069824 0.71966910362243652 0.74971401691436768
0.73470181226730347 0.73774510622024536 0.74875408411026001
0.90354025363922119 0.75521516799926758 0.74453973770141602
0.12657271325588226 0.86176472902297974 0.82880586385726929
0.25041985511779785 0.88952434062957764 0.84733796119689941
0.50087827444076538 0.90197443962097168 0.84633719921112061
0.75548744201660156 0.91150593757629395 0.84337550401687622
0.91166716814041138 0.91566580533981323 0.8374137282371521
