snapseed-lut/snapseed-film-l04.cube
# Created by: G'MIC (https://gmic.eu)
TITLE "snapseed-film-l04"
# LUT size
LUT_3D_SIZE 5
# Data domain
# LUT data points
DOMAIN_MIN 0.000000 0.000000 0.000000
DOMAIN_MAX 0.903226 0.903226 0.903226
0.030943626537919044 0.087254904210567474 0.018995098769664764
0.12444853037595749 0.10647467523813248 0.023406865075230598
0.51685047149658203 0.1248161792755127 0.043382354080677032
0.73602938652038574 0.12818627059459686 0.045220587402582169
0.80892562866210938 0.13122957944869995 0.05138888955116272
0.093382351100444794 0.16235701739788055 0.087561272084712982
0.2174496203660965 0.18574348092079163 0.10585512965917587
0.63090282678604126 0.1800653487443924 0.12783905863761902
0.84252452850341797 0.170138880610466 0.13171976804733276
0.90163391828536987 0.17952069640159607 0.13568900525569916
0.12984068691730499 0.49712011218070984 0.1354166716337204
0.2049836665391922 0.52089458703994751 0.15155230462551117
0.58627450466156006 0.49595588445663452 0.14675244688987732
0.84828430414199829 0.47034314274787903 0.15281862020492554
0.91511440277099609 0.4753880500793457 0.1564338207244873
0.11899510025978088 0.71458333730697632 0.14865195751190186
0.17042484879493713 0.74432188272476196 0.16125407814979553
0.50202208757400513 0.72591912746429443 0.14901961386203766
0.81102943420410156 0.70588237047195435 0.14705882966518402
0.90563726425170898 0.70976310968399048 0.1539624035358429
0.14105391502380371 0.85782265663146973 0.17444853484630585
0.19021651148796082 0.87675654888153076 0.18690086901187897
0.51897472143173218 0.86995500326156616 0.17316175997257233
0.8123774528503418 0.85782265663146973 0.16154004633426666
0.90567123889923096 0.85828566551208496 0.16223447024822235
0.015543300658464432 0.12089461088180542 0.062765516340732574
0.097685180604457855 0.13071894645690918 0.082332514226436615
0.49524098634719849 0.15279819071292877 0.086294926702976227
0.71358245611190796 0.15312500298023224 0.077348858118057251
0.78309506177902222 0.15375135838985443 0.07958877831697464
0.10607298463582993 0.19396105408668518 0.19869962334632874
0.22359296679496765 0.21058233082294464 0.2116217315196991
0.63775873184204102 0.20125952363014221 0.19904002547264099
0.84562236070632935 0.18112064898014069 0.17926877737045288
0.90174061059951782 0.18948349356651306 0.18608614802360535
0.12779821455478668 0.51170343160629272 0.27743053436279297
0.20543301105499268 0.5371391773223877 0.28388479351997375
0.5878676176071167 0.51650327444076538 0.25214460492134094
0.85308414697647095 0.48839870095252991 0.22890113294124603
0.91919255256652832 0.49426063895225525 0.22509531676769257
0.11977124959230423 0.72516334056854248 0.29989784955978394
0.16843001544475555 0.75410538911819458 0.30501767992973328
0.50396245718002319 0.74195265769958496 0.26611518859863281
0.81413394212722778 0.71917891502380371 0.2342524528503418
0.91168296337127686 0.72165036201477051 0.22801606357097626
0.14050927758216858 0.8557734489440918 0.34138751029968262
0.19308732450008392 0.88180375099182129 0.36693218350410461
0.52592593431472778 0.88011306524276733 0.32809776067733765
0.81793981790542603 0.86971676349639893 0.27814540266990662
0.91144239902496338 0.86834383010864258 0.26539123058319092
0.023835783824324608 0.18982842564582825 0.30061274766921997
0.087928920984268188 0.15649509429931641 0.30210372805595398
0.49031862616539001 0.15422794222831726 0.29583331942558289
0.71305149793624878 0.15337009727954865 0.25986519455909729
0.77969765663146973 0.15535129606723785 0.26615604758262634
0.14581289887428284 0.26627862453460693 0.44822302460670471
0.23609749972820282 0.26734068989753723 0.45923882722854614
0.6274304986000061 0.21235701441764832 0.43114784359931946
0.84413802623748779 0.19769199192523956 0.39340275526046753
0.90053105354309082 0.20239651203155518 0.39001908898353577
0.12653186917304993 0.52346813678741455 0.50563722848892212
0.20361520349979401 0.54955065250396729 0.51725894212722778
0.59283089637756348 0.54289215803146362 0.51115196943283081
0.85796570777893066 0.51740193367004395 0.47542890906333923
0.93065774440765381 0.52191579341888428 0.4633578360080719
0.12224264442920685 0.72818624973297119 0.51274508237838745
0.16799429059028625 0.76135623455047607 0.53752040863037109
0.51109069585800171 0.75814950466156006 0.5215073823928833
0.82089459896087646 0.74252450466156006 0.48082107305526733
0.92122143507003784 0.74546569585800171 0.47673609852790833
0.14464870095252991 0.8566584587097168 0.54395431280136108
0.18995778262615204 0.8831290602684021 0.57495921850204468
0.53459972143173218 0.89499586820602417 0.56954658031463623
0.83125001192092896 0.88799017667770386 0.53227126598358154
0.92172515392303467 0.8862949013710022 0.51934230327606201
0.051286764442920685 0.2553921639919281 0.5109068751335144
0.082087412476539612 0.20026552677154541 0.50238972902297974
0.48529410362243652 0.1612132340669632 0.50772058963775635
0.71084558963775635 0.15625 0.47463235259056091
0.77728760242462158 0.15939544141292572 0.47095587849617004
0.17979983985424042 0.33390522003173828 0.63366013765335083
0.25865334272384644 0.33734339475631714 0.64933961629867554
0.61123371124267578 0.23092319071292877 0.63568216562271118
0.8389093279838562 0.20694445073604584 0.61037588119506836
0.89760345220565796 0.21232299506664276 0.6034245491027832
0.1408088207244873 0.54221814870834351 0.6824755072593689
0.20484068989753723 0.57475489377975464 0.70173615217208862
0.59062498807907104 0.57567399740219116 0.70416665077209473
0.85900735855102539 0.53498774766921997 0.67555147409439087
0.93122953176498413 0.53637665510177612 0.67273283004760742
0.11562500149011612 0.72916668653488159 0.67156863212585449
0.16668710112571716 0.76405227184295654 0.71484887599945068
0.50171566009521484 0.76795345544815063 0.70508581399917603
0.82867646217346191 0.75710785388946533 0.68890929222106934
0.93196487426757812 0.76237744092941284 0.68866419792175293
0.14164625108242035 0.85639297962188721 0.7081494927406311
0.19096539914608002 0.88470864295959473 0.73570257425308228
0.53631538152694702 0.89785540103912354 0.75004082918167114
0.84093135595321655 0.90230798721313477 0.73588645458221436
0.93206697702407837 0.90117102861404419 0.72404676675796509
0.082087412476539612 0.30537176132202148 0.65641337633132935
0.097276687622070312 0.23805829882621765 0.64642566442489624
0.48991015553474426 0.17612338066101074 0.67736929655075073
0.7160947322845459 0.16262255609035492 0.64877450466156006
0.77913945913314819 0.16433142125606537 0.64778047800064087
0.20105527341365814 0.38506942987442017 0.75455468893051147
0.27539259195327759 0.39328247308731079 0.78093451261520386
0.60078972578048706 0.26360976696014404 0.78708469867706299
0.83923614025115967 0.22126907110214233 0.78079378604888916
0.89687043428421021 0.22751906514167786 0.7753790020942688
0.14973446726799011 0.57406044006347656 0.79450571537017822
0.21996867656707764 0.61461055278778076 0.81599944829940796
0.59454655647277832 0.62287580966949463 0.83703029155731201
0.85661762952804565 0.5512663722038269 0.83662176132202148
0.92866283655166626 0.55255991220474243 0.83325839042663574
0.12007761001586914 0.7407066822052002 0.79922384023666382
0.17284859716892242 0.77386981248855591 0.83191037178039551
0.51107019186019897 0.78310871124267578 0.83596813678741455
0.83204656839370728 0.77301883697509766 0.84321892261505127
0.9338916540145874 0.77683824300765991 0.84450578689575195
0.14009396731853485 0.8614991307258606 0.8188316822052002
0.20097585022449493 0.88642430305480957 0.8424791693687439
0.54232704639434814 0.89893108606338501 0.8592456579208374
0.84918296337127686 0.91141068935394287 0.86725896596908569
0.94415616989135742 0.91637390851974487 0.87155956029891968
