snapseed-lut/snapseed-film-a03.cube
# Created by: G'MIC (https://gmic.eu)
TITLE "snapseed-fim-a03"
# LUT size
LUT_3D_SIZE 5
# Data domain
# LUT data points
DOMAIN_MIN 0.000000 0.000000 0.000000
DOMAIN_MAX 0.903226 0.903226 0.903226
0.024264706298708916 0.059191174805164337 0.11776960641145706
0.069689542055130005 0.071119286119937897 0.13049428164958954
0.3329043984413147 0.038848038762807846 0.15024510025978088
0.57984066009521484 0.051776960492134094 0.16887255012989044
0.81917893886566162 0.062745101749897003 0.18995098769664764
0.046078432351350784 0.17859476804733276 0.22481617331504822
0.11345315724611282 0.20853757858276367 0.21990741789340973
0.45647469162940979 0.17902368307113647 0.18078023195266724
0.69379079341888428 0.11047793924808502 0.15298201143741608
0.91094774007797241 0.054227940738201141 0.15520833432674408
0.049632351845502853 0.49620097875595093 0.36127451062202454
0.073100492358207703 0.5177491307258606 0.37197712063789368
0.47879901528358459 0.51868873834609985 0.30692401528358459
0.75759804248809814 0.48529410362243652 0.21587009727954865
0.97354984283447266 0.46276551485061646 0.15087828040122986
0.17426469922065735 0.74877452850341797 0.51495099067687988
0.25837421417236328 0.78133165836334229 0.54573118686676025
0.50833332538604736 0.77426469326019287 0.51262253522872925
0.74828433990478516 0.77261030673980713 0.42113971710205078
0.96249997615814209 0.76019203662872314 0.2920343279838562
0.69017559289932251 0.93698936700820923 0.78776556253433228
0.69122415781021118 0.94428783655166626 0.79475760459899902
0.74393379688262939 0.93696898221969604 0.78073936700820923
0.82589870691299438 0.93043303489685059 0.74605798721313477
0.9304739236831665 0.92963647842407227 0.66749727725982666
0.023366013541817665 0.078063726425170898 0.19011437892913818
0.074353210628032684 0.087241284549236298 0.19470995664596558
0.31742238998413086 0.054044116288423538 0.18035130202770233
0.5600695013999939 0.067299827933311462 0.18178105354309082
0.78276818990707397 0.081072986125946045 0.18877315521240234
0.046609479933977127 0.18936547636985779 0.31938996911048889
0.13799019157886505 0.22440314292907715 0.32946169376373291
0.45356756448745728 0.1811751127243042 0.28278869390487671
0.70076256990432739 0.12952069938182831 0.22282816469669342
0.92919385433197021 0.10071487724781036 0.18073484301567078
0.056413400918245316 0.50545340776443481 0.45077615976333618
0.18635620176792145 0.53208059072494507 0.47851988673210144
0.49581292271614075 0.52393794059753418 0.43139299750328064
0.75275737047195435 0.4856821596622467 0.35275736451148987
0.9677014946937561 0.45827206969261169 0.25506535172462463
0.27020016312599182 0.77487742900848389 0.61323529481887817
0.37693354487419128 0.78822165727615356 0.63475626707077026
0.5421568751335144 0.77687913179397583 0.6034926176071167
0.75412583351135254 0.77430558204650879 0.53449755907058716
0.96013754606246948 0.75873494148254395 0.43453839421272278
0.69174158573150635 0.93561410903930664 0.8137391209602356
0.71549344062805176 0.9418799877166748 0.8303716778755188
0.76399105787277222 0.93730252981185913 0.82064270973205566
0.83242785930633545 0.93110698461532593 0.79351174831390381
0.92980664968490601 0.93005627393722534 0.7316516637802124
0.026164215058088303 0.10729166865348816 0.33235293626785278
0.11546159535646439 0.13737745583057404 0.33974674344062805
0.37947303056716919 0.085539214313030243 0.30857843160629272
0.55447304248809814 0.066299021244049072 0.27665442228317261
0.7834354043006897 0.080616824328899384 0.24583333730697632
0.049285128712654114 0.22240602970123291 0.46968954801559448
0.19055011868476868 0.27909860014915466 0.50319993495941162
0.51309233903884888 0.26866832375526428 0.46913805603981018
0.68995100259780884 0.15710784494876862 0.37442812323570251
0.91718417406082153 0.08611791580915451 0.29089054465293884
0.069730393588542938 0.49356618523597717 0.55637252330780029
0.20763888955116272 0.53257757425308228 0.59421974420547485
0.50882351398468018 0.53970587253570557 0.57064950466156006
0.73609066009521484 0.48835784196853638 0.5060049295425415
0.95606619119644165 0.44824343919754028 0.41960784792900085
0.36850491166114807 0.79050242900848389 0.7186274528503418
0.44285127520561218 0.80008172988891602 0.7318422794342041
0.59436273574829102 0.78952205181121826 0.71176469326019287
0.76979166269302368 0.78020834922790527 0.66482841968536377
0.95392155647277832 0.76043707132339478 0.58255720138549805
0.70130717754364014 0.93611115217208862 0.85494279861450195
0.71599948406219482 0.947052001953125 0.86510759592056274
0.78588640689849854 0.93868464231491089 0.86868870258331299
0.85220587253570557 0.93366014957427979 0.85657685995101929
0.93573659658432007 0.93371462821960449 0.81536632776260376
0.028982842341065407 0.15949754416942596 0.49289214611053467
0.21787174046039581 0.20618872344493866 0.52254903316497803
0.46084558963775635 0.24025735259056091 0.50925242900848389
0.65747547149658203 0.19215686619281769 0.46133577823638916
0.77375411987304688 0.085906863212585449 0.37448939681053162
0.072406046092510223 0.29164624214172363 0.64889705181121826
0.29601716995239258 0.34215685725212097 0.67653870582580566
0.57904410362243652 0.39189136028289795 0.66211193799972534
0.80947709083557129 0.3555351197719574 0.60283905267715454
0.95060592889785767 0.20678102970123291 0.50546026229858398
0.067524507641792297 0.50085783004760742 0.68633580207824707
0.24023693799972534 0.52941179275512695 0.70586186647415161
0.55563724040985107 0.58437502384185791 0.7188725471496582
0.78541666269302368 0.59712010622024536 0.69742649793624878
0.93417072296142578 0.46055960655212402 0.58129078149795532
0.35563725233078003 0.76997548341751099 0.7872549295425415
0.43071895837783813 0.78184235095977783 0.79873371124267578
0.59405636787414551 0.78363972902297974 0.79368871450424194
0.77542895078659058 0.78547793626785278 0.78100490570068359
0.93529409170150757 0.73982840776443481 0.71290844678878784
0.74730390310287476 0.94262659549713135 0.91211193799972534
0.75409859418869019 0.94755584001541138 0.91712963581085205
0.8103758692741394 0.94091099500656128 0.9145016074180603
0.86619693040847778 0.93578433990478516 0.90091913938522339
0.93895012140274048 0.93578433990478516 0.88444310426712036
0.15308414399623871 0.24123774468898773 0.62808418273925781
0.31919252872467041 0.30189952254295349 0.67022740840911865
0.55761843919754028 0.40008169412612915 0.69640523195266724
0.72914624214172363 0.37165030837059021 0.65986520051956177
0.87305283546447754 0.38688042759895325 0.61736792325973511
0.29590821266174316 0.38291123509407043 0.78896379470825195
0.41607436537742615 0.41763797402381897 0.81452661752700806
0.64557456970214844 0.48060321807861328 0.80762535333633423
0.83617240190505981 0.48366010189056396 0.77652502059936523
0.98925197124481201 0.4983183741569519 0.73278415203094482
0.25935456156730652 0.5437091588973999 0.80435049533843994
0.38794934749603271 0.58569574356079102 0.84224534034729004
0.63000404834747314 0.63839864730834961 0.85292071104049683
0.83602941036224365 0.70770013332366943 0.85461598634719849
0.95967453718185425 0.68963778018951416 0.81207787990570068
0.39859068393707275 0.76658493280410767 0.8689950704574585
0.4514433741569519 0.77141880989074707 0.8767428994178772
0.58323127031326294 0.76572710275650024 0.86139708757400513
0.79450571537017822 0.81080472469329834 0.87220185995101929
0.9282066822052002 0.83158361911773682 0.87040442228317261
0.73201936483383179 0.92881268262863159 0.93600219488143921
0.74111747741699219 0.93340593576431274 0.9407271146774292
0.79238152503967285 0.93353760242462158 0.93830341100692749
0.86488288640975952 0.93787449598312378 0.9440155029296875
0.93942451477050781 0.94029140472412109 0.93265706300735474
