snapseed-lut/snapseed-film-l03.cube
# Created by: G'MIC (https://gmic.eu)
TITLE "snapseed-film-l03"
# LUT size
LUT_3D_SIZE 32
# Data domain
DOMAIN_MIN 0.0 0.0 0.0
DOMAIN_MAX 1.0 1.0 1.0
# LUT data points
0.034558825194835663 0.11685048788785934 0.022120097652077675
0.014154411852359772 0.13057598471641541 0.025306371971964836
0.016891341656446457 0.13012662529945374 0.023856207728385925
0.020016340538859367 0.13110701739788055 0.023100489750504494
0.02659313753247261 0.12916666269302368 0.022610293701291084
0.039256531745195389 0.13537581264972687 0.02201797254383564
0.068750001490116119 0.13884803652763367 0.021262254565954208
0.1090686246752739 0.14174835383892059 0.021589051932096481
0.15484069287776947 0.14595587551593781 0.022303922101855278
0.19415847957134247 0.14593544602394104 0.021241830661892891
0.24295343458652496 0.14387254416942596 0.02083333395421505
0.2855800986289978 0.14274917542934418 0.021303104236721992
0.32738971710205078 0.13890931010246277 0.019485294818878174
0.37038400769233704 0.13406862318515778 0.018423201516270638
0.40202206373214722 0.13296568393707275 0.017524510622024536
0.43944033980369568 0.12926878035068512 0.01666666753590107
0.47389706969261169 0.12628675997257233 0.014317810535430908
0.50980395078659058 0.12261029332876205 0.01354166679084301
0.5382760763168335 0.11950571835041046 0.013807189650833607
0.57236522436141968 0.11678921431303024 0.012622549198567867
0.60020428895950317 0.11390931159257889 0.011805555783212185
0.62892156839370728 0.11090686172246933 0.012009804137051105
0.65549421310424805 0.10761845856904984 0.011662581004202366
0.67549020051956177 0.10747548937797546 0.010049019940197468
0.70030635595321655 0.10200162976980209 0.0093954242765903473
0.71789216995239258 0.099203430116176605 0.010294117964804173
0.73866420984268188 0.095710784196853638 0.0093750003725290298
0.75680148601531982 0.094362743198871613 0.0087622553110122681
0.77867645025253296 0.093178108334541321 0.0084967315196990967
0.79795747995376587 0.092606201767921448 0.0085171572864055634
0.8183823823928833 0.090134806931018829 0.007475490216165781
0.79442399740219116 0.10496323555707932 0.013602941296994686
0.038725491613149643 0.11874999850988388 0.020649509504437447
0.012622549198567867 0.13474264740943909 0.024632353335618973
0.015461601316928864 0.13635621964931488 0.024468954652547836
0.01854575052857399 0.13617238402366638 0.023284314200282097
0.024693626910448074 0.13498774170875549 0.02187499962747097
0.032250817865133286 0.14033906161785126 0.020608657971024513
0.057720586657524109 0.14399509131908417 0.02028186246752739
0.099857032299041748 0.14654819667339325 0.021303104236721992
0.14374999701976776 0.15024510025978088 0.021568628028035164
0.1820465624332428 0.1512867659330368 0.021139705553650856
0.23008579015731812 0.14975489675998688 0.019852941855788231
0.27269196510314941 0.14940768480300903 0.01805555634200573
0.31470587849617004 0.1456495076417923 0.016850490123033524
0.35857844352722168 0.14131943881511688 0.015584150329232216
0.3907475471496582 0.13964460790157318 0.015318627469241619
0.4288194477558136 0.13678513467311859 0.014869281090795994
0.46215277910232544 0.13253676891326904 0.011825980618596077
0.5 0.12769608199596405 0.011580882593989372
0.53033089637756348 0.12367238849401474 0.011335784569382668
0.56525737047195435 0.12064950913190842 0.010110294446349144
0.59483247995376587 0.11725898832082748 0.0095792477950453758
0.62071079015731812 0.11678921431303024 0.0096813729032874107
0.6470792293548584 0.11335784196853638 0.0091094775125384331
0.66801470518112183 0.11249999701976776 0.008394608274102211
0.69264703989028931 0.10612744837999344 0.0081699350848793983
0.71035540103912354 0.10306372493505478 0.007475490216165781
0.73116827011108398 0.09971405565738678 0.0065359482541680336
0.74969363212585449 0.097242645919322968 0.0056985295377671719
0.77038395404815674 0.09685458242893219 0.0061478759162127972
0.79140108823776245 0.09640522301197052 0.0062091504223644733
0.80949753522872925 0.094178922474384308 0.0050857844762504101
0.78682595491409302 0.10894607752561569 0.010232843458652496
0.036805551499128342 0.11695262044668198 0.03958333283662796
0.018382353708148003 0.12716503441333771 0.041299019008874893
0.021997548639774323 0.12602804601192474 0.039208877831697464
0.027818627655506134 0.12619143724441528 0.037214051932096481
0.039338234812021255 0.12428513169288635 0.035661764442920685
0.050054464489221573 0.1283496618270874 0.033217590302228928
0.071282677352428436 0.13178104162216187 0.032475490123033524
0.11126089841127396 0.13193763792514801 0.031379356980323792
0.15422794222831726 0.13408906757831573 0.031801469624042511
0.19268789887428284 0.13630174100399017 0.029936002567410469
0.24056372046470642 0.13513073325157166 0.029534313827753067
0.28475627303123474 0.13429330289363861 0.028016068041324615
0.32767567038536072 0.13257761299610138 0.026981210336089134
0.37347495555877686 0.12896923720836639 0.024775326251983643
0.40665853023529053 0.124754898250103 0.024897877126932144
0.44510486721992493 0.12112609297037125 0.023631537333130836
0.47840413451194763 0.11781045794487 0.019818900153040886
0.5156862735748291 0.11429738998413086 0.018484478816390038
0.54413813352584839 0.11179874837398529 0.018150871619582176
0.57832920551300049 0.10716911405324936 0.016401145607233047
0.60664492845535278 0.10365605354309082 0.014317810535430908
0.63143384456634521 0.10208333283662796 0.013562092557549477
0.65898686647415161 0.098474949598312378 0.012527232989668846
0.6791871190071106 0.096466496586799622 0.010702613741159439
0.70551472902297974 0.091156050562858582 0.0097698802128434181
0.72077208757400513 0.088786765933036804 0.0084763066843152046
0.74388617277145386 0.086853206157684326 0.0071486933156847954
0.76272463798522949 0.084865197539329529 0.006086601410061121
0.78357845544815063 0.082094229757785797 0.0066108391620218754
0.80337011814117432 0.079840689897537231 0.0068967859260737896
0.82256948947906494 0.077634803950786591 0.0047385618090629578
0.81055968999862671 0.087683826684951782 0.011254084296524525
0.085110291838645935 0.078513063490390778 0.082046568393707275
0.047038394957780838 0.092401959002017975 0.096200980246067047
0.054513890296220779 0.086996190249919891 0.088425926864147186
0.06645561009645462 0.084517970681190491 0.082768246531486511
0.090236932039260864 0.080044932663440704 0.079411767423152924
0.11320807039737701 0.081781052052974701 0.07499319314956665
0.14562907814979553 0.083047389984130859 0.070935465395450592
0.18825572729110718 0.081420212984085083 0.070928655564785004
0.2344362735748291 0.083374187350273132 0.07256944477558136
0.27535399794578552 0.084041401743888855 0.067640252411365509
0.32600083947181702 0.083741836249828339 0.06821894645690918
0.36748367547988892 0.083605661988258362 0.067578978836536407
0.40925246477127075 0.082495912909507751 0.065584145486354828
0.45117104053497314 0.081556372344493866 0.060253269970417023
0.48184233903884888 0.081045754253864288 0.060110293328762054
0.51820534467697144 0.077825434505939484 0.0578499436378479
0.55103486776351929 0.074298746883869171 0.050435729324817657
0.58760213851928711 0.070710785686969757 0.04846813902258873
0.61484891176223755 0.068464048206806183 0.045424837619066238
0.64830476045608521 0.064419932663440704 0.041809644550085068
0.67551064491271973 0.060634531080722809 0.038623366504907608
0.70142972469329834 0.059272877871990204 0.035437092185020447
0.72741693258285522 0.056202340871095657 0.031753811985254288
0.74511843919754028 0.053696896880865097 0.026899509131908417
0.77008438110351562 0.049407683312892914 0.024434912949800491
0.78786766529083252 0.047283496707677841 0.022303922101855278
0.8100285530090332 0.046105664223432541 0.019526144489645958
0.82879900932312012 0.045731209218502045 0.017218137159943581
0.84801197052001953 0.041550926864147186 0.01527777872979641
0.86727941036224365 0.037901688367128372 0.012833606451749802
0.888255774974823 0.038031045347452164 0.0096405232325196266
0.86507350206375122 0.052512254565954208 0.027614379301667213
0.092524506151676178 0.1094975471496582 0.09797794371843338
0.052144609391689301 0.12199755012989044 0.11035539209842682
0.058353755623102188 0.11299019306898117 0.098284311592578888
0.067749187350273132 0.10653595626354218 0.091544114053249359
0.086642153561115265 0.097058825194835663 0.083088234066963196
0.10878267139196396 0.09959150105714798 0.078615196049213409
0.13988970220088959 0.10079656541347504 0.072916664183139801
0.18372140824794769 0.098713234066963196 0.075674019753932953
0.23082107305526733 0.10183823853731155 0.076348036527633667
0.27162989974021912 0.10492238402366638 0.07352941483259201
0.32193627953529358 0.10600490123033524 0.072794117033481598
0.36556372046470642 0.1077614352107048 0.072732843458652496
0.40625 0.10477941483259201 0.067892156541347504
0.4482843279838562 0.10257352888584137 0.063868463039398193
0.48198530077934265 0.10312499850988388 0.06354166567325592
0.52093547582626343 0.099816173315048218 0.060580063611268997
0.55404412746429443 0.097120098769664764 0.055759802460670471
0.59142154455184937 0.094730392098426819 0.052696079015731812
0.61893379688262939 0.093443624675273895 0.048447709530591965
0.65367645025253296 0.090012252330780029 0.047732844948768616
0.68276137113571167 0.086989372968673706 0.043790850788354874
0.70863968133926392 0.08492647111415863 0.040563724935054779
0.73361921310424805 0.080167479813098907 0.036785133183002472
0.75306373834609985 0.077450983226299286 0.030943626537919044
0.7785334587097168 0.072324343025684357 0.026817811653017998
0.79491418600082397 0.071691177785396576 0.026348039507865906
0.81754499673843384 0.070465683937072754 0.02416258305311203
0.83621323108673096 0.067340686917304993 0.021323530003428459
0.85479980707168579 0.063786767423152924 0.018729576840996742
0.87314134836196899 0.059824347496032715 0.015379901975393295
0.89417892694473267 0.05784313753247261 0.012867647223174572
0.87064951658248901 0.072303920984268188 0.031004901975393295
0.089542485773563385 0.1439133882522583 0.11325572431087494
0.054330065846443176 0.15171568095684052 0.12144608050584793
0.059974130243062973 0.1397535502910614 0.10744144767522812
0.067960239946842194 0.13228486478328705 0.09694989025592804
0.085518792271614075 0.12250816822052002 0.088868461549282074
0.10834694653749466 0.12235157936811447 0.08342183381319046
0.14060457050800323 0.12263071537017822 0.077144607901573181
0.18259122967720032 0.12136438488960266 0.079779408872127533
0.22790032625198364 0.12426470220088959 0.080984480679035187
0.27132353186607361 0.12855392694473267 0.079690910875797272
0.32383579015731812 0.1288398802280426 0.078390516340732574
0.36865466833114624 0.12894879281520844 0.076776959002017975
0.40759804844856262 0.12824754416942596 0.07207924872636795
0.44778048992156982 0.12607571482658386 0.068089596927165985
0.48394608497619629 0.12573529779911041 0.065298207104206085
0.52276009321212769 0.12281454354524612 0.06263616681098938
0.5578499436378479 0.12256263941526413 0.058169934898614883
0.59538400173187256 0.1199754923582077 0.056290846318006516
0.62492507696151733 0.11890658736228943 0.052886709570884705
0.65902775526046753 0.11580882221460342 0.050347220152616501
0.6873093843460083 0.11232978850603104 0.047446899116039276
0.71411353349685669 0.11023284494876862 0.042463235557079315
0.7418028712272644 0.10553512722253799 0.038201253861188889
0.76076388359069824 0.10273692756891251 0.032741010189056396
0.78703027963638306 0.098760895431041718 0.030582789331674576
0.8041871190071106 0.09693627804517746 0.028799019753932953
0.82555145025253296 0.095404408872127533 0.026143793016672134
0.84323936700820923 0.092851303517818451 0.02277369424700737
0.86436545848846436 0.088153593242168427 0.020738018676638603
0.88307458162307739 0.084368191659450531 0.018845314159989357
0.90161359310150146 0.08102533221244812 0.013459966517984867
0.88856214284896851 0.09105391800403595 0.026817811653017998
0.10539215803146362 0.18100489675998688 0.12438725680112839
0.062622547149658203 0.19148284196853638 0.13443627953529358
0.069505713880062103 0.18026961386203766 0.12160947918891907
0.077471405267715454 0.17116014659404755 0.11327614635229111
0.093627452850341797 0.15827205777168274 0.10355392098426819
0.11717729270458221 0.15553514659404755 0.095036767423152924
0.14963234961032867 0.15159313380718231 0.088296569883823395
0.1890522837638855 0.15508578717708588 0.089603759348392487
0.23670342564582825 0.15808823704719543 0.093259803950786591
0.28063726425170898 0.16082514822483063 0.089685454964637756
0.33492645621299744 0.1615196019411087 0.091421566903591156
0.37810459733009338 0.16184641420841217 0.088582515716552734
0.41513481736183167 0.16182598471641541 0.085968136787414551
0.45371732115745544 0.16039623320102692 0.078982844948768616
0.4898284375667572 0.15955881774425507 0.07542891800403595
0.53086191415786743 0.15767975151538849 0.072691991925239563
0.56484889984130859 0.15708743035793304 0.068913400173187256
0.60171568393707275 0.15386030077934265 0.066360294818878174
0.63035130500793457 0.15130719542503357 0.060988564044237137
0.66439950466156006 0.14975489675998688 0.059742648154497147
0.69409716129302979 0.14726307988166809 0.056331701576709747
0.72714459896087646 0.14485293626785278 0.050428923219442368
0.75551468133926392 0.14093136787414551 0.047222219407558441
0.7753676176071167 0.13927696645259857 0.041666667908430099
0.80046975612640381 0.13555964827537537 0.038521241396665573
0.81697303056716919 0.13308823108673096 0.037316177040338516
0.83766335248947144 0.1288398802280426 0.033435460180044174
0.85422796010971069 0.12585784494876862 0.027144607156515121
0.8751225471496582 0.12316176295280457 0.02500000037252903
0.89536362886428833 0.11834149807691574 0.022058824077248573
0.91397058963775635 0.11562500149011612 0.01825980469584465
0.88982844352722168 0.1302083283662796 0.03694852814078331
0.10992646962404251 0.21542075276374817 0.1356004923582077
0.06713644415140152 0.22412171959877014 0.14634394645690918
0.075612746179103851 0.21230937540531158 0.133183553814888
0.084300115704536438 0.20187228918075562 0.12342727929353714
0.10122548788785934 0.1906658411026001 0.11270423978567123
0.12205882370471954 0.18716640770435333 0.10369008779525757
0.15167485177516937 0.18355800211429596 0.094219766557216644
0.19280365109443665 0.18519198894500732 0.1005718931555748
0.23911355435848236 0.18831700086593628 0.10347222536802292
0.28459969162940979 0.1912786066532135 0.10115060210227966
0.33825570344924927 0.19111520051956177 0.1007557213306427
0.38205340504646301 0.19153730571269989 0.098359204828739166
0.42044529318809509 0.19127859175205231 0.094383165240287781
0.45941588282585144 0.19151006639003754 0.089596949517726898
0.49295341968536377 0.18966503441333771 0.084007352590560913
0.53140658140182495 0.18729573488235474 0.080501094460487366
0.56828707456588745 0.18848720192909241 0.077770963311195374
0.60571897029876709 0.18615196645259857 0.074264705181121826
0.63313585519790649 0.18399374186992645 0.06840958446264267
0.66768795251846313 0.18047384917736053 0.064113564789295197
0.69513201713562012 0.17781862616539001 0.060634531080722809
0.72922796010971069 0.17469362914562225 0.058415036648511887
0.75723719596862793 0.17001634836196899 0.053240742534399033
0.78035128116607666 0.16940359771251678 0.04965277761220932
0.80590963363647461 0.16403867304325104 0.044859748333692551
0.82303923368453979 0.16115196049213409 0.042116016149520874
0.84474402666091919 0.15842865407466888 0.038657408207654953
0.86256128549575806 0.15586192905902863 0.03408905491232872
0.88336062431335449 0.15200844407081604 0.032060187309980392
0.9025871753692627 0.14799836277961731 0.0300721675157547
0.92216098308563232 0.14538398385047913 0.025224674493074417
0.90420746803283691 0.15716911852359772 0.03937908262014389
0.10698529332876205 0.25870096683502197 0.16029411554336548
0.07401961088180542 0.26262253522872925 0.16446077823638916
0.081801474094390869 0.24997957050800323 0.15063317120075226
0.089481212198734283 0.24078838527202606 0.13856208324432373
0.10772059112787247 0.22971813380718231 0.12935048341751099
0.13084149360656738 0.22559231519699097 0.12001633644104004
0.16348038613796234 0.22052696347236633 0.11243872344493866
0.20071487128734589 0.22199754416942596 0.1131535992026329
0.24644607305526733 0.22475489974021912 0.1147058829665184
0.29033902287483215 0.22663399577140808 0.11235702782869339
0.34442400932312012 0.22616422176361084 0.11286764591932297
0.38991010189056396 0.2270628958940506 0.1078227162361145
0.42702206969261169 0.2289215624332428 0.10496323555707932
0.4644811749458313 0.22937092185020447 0.10185866057872772
0.5000612735748291 0.22769607603549957 0.094485297799110413
0.54046159982681274 0.22638888657093048 0.09064541757106781
0.57326382398605347 0.22481617331504822 0.086805552244186401
0.61237746477127075 0.22181372344493866 0.083823531866073608
0.64240193367004395 0.21756534278392792 0.075796566903591156
0.67493873834609985 0.21537990868091583 0.073713235557079315
0.70404410362243652 0.21280637383460999 0.069607846438884735
0.73547792434692383 0.20876225829124451 0.062745101749897003
0.7633170485496521 0.20500408113002777 0.057863563299179077
0.78382354974746704 0.20337009429931641 0.05257352814078331
0.81084561347961426 0.19993872940540314 0.048794932663440704
0.82977938652038574 0.19718137383460999 0.047794118523597717
0.85102123022079468 0.19434231519699097 0.045118462294340134
0.86807596683502197 0.19209559261798859 0.040379900485277176
0.89029824733734131 0.18733660876750946 0.037418298423290253
0.91023284196853638 0.18382352590560913 0.035171568393707275
0.93033087253570557 0.18069852888584137 0.031311273574829102
0.90539216995239258 0.19528186321258545 0.050980392843484879
0.12242647260427475 0.28993058204650879 0.16235701739788055
0.078921571373939514 0.29765114188194275 0.17140522599220276
0.086383447051048279 0.2852192223072052 0.15720996260643005
0.09581291675567627 0.27578973770141602 0.14807327091693878
0.11431780457496643 0.26558417081832886 0.13870507478713989
0.13651961088180542 0.26023966073989868 0.12873774766921997
0.16762661933898926 0.255330890417099 0.11850490421056747
0.20298883318901062 0.25604575872421265 0.11962146311998367
0.24793709814548492 0.25782272219657898 0.12026143819093704
0.29412445425987244 0.25858524441719055 0.11787854135036469
0.3490196168422699 0.25678104162216187 0.11846404522657394
0.39506399631500244 0.25832653045654297 0.11803513020277023
0.43353757262229919 0.26058009266853333 0.11750409007072449
0.47148692607879639 0.26149237155914307 0.11375272274017334
0.50612747669219971 0.25976309180259705 0.10479982942342758
0.5455814003944397 0.2587418258190155 0.10223992168903351
0.5783156156539917 0.25804060697555542 0.097678378224372864
0.61623775959014893 0.25588235259056091 0.093770422041416168
0.64454656839370728 0.25394880771636963 0.087071076035499573
0.67691999673843384 0.24971404671669006 0.082598038017749786
0.70445257425308228 0.24701797962188721 0.077308006584644318
0.7392769455909729 0.24133987724781036 0.070547379553318024
0.76887935400009155 0.23580473661422729 0.063820801675319672
0.79097217321395874 0.23566175997257233 0.058272060006856918
0.81697303056716919 0.2322031706571579 0.054275598376989365
0.83580476045608521 0.23080064356327057 0.052593953907489777
0.85790443420410156 0.22824755311012268 0.049455337226390839
0.87657266855239868 0.22567401826381683 0.046241827309131622
0.89739924669265747 0.22095587849617004 0.044458061456680298
0.91740876436233521 0.21749728918075562 0.04159858450293541
0.93694853782653809 0.21437908709049225 0.037132352590560913
0.91139703989028931 0.22924835979938507 0.056433822959661484
0.1145220622420311 0.33192402124404907 0.17916665971279144
0.08223038911819458 0.33572304248809814 0.18523284792900085
0.092810451984405518 0.32344773411750793 0.17138479650020599
0.1025531068444252 0.3144199550151825 0.16004902124404907
0.1198529377579689 0.30404412746429443 0.14981617033481598
0.14027777314186096 0.29828432202339172 0.13713234663009644
0.16954657435417175 0.29178920388221741 0.12598039209842682
0.20578022301197052 0.29123774170875549 0.12763480842113495
0.25245097279548645 0.29307597875595093 0.12886029481887817
0.29789626598358154 0.29303514957427979 0.12608252465724945
0.35318627953529358 0.28988969326019287 0.12561275064945221
0.39836600422859192 0.29323938488960266 0.12663397192955017
0.43786764144897461 0.29644608497619629 0.12616421282291412
0.47653186321258545 0.2981208860874176 0.12446895241737366
0.50796568393707275 0.30024510622024536 0.11636029183864594
0.54828429222106934 0.30012255907058716 0.1147058829665184
0.58316993713378906 0.3007761538028717 0.10990604013204575
0.6200980544090271 0.29938724637031555 0.10753676295280457
0.6503063440322876 0.29636436700820923 0.10004084557294846
0.68370097875595093 0.29368871450424194 0.097120098769664764
0.71184641122817993 0.29195261001586914 0.09375
0.74656862020492554 0.28786763548851013 0.086703434586524963
0.77714461088180542 0.28351715207099915 0.083108656108379364
0.79785537719726562 0.28278186917304993 0.076654411852359772
0.82330477237701416 0.27502039074897766 0.067647062242031097
0.84276962280273438 0.27175244688987732 0.065257355570793152
0.86458331346511841 0.26756536960601807 0.061642155051231384
0.88321077823638916 0.26537990570068359 0.057046569883823395
0.90465688705444336 0.26129493117332458 0.053921569138765335
0.9252246618270874 0.25759804248809814 0.052022058516740799
0.94466912746429443 0.25428920984268188 0.047549020498991013
0.93008577823638916 0.26384803652763367 0.060477942228317261
0.12691992521286011 0.36456289887428284 0.18478348851203918
0.08492647111415863 0.37477535009384155 0.19818219542503357
0.095404408872127533 0.36356207728385925 0.18432733416557312
0.10382624715566635 0.35455474257469177 0.17185458540916443
0.12120097875595093 0.34360700845718384 0.15819036960601807
0.14166666567325592 0.33720725774765015 0.14656862616539001
0.17099674046039581 0.33000409603118896 0.13472221791744232
0.20974946022033691 0.3298611044883728 0.13527369499206543
0.25716912746429443 0.33225083351135254 0.13813316822052002
0.30174291133880615 0.33151552081108093 0.13376225531101227
0.35482025146484375 0.32847225666046143 0.13500818610191345
0.40170887112617493 0.33115467429161072 0.13871867954730988
0.44123774766921997 0.33402776718139648 0.13827614486217499
0.48038533329963684 0.33724129199981689 0.13685320317745209
0.51468539237976074 0.33821490406990051 0.12745098769664764
0.5553784966468811 0.33859610557556152 0.12526552379131317
0.58954930305480957 0.34005311131477356 0.12415576726198196
0.62630724906921387 0.33917483687400818 0.12093545496463776
0.65354710817337036 0.33802425861358643 0.11341911554336548
0.68819445371627808 0.33717319369316101 0.11088643223047256
0.71712970733642578 0.33640387654304504 0.1065836101770401
0.75273686647415161 0.33247548341751099 0.10071486979722977
0.78392565250396729 0.32956153154373169 0.094546571373939514
0.80477941036224365 0.32736930251121521 0.087295748293399811
0.8292006254196167 0.320057213306427 0.080364920198917389
0.84591507911682129 0.31419527530670166 0.073202617466449738
0.86928784847259521 0.31072303652763367 0.070377178490161896
0.88752049207687378 0.30882352590560913 0.06631944328546524
0.91075032949447632 0.30420750379562378 0.063024237751960754
0.93080741167068481 0.30091911554336548 0.060505170375108719
0.95128679275512695 0.29767155647277832 0.056086599826812744
0.92469364404678345 0.31235703825950623 0.075102120637893677
0.1305147111415863 0.40006127953529358 0.19234068691730499
0.089399509131908417 0.40943628549575806 0.20435048639774323
0.098733656108379364 0.39844769239425659 0.18866421282291412
0.10863970220088959 0.3895016610622406 0.17704249918460846
0.12438725680112839 0.37867647409439087 0.16268382966518402
0.14419935643672943 0.37222221493721008 0.15004083514213562
0.17242647707462311 0.36568626761436462 0.13866421580314636
0.21033495664596558 0.36760622262954712 0.14070668816566467
