snapseed-lut/snapseed-film-l03.cube
# Created by: G'MIC (https://gmic.eu)
TITLE "snapseed-film-l03"
# LUT size
LUT_3D_SIZE 5
# Data domain
# LUT data points
DOMAIN_MIN 0.000000 0.000000 0.000000
DOMAIN_MAX 0.903226 0.903226 0.903226
0.034558825194835663 0.11685048788785934 0.022120097652077675
0.1090686246752739 0.14174835383892059 0.021589051932096481
0.40202206373214722 0.13296568393707275 0.017524510622024536
0.62892156839370728 0.11090686172246933 0.012009804137051105
0.77867645025253296 0.093178108334541321 0.0084967315196990967
0.10992646962404251 0.21542075276374817 0.1356004923582077
0.19280365109443665 0.18519198894500732 0.1005718931555748
0.49295341968536377 0.18966503441333771 0.084007352590560913
0.72922796010971069 0.17469362914562225 0.058415036648511887
0.88336062431335449 0.15200844407081604 0.032060187309980392
0.13419117033481598 0.46985295414924622 0.20410539209842682
0.21362337470054626 0.44560864567756653 0.15294118225574493
0.52346813678741455 0.447794109582901 0.15042892098426819
0.75557595491409302 0.44356617331504822 0.12567402422428131
0.92681777477264404 0.42412170767784119 0.091973036527633667
0.12089461088180542 0.69999998807907104 0.21084558963775635
0.16233660280704498 0.69268792867660522 0.14434230327606201
0.50870096683502197 0.69754904508590698 0.15275734663009644
0.73982840776443481 0.6778799295425415 0.14283087849617004
0.91654413938522339 0.66917890310287476 0.12342727929353714
0.11348038911819458 0.86070263385772705 0.17350898683071136
0.10420752316713333 0.88456565141677856 0.11512119323015213
0.44309642910957336 0.89366829395294189 0.10363561660051346
0.71813726425170898 0.86464458703994751 0.11719771474599838
0.88901823759078979 0.83706426620483398 0.10729166865348816
0.026062091812491417 0.20571896433830261 0.16425652801990509
0.1299632340669632 0.21761983633041382 0.1675925999879837
0.40445259213447571 0.21821896731853485 0.14111520349979401
0.62216097116470337 0.19205473363399506 0.12553103268146515
0.76636713743209839 0.17120097577571869 0.10189951211214066
0.16105663776397705 0.33818084001541138 0.36237064003944397
0.25519698858261108 0.27745550870895386 0.29502540826797485
0.53250956535339355 0.26229575276374817 0.25934094190597534
0.75106215476989746 0.23433415591716766 0.22351579368114471
0.89719271659851074 0.2086828202009201 0.19155092537403107
0.183905228972435 0.58672386407852173 0.44217729568481445
0.27053377032279968 0.54112201929092407 0.36510074138641357
0.56660538911819458 0.5296364426612854 0.33811274170875549
0.79236114025115967 0.51893383264541626 0.30553510785102844
0.95010209083557129 0.49151688814163208 0.26267701387405396
0.17218136787414551 0.76666665077209473 0.4492851197719574
0.22471404075622559 0.75876224040985107 0.38722085952758789
0.53482437133789062 0.75725084543228149 0.34503677487373352
0.76795345544815063 0.73647874593734741 0.33523285388946533
0.93922251462936401 0.72218817472457886 0.29816177487373352
0.15367646515369415 0.88952207565307617 0.37406048178672791
0.16555237770080566 0.91840958595275879 0.34958013892173767
0.4593818187713623 0.93355119228363037 0.29493463039398193
0.73873913288116455 0.90716230869293213 0.30095994472503662
0.90486109256744385 0.87891024351119995 0.27687910199165344
0.08694852888584137 0.30563724040985107 0.42751225829124451
0.20700572431087494 0.30755719542503357 0.41450166702270508
0.45888480544090271 0.29779410362243652 0.38210785388946533
0.65232843160629272 0.27144607901573181 0.34791666269302368
0.78707104921340942 0.24585376679897308 0.32998368144035339
0.23523284494876862 0.45723038911819458 0.60494285821914673
0.33409586548805237 0.38788124918937683 0.54684096574783325
0.5863766074180603 0.36331698298454285 0.50482028722763062
0.78641754388809204 0.33525323867797852 0.4719158411026001
0.91861379146575928 0.30519470572471619 0.44139432907104492
0.2499387264251709 0.6924019455909729 0.69626224040985107
0.35888481140136719 0.65218544006347656 0.64744687080383301
0.60514706373214722 0.60790443420410156 0.58958333730697632
0.81599265336990356 0.58970588445663452 0.56078433990478516
0.97201800346374512 0.56292891502380371 0.51744276285171509
0.22236520051956177 0.82499998807907104 0.69313722848892212
0.30627039074897766 0.8184436559677124 0.66325575113296509
0.56421566009521484 0.80441176891326904 0.60845589637756348
0.7919730544090271 0.78805148601531982 0.5831494927406311
0.95680147409439087 0.76979166269302368 0.546875
0.20014297962188721 0.91505306959152222 0.6284109354019165
0.23315632343292236 0.93895012140274048 0.62075161933898926
0.49613970518112183 0.95202207565307617 0.57849264144897461
0.75 0.93878674507141113 0.54897880554199219
0.92017978429794312 0.91209155321121216 0.53212147951126099
0.16966912150382996 0.41795343160629272 0.64877450466156006
0.28468137979507446 0.4018586277961731 0.64178919792175293
0.5109068751335144 0.38976716995239258 0.6094975471496582
0.68308824300765991 0.35533088445663452 0.57046568393707275
0.80142968893051147 0.32520425319671631 0.53803098201751709
0.31039625406265259 0.55359476804733276 0.79624181985855103
0.40932735800743103 0.48557326197624207 0.76242512464523315
0.63839864730834961 0.4619280993938446 0.73439538478851318
0.81278598308563232 0.43133172392845154 0.70061272382736206
0.93796974420547485 0.39972767233848572 0.6701933741569519
0.31519606709480286 0.75667893886566162 0.85839462280273438
0.42516341805458069 0.71656453609466553 0.84403592348098755
0.64246320724487305 0.67156863212585449 0.80912989377975464
0.83063727617263794 0.64344364404678345 0.7765318751335144
0.97653186321258545 0.61958742141723633 0.74754899740219116
0.27267158031463623 0.87095588445663452 0.85643380880355835
0.3782271146774292 0.86503267288208008 0.85647469758987427
0.61188727617263794 0.84908086061477661 0.83437502384185791
0.80477941036224365 0.82193624973297119 0.79552698135375977
0.96529817581176758 0.79840683937072754 0.76866829395294189
0.2430555522441864 0.9334149956703186 0.81576800346374512
0.29952341318130493 0.95234203338623047 0.81875002384185791
0.54534316062927246 0.96217316389083862 0.80533087253570557
0.76006942987442017 0.96058005094528198 0.7720792293548584
0.92928922176361084 0.93476986885070801 0.74354571104049683
0.24654820561408997 0.51209151744842529 0.80857843160629272
0.35505172610282898 0.49147602915763855 0.80972898006439209
0.56764703989028931 0.47969770431518555 0.80040848255157471
0.71875 0.4484068751335144 0.76464462280273438
0.82241284847259521 0.41394335031509399 0.7310185432434082
0.37427830696105957 0.63749998807907104 0.92748504877090454
0.47030454874038696 0.56920844316482544 0.91918575763702393
0.67797523736953735 0.54116284847259521 0.90891200304031372
0.83911353349685669 0.51531177759170532 0.88182878494262695
0.94600576162338257 0.48907500505447388 0.8550494909286499
0.36664626002311707 0.7984885573387146 0.96002852916717529
0.47252178192138672 0.76648283004760742 0.96707510948181152
0.67060863971710205 0.71736115217208862 0.96309232711791992
0.8484681248664856 0.69428104162216187 0.94930553436279297
0.97267156839370728 0.66735434532165527 0.92085373401641846
0.32183414697647095 0.89683419466018677 0.9547998309135437
0.42860159277915955 0.88990336656570435 0.96852535009384155
0.64178919792175293 0.87277370691299438 0.98129081726074219
0.81846410036087036 0.84699755907058716 0.9646649956703186
0.96380722522735596 0.82426470518112183 0.9361451268196106
0.28449755907058716 0.94775331020355225 0.93022197484970093
0.36757445335388184 0.96442908048629761 0.94301468133926392
0.58278870582580566 0.9705473780632019 0.94778048992156982
0.77427154779434204 0.96556371450424194 0.94315767288208008
0.92768925428390503 0.94873589277267456 0.92420798540115356
