snapseed-lut/snapseed-film-l01.cube
# Created by: G'MIC (https://gmic.eu)
TITLE "snapseed-film-l01"
# LUT size
LUT_3D_SIZE 32
# Data domain
DOMAIN_MIN 0.0 0.0 0.0
DOMAIN_MAX 1.0 1.0 1.0
# LUT data points
0.2342524528503418 0.27904412150382996 0.21446079015731812
0.21875 0.28492647409439087 0.2237745076417923
0.21911764144897461 0.28488564491271973 0.22418299317359924
0.21973039209842682 0.28494688868522644 0.22328431904315948
0.22028186917304993 0.28486520051956177 0.22218137979507446
0.22171160578727722 0.28457921743392944 0.22193627059459686
0.22567401826381683 0.28615197539329529 0.2237132340669632
0.23433414101600647 0.28468137979507446 0.22577613592147827
0.24362744390964508 0.28749999403953552 0.22720588743686676
0.25894609093666077 0.29158499836921692 0.22969771921634674
0.27935048937797546 0.29718136787414551 0.23118872940540314
0.32036355137825012 0.30312499403953552 0.24205474555492401
0.3594975471496582 0.31219363212585449 0.25214460492134094
0.40786352753639221 0.32093545794487 0.25839459896087646
0.45502451062202454 0.33131128549575806 0.26587009429931641
0.50365608930587769 0.34305554628372192 0.26991420984268188
0.54205477237701416 0.35418707132339478 0.26584964990615845
0.58731615543365479 0.36427697539329529 0.26666668057441711
0.62267154455184937 0.37069037556648254 0.26672795414924622
0.65919119119644165 0.37990197539329529 0.26372548937797546
0.6853145956993103 0.38615196943283081 0.26376634836196899
0.71225488185882568 0.38909313082695007 0.26801469922065735
0.72900325059890747 0.38852125406265259 0.27054736018180847
0.74093139171600342 0.38639706373214722 0.26795342564582825
0.75228762626647949 0.38880720734596252 0.26856619119644165
0.76139706373214722 0.39087009429931641 0.2710784375667572
0.77085381746292114 0.39091095328330994 0.26954656839370728
0.77806371450424194 0.39111518859863281 0.26856619119644165
0.7845996618270874 0.39303511381149292 0.27085375785827637
0.78796976804733276 0.39299431443214417 0.27073118090629578
0.79454654455184937 0.39362746477127075 0.27261030673980713
0.77892154455184937 0.40508577227592468 0.28762254118919373
0.23970587551593781 0.27659314870834351 0.21397058665752411
0.21899509429931641 0.28492647409439087 0.22634804248809814
0.21907679736614227 0.28484475612640381 0.22651144862174988
0.21909721195697784 0.28584557771682739 0.2255106121301651
0.21875 0.28615197539329529 0.22303920984268188
0.21993465721607208 0.28570264577865601 0.22277368605136871
0.22457107901573181 0.28768381476402283 0.22487744688987732
0.23392564058303833 0.28576391935348511 0.22608250379562378
0.24368873238563538 0.28799018263816833 0.2293504923582077
0.25866013765335083 0.29229983687400818 0.23045343160629272
0.27959558367729187 0.29840686917304993 0.23314951360225677
0.32060864567756653 0.30551469326019287 0.24160538613796234
0.35827204585075378 0.31311273574829102 0.25116422772407532
0.40561681985855103 0.32191586494445801 0.25829246640205383
0.45367646217346191 0.3329656720161438 0.26415440440177917
0.50214463472366333 0.34536352753639221 0.26948529481887817
0.54131948947906494 0.35622960329055786 0.26676881313323975
0.58541667461395264 0.36678922176361084 0.26850488781929016
0.62185460329055786 0.37201794981956482 0.26697304844856262
0.65943628549575806 0.38100489974021912 0.26292893290519714
0.68586605787277222 0.38613152503967285 0.26117238402366638
0.71225488185882568 0.38774511218070984 0.26531863212585449
0.7299836277961731 0.38786765933036804 0.26762664318084717
0.74264705181121826 0.38553920388221741 0.26685050129890442
0.75226718187332153 0.38813316822052002 0.26744279265403748
0.76274508237838745 0.39019608497619629 0.26930147409439087
0.77332514524459839 0.39089053869247437 0.26862746477127075
0.78008580207824707 0.39123773574829102 0.26905637979507446
0.78564131259918213 0.39364787936210632 0.26944446563720703
0.78811275959014893 0.39485293626785278 0.26926064491271973
0.79350489377975464 0.3953431248664856 0.2703431248664856
0.77708333730697632 0.40575981140136719 0.28455883264541626
0.2447916567325592 0.2769811749458313 0.22293710708618164
0.22949346899986267 0.28321078419685364 0.23223039507865906
0.23032405972480774 0.2832925021648407 0.23280228674411774
0.23037853837013245 0.28308823704719543 0.23261165618896484
0.23104575276374817 0.28227123618125916 0.23108659684658051
0.23169253766536713 0.28178784251213074 0.23009258508682251
0.23368054628372192 0.28231209516525269 0.23049427568912506
0.24272194504737854 0.28197848796844482 0.23417073488235474
0.25222629308700562 0.28347629308700562 0.23688726127147675
0.26964870095252991 0.28922250866889954 0.24029821157455444
0.2914828360080719 0.29644608497619629 0.24364788830280304
0.33050107955932617 0.30299562215805054 0.24906724691390991
0.36762666702270508 0.31035539507865906 0.25925245881080627
0.41557055711746216 0.31833469867706299 0.2664964497089386
0.46476715803146362 0.32698118686676025 0.27160948514938354
0.51463097333908081 0.33811956644058228 0.27711737155914307
0.55585509538650513 0.34976851940155029 0.27635484933853149
0.59820258617401123 0.359375 0.27700164914131165
0.63363969326019287 0.36455610394477844 0.27861520648002625
0.67099666595458984 0.37263068556785583 0.27491828799247742
0.69825702905654907 0.3780977725982666 0.27476850152015686
0.72487747669219971 0.37988156080245972 0.27879902720451355
0.74219083786010742 0.38028320670127869 0.28315633535385132
0.75526958703994751 0.37839049100875854 0.28108659386634827
0.76615601778030396 0.38043978810310364 0.2820533812046051
0.77544939517974854 0.38351714611053467 0.28345587849617004
0.78231889009475708 0.38338100910186768 0.2823733389377594
0.78935867547988892 0.38466095924377441 0.28265932202339172
0.79571080207824707 0.38639706373214722 0.28399375081062317
0.80035400390625 0.38754767179489136 0.2852872908115387
0.8054126501083374 0.38841912150382996 0.28747957944869995
0.79411762952804565 0.39636436104774475 0.29889705777168274
0.2813112735748291 0.25816994905471802 0.24938724935054779
0.26037579774856567 0.26687091588973999 0.25988560914993286
0.26021245121955872 0.26616963744163513 0.25944992899894714
0.25962010025978088 0.26563182473182678 0.25799292325973511
0.25951799750328064 0.26458331942558289 0.25588235259056091
0.26085919141769409 0.26368466019630432 0.25565087795257568
0.26284724473953247 0.2635212242603302 0.25618872046470642
0.27181372046470642 0.26458331942558289 0.25721681118011475
0.28345587849617004 0.26658496260643005 0.25857841968536377
0.29992511868476868 0.27331152558326721 0.26197576522827148
0.32293707132339478 0.27822715044021606 0.26603353023529053
0.36377313733100891 0.28252995014190674 0.27126225829124451
0.4025326669216156 0.28995096683502197 0.2800653874874115
0.45396921038627625 0.29897874593734741 0.28666257858276367
0.50091910362243652 0.30571892857551575 0.29117646813392639
0.55216503143310547 0.31516203284263611 0.29817536473274231
0.59724265336990356 0.32523828744888306 0.30183824896812439
0.64348441362380981 0.33298608660697937 0.30923205614089966
0.67999053001403809 0.33641746640205383 0.31250682473182678
0.71495097875595093 0.34407678246498108 0.31203019618988037
0.74106067419052124 0.34877452254295349 0.3141816258430481
0.76695257425308228 0.35230803489685059 0.32303920388221741
0.78411626815795898 0.35300928354263306 0.32633441686630249
0.79712009429931641 0.35296159982681274 0.32461196184158325
0.80578702688217163 0.35570535063743591 0.32547655701637268
0.8124387264251709 0.3577001690864563 0.3280637264251709
0.82241284847259521 0.35851716995239258 0.32747820019721985
0.83045345544815063 0.35964050889015198 0.32814544439315796
0.83551883697509766 0.36191448569297791 0.32945260405540466
0.83937221765518188 0.36342594027519226 0.33111384510993958
0.84395426511764526 0.36348038911819458 0.33220997452735901
0.82540851831436157 0.37361109256744385 0.34421977400779724
0.28069853782653809 0.2602328360080719 0.24938724935054779
0.25943627953529358 0.26917892694473267 0.25955882668495178
0.26119282841682434 0.26977121829986572 0.26062089204788208
0.26080474257469177 0.27032274007797241 0.26019197702407837
0.2601102888584137 0.27015930414199829 0.25839459896087646
0.26082515716552734 0.26932191848754883 0.25731208920478821
0.26292893290519714 0.26911765336990356 0.25704658031463623
0.27099674940109253 0.26834151148796082 0.25816994905471802
0.28039216995239258 0.27052697539329529 0.26066175103187561
0.29840686917304993 0.27555146813392639 0.2639501690864563
0.32015931606292725 0.28088235855102539 0.26764705777168274
0.35890519618988037 0.28578430414199829 0.26987335085868835
0.39822304248809814 0.29258579015731812 0.27745097875595093
0.44775325059890747 0.30247139930725098 0.28223040699958801
0.49767157435417175 0.3071078360080719 0.2866421639919281
0.54852938652038574 0.31584969162940979 0.29442402720451355
0.59274911880493164 0.32698121666908264 0.29881533980369568
0.64025735855102539 0.33498775959014893 0.30674019455909729
0.67616420984268188 0.33929735422134399 0.3114379346370697
0.71341913938522339 0.34748774766921997 0.31084558367729187
0.74109470844268799 0.35275736451148987 0.31252041459083557
0.76715683937072754 0.35514706373214722 0.32089459896087646
0.78441578149795532 0.3557802140712738 0.32563313841819763
0.79828429222106934 0.35612744092941284 0.32585784792900085
0.80616825819015503 0.35886436700820923 0.32655227184295654
0.8124387264251709 0.36139705777168274 0.32518380880355835
0.82281458377838135 0.36190769076347351 0.32667484879493713
0.83014708757400513 0.3645833432674408 0.32892155647277832
0.83535540103912354 0.36689135432243347 0.33084148168563843
0.84017562866210938 0.3684844970703125 0.33253675699234009
0.84448528289794922 0.36648285388946533 0.33204656839370728
0.82616418600082397 0.37787988781929016 0.34436273574829102
0.27608254551887512 0.26683005690574646 0.25204247236251831
0.25784313678741455 0.27446892857551575 0.2607843279838562
0.2583061158657074 0.27459830045700073 0.2610430121421814
0.25934094190597534 0.27459830045700073 0.26124727725982666
0.26256126165390015 0.27424430847167969 0.26094773411750793
0.26424974203109741 0.27291667461395264 0.25946348905563354
0.26558414101600647 0.27256941795349121 0.25896650552749634
0.27156180143356323 0.27314135432243347 0.25906181335449219
0.27971813082695007 0.27497959136962891 0.26051881909370422
0.29550656676292419 0.27736926078796387 0.26126086711883545
0.31693220138549805 0.28466096520423889 0.26425656676292419
0.35350629687309265 0.29106074571609497 0.26656451821327209
0.39254492521286011 0.29724264144897461 0.27651143074035645
0.44210919737815857 0.30603212118148804 0.28085511922836304
0.49052286148071289 0.31264296174049377 0.28629490733146667
0.54270833730697632 0.31998232007026672 0.29349806904792786
0.58890247344970703 0.33018109202384949 0.2992306649684906
0.63819444179534912 0.33786764740943909 0.30680146813392639
0.67362469434738159 0.34553378820419312 0.30873504281044006
0.7107434868812561 0.35196077823638916 0.31141746044158936
0.73839187622070312 0.35592323541641235 0.31443354487419128
0.76441991329193115 0.35892567038536072 0.31844362616539001
0.78172653913497925 0.36143109202384949 0.32103076577186584
0.7962418794631958 0.36256128549575806 0.32091504335403442
0.80586189031600952 0.36578160524368286 0.32371324300765991
0.81352120637893677 0.36779001355171204 0.32612335681915283
0.82171165943145752 0.36766070127487183 0.32664757966995239
0.82930970191955566 0.36938315629959106 0.32787990570068359
0.83408904075622559 0.37114652991294861 0.32944580912590027
0.83854848146438599 0.37204521894454956 0.33093681931495667
0.84428101778030396 0.37042480707168579 0.33098450303077698
0.83137255907058716 0.37922793626785278 0.34166666865348816
0.28296568989753723 0.27242645621299744 0.25416666269302368
0.26139706373214722 0.28088235855102539 0.26470589637756348
0.26337829232215881 0.28227123618125916 0.26646244525909424
0.26278594136238098 0.28233250975608826 0.26668709516525269
0.26299020648002625 0.28229168057441711 0.26697304844856262
0.26529821753501892 0.28155636787414551 0.26685050129890442
0.26758578419685364 0.28069853782653809 0.26599264144897461
0.27312090992927551 0.2813112735748291 0.26597225666046143
0.2811887264251709 0.28247550129890442 0.26703432202339172
0.29473039507865906 0.28431373834609985 0.2658088207244873
0.31580883264541626 0.29172793030738831 0.26703432202339172
0.34948936104774475 0.2980596125125885 0.2692197859287262
0.38553920388221741 0.30294117331504822 0.27273285388946533
0.43543708324432373 0.3107026219367981 0.27430558204650879
0.48259803652763367 0.31850489974021912 0.27928921580314636
0.53570264577865601 0.32647058367729187 0.28790852427482605
0.58282268047332764 0.33423203229904175 0.29857024550437927
0.63272058963775635 0.34252449870109558 0.3077818751335144
0.67140525579452515 0.3506331741809845 0.30569854378700256
0.70674020051956177 0.35778185725212097 0.30998775362968445
0.73312902450561523 0.36243873834609985 0.31468543410301208
0.7607843279838562 0.3642156720161438 0.31550246477127075
0.77710378170013428 0.36695262789726257 0.3172793984413147
0.79227942228317261 0.37034314870834351 0.32113969326019287
0.80226713418960571 0.37391746044158936 0.32252860069274902
0.81023281812667847 0.37653186917304993 0.322794109582901
0.81791257858276367 0.37716501951217651 0.32263073325157166
0.82487744092941284 0.37720587849617004 0.32230392098426819
0.8324550986289978 0.37847223877906799 0.32508167624473572
0.8371119499206543 0.37920752167701721 0.32704249024391174
0.84221816062927246 0.38002452254295349 0.32757353782653809
0.823161780834198 0.38915440440177917 0.33780637383460999
0.28680557012557983 0.28531453013420105 0.2607843279838562
0.26560458540916443 0.29399511218070984 0.27169117331504822
0.2666802704334259 0.29417893290519714 0.27216094732284546
0.266367107629776 0.29340279102325439 0.27158904075622559
0.2667483389377594 0.29272878170013428 0.2700163722038269
0.26832789182662964 0.29281726479530334 0.26999589800834656
0.27081292867660522 0.29293298721313477 0.26977121829986572
0.27357023954391479 0.29168707132339478 0.26646241545677185
0.28145423531532288 0.29362744092941284 0.26691177487373352
0.2958129346370697 0.29623502492904663 0.26761981844902039
0.3145425021648407 0.30116420984268188 0.26621735095977783
0.34782135486602783 0.30674019455909729 0.26858657598495483
0.38433411717414856 0.3126838207244873 0.27191588282585144
0.43227806687355042 0.31989380717277527 0.27276688814163208
0.47743058204650879 0.32634803652763367 0.27724674344062805
0.52934366464614868 0.33421841263771057 0.28642427921295166
0.57753950357437134 0.34208193421363831 0.29598310589790344
0.62794119119644165 0.3512459397315979 0.30457514524459839
0.66582924127578735 0.35972222685813904 0.30578702688217163
0.70488148927688599 0.3662581741809845 0.30761846899986267
0.73297250270843506 0.36984610557556152 0.31318762898445129
0.76033490896224976 0.37418302893638611 0.31217318773269653
0.77674293518066406 0.37626636028289795 0.31587693095207214
0.79372954368591309 0.37930965423583984 0.31977126002311707
0.80143654346466064 0.3826184868812561 0.32095587253570557
0.80870097875595093 0.38527372479438782 0.31995505094528198
0.81742912530899048 0.38532817363739014 0.31973040103912354
0.82293713092803955 0.38668301701545715 0.31926059722900391
0.82975220680236816 0.38732978701591492 0.32184094190597534
0.83655363321304321 0.38831695914268494 0.32447576522827148
0.8416258692741394 0.38807189464569092 0.32551062107086182
0.82757353782653809 0.39671161770820618 0.33711192011833191
0.28621324896812439 0.30643382668495178 0.26887255907058716
0.26991420984268188 0.3125612735748291 0.27714461088180542
0.26997548341751099 0.31186684966087341 0.27689951658248901
0.27022057771682739 0.31141749024391174 0.27706289291381836
0.2711397111415863 0.30998775362968445 0.27683824300765991
0.27191588282585144 0.30933412909507751 0.27673608064651489
0.27450981736183167 0.30900734663009644 0.27696079015731812
0.27628675103187561 0.30814951658248901 0.27310049533843994
0.28321078419685364 0.30686274170875549 0.27064952254295349
0.2980596125125885 0.30937498807907104 0.27009803056716919
0.31446078419685364 0.31525734066963196 0.26997548341751099
0.34483253955841064 0.32197713851928711 0.2704043984413147
0.3798406720161438 0.32591912150382996 0.27156862616539001
0.42691993713378906 0.33468136191368103 0.27303922176361084
0.47077205777168274 0.34258577227592468 0.27389705181121826
0.52424424886703491 0.34987744688987732 0.28325164318084717
0.57444852590560913 0.35649511218070984 0.29395425319671631
0.62616419792175293 0.36378675699234009 0.30098038911819458
0.66305148601531982 0.37285539507865906 0.29769197106361389
0.70220589637756348 0.3797181248664856 0.30441176891326904
0.72743052244186401 0.38225078582763672 0.31221407651901245
0.75612747669219971 0.38713234663009644 0.31102940440177917
0.77614372968673706 0.3908088207244873 0.31309232115745544
0.7909926176071167 0.39448529481887817 0.31415441632270813
0.80140930414199829 0.39746734499931335 0.31593137979507446
0.81151962280273438 0.39767158031463623 0.31936275959014893
0.81991422176361084 0.39838644862174988 0.32007762789726257
0.82696080207824707 0.39914214611053467 0.31887254118919373
0.8315359354019165 0.39993873238563538 0.32148692011833191
0.83474266529083252 0.40067401528358459 0.32318216562271118
0.8390318751335144 0.4008578360080719 0.32310047745704651
0.81942403316497803 0.41041666269302368 0.33431372046470642
0.29971405863761902 0.32054737210273743 0.27305963635444641
0.27847224473953247 0.32916668057441711 0.28492647409439087
0.27874457836151123 0.32925516366958618 0.28523966670036316
0.27813181281089783 0.32936409115791321 0.28529411554336548
0.27814540266990662 0.32977941632270813 0.28582516312599182
0.27958199381828308 0.32768926024436951 0.28472223877906799
0.27937090396881104 0.32557189464569092 0.28272059559822083
0.28129082918167114 0.3241557776927948 0.27963647246360779
0.2864583432674408 0.3242238461971283 0.27804332971572876
0.30031320452690125 0.32634803652763367 0.27705609798431396
0.31648284196853638 0.3292483389377594 0.27608254551887512
0.34623503684997559 0.33579793572425842 0.27638208866119385
0.37957519292831421 0.34078839421272278 0.27450981736183167
0.42587146162986755 0.34981617331504822 0.27220860123634338
0.46970996260643005 0.35763886570930481 0.27493873238563538
0.5222698450088501 0.36534586548805237 0.28469502925872803
0.57121461629867554 0.37179332971572876 0.29254493117332458
0.62214058637619019 0.37855392694473267 0.30051061511039734
0.65993326902389526 0.38698258996009827 0.29783499240875244
0.69887661933898926 0.39348450303077698 0.3033905029296875
0.7270084023475647 0.39709287881851196 0.31083875894546509
0.75578027963638306 0.40171569585800171 0.31072303652763367
0.77455061674118042 0.40654274821281433 0.31305146217346191
0.79111522436141968 0.40970176458358765 0.31707519292831421
0.8005446195602417 0.41307187080383301 0.31860023736953735
0.80866014957427979 0.41441991925239563 0.3188929557800293
0.81643521785736084 0.41339871287345886 0.31915852427482605
0.82371324300765991 0.41441991925239563 0.31934231519699097
0.829609215259552 0.4146786630153656 0.32090824842453003
0.83464735746383667 0.41461056470870972 0.32196348905563354
0.83899104595184326 0.41446077823638916 0.32116013765335083
0.82056784629821777 0.42371323704719543 0.3329656720161438
0.30024510622024536 0.34705883264541626 0.28786763548851013
0.28406861424446106 0.35330882668495178 0.29632353782653809
0.28486520051956177 0.35294118523597717 0.29636439681053162
0.28504902124404907 0.3526756763458252 0.29634392261505127
0.28621324896812439 0.35238969326019287 0.29589459300041199
0.28674426674842834 0.35112336277961731 0.29321897029876709
0.28627452254295349 0.34944853186607361 0.29031863808631897
0.28964459896087646 0.3501429557800293 0.28613156080245972
0.29595589637756348 0.34999999403953552 0.28443628549575806
0.3058619499206543 0.34977534413337708 0.28386440873146057
0.32058823108673096 0.35159313678741455 0.28069853782653809
0.34889706969261169 0.35755717754364014 0.27700164914131165
0.38229167461395264 0.3640931248664856 0.27806371450424194
0.42624589800834656 0.37207925319671631 0.27532678842544556
0.46770831942558289 0.38063725829124451 0.27561274170875549
0.52030229568481445 0.38790851831436157 0.28372141718864441
0.56938320398330688 0.3942197859287262 0.2916666567325592
0.62095588445663452 0.40036764740943909 0.29767155647277832
0.65825158357620239 0.40733250975608826 0.29750815033912659
0.69865196943283081 0.41366422176361084 0.30508577823638916
0.72810459136962891 0.41758579015731812 0.31431779265403748
0.75808823108673096 0.42273283004760742 0.31170344352722168
0.77767568826675415 0.42743054032325745 0.31499186158180237
0.79479163885116577 0.42984068393707275 0.3178921639919281
0.80386030673980713 0.43155637383460999 0.3178921639919281
0.81225490570068359 0.432169109582901 0.3177696168422699
0.82093542814254761 0.43474265933036804 0.31817808747291565
0.82757353782653809 0.43517157435417175 0.31856617331504822
0.83235293626785278 0.43435460329055786 0.31983253359794617
0.8374183177947998 0.43333333730697632 0.32089459896087646
0.84166663885116577 0.43302696943283081 0.32169118523597717
0.82953429222106934 0.44093137979507446 0.33216911554336548
0.31437909603118896 0.3730800449848175 0.29033902287483215
0.29254493117332458 0.38122957944869995 0.30169525742530823
0.29330065846443176 0.38121595978736877 0.30216500163078308
0.29325979948043823 0.38095724582672119 0.30197438597679138
0.29399511218070984 0.37990197539329529 0.30187907814979553
0.29453292489051819 0.37865602970123291 0.3009122908115387
0.29632353782653809 0.37741014361381531 0.29983657598495483
0.29919660091400146 0.37744414806365967 0.29933959245681763
0.3043709397315979 0.37700164318084717 0.29883578419685364
0.3148556649684906 0.37734201550483704 0.29637801647186279
0.32698121666908264 0.37747141718864441 0.29123774170875549
0.35653597116470337 0.38174700736999512 0.28671705722808838
0.3852328360080719 0.38829657435417175 0.28261843323707581
0.42704927921295166 0.39803242683410645 0.27945259213447571
0.46629902720451355 0.40659722685813904 0.27810460329055786
0.51847082376480103 0.41431102156639099 0.28299972414970398
0.56855934858322144 0.42110565304756165 0.28760892152786255
0.62013882398605347 0.42722627520561218 0.29379084706306458
0.6564338207244873 0.43289759755134583 0.29591500759124756
0.69818216562271118 0.43790853023529053 0.30191993713378906
0.72833603620529175 0.44200709462165833 0.31161493062973022
0.75827205181121826 0.44797793030738831 0.31100901961326599
0.7788195013999939 0.45295479893684387 0.31453567743301392
0.79520010948181152 0.45520833134651184 0.31709557771682739
0.8041803240776062 0.45507216453552246 0.31692540645599365
0.81382757425308228 0.45408499240875244 0.32128265500068665
0.82431918382644653 0.45583471655845642 0.32196348905563354
0.83182185888290405 0.45733252167701721 0.32289624214172363
0.8352465033531189 0.45737335085868835 0.32352262735366821
0.84005314111709595 0.45915713906288147 0.32531318068504333
0.84358662366867065 0.45908904075622559 0.32408088445663452
0.82506126165390015 0.46781048178672791 0.33570262789726257
0.32389706373214722 0.39938724040985107 0.3023897111415863
0.3023284375667572 0.40759804844856262 0.31482842564582825
0.30224671959877014 0.40688318014144897 0.3142973780632019
0.3023897111415863 0.40661764144897461 0.3139910101890564
0.30386030673980713 0.4063112735748291 0.31397059559822083
0.30430960655212402 0.40549430251121521 0.31294932961463928
0.30508577823638916 0.40459558367729187 0.31158089637756348
0.30847629904747009 0.40561681985855103 0.31045752763748169
0.3126225471496582 0.40502449870109558 0.30962011218070984
0.32179328799247742 0.40310457348823547 0.30647468566894531
0.3333946168422699 0.40287989377975464 0.30183824896812439
0.35874184966087341 0.40770015120506287 0.29740604758262634
0.38547793030738831 0.41323530673980713 0.29123774170875549
0.42647057771682739 0.42252859473228455 0.28474265336990356
0.46519607305526733 0.43094363808631897 0.28155636787414551
0.51799428462982178 0.4386846125125885 0.28296568989753723
