snapseed-lut/snapseed-film-l02.cube
# Created by: G'MIC (https://gmic.eu)
TITLE "snapseed-film-l02"
# LUT size
LUT_3D_SIZE 5
# Data domain
# LUT data points
DOMAIN_MIN 0.000000 0.000000 0.000000
DOMAIN_MAX 0.903226 0.903226 0.903226
0.12175244837999344 0.18455882370471954 0.10287990421056747
0.15126633644104004 0.1929534375667572 0.11158088594675064
0.37463235855102539 0.20962010324001312 0.12598039209842682
0.66979163885116577 0.22628676891326904 0.15024510025978088
0.77722632884979248 0.2519812285900116 0.17381535470485687
0.18188317120075226 0.19430147111415863 0.14797794818878174
0.19849535822868347 0.19898556172847748 0.15518110990524292
0.42171162366867065 0.20861928164958954 0.16341911256313324
0.7360498309135437 0.23276142776012421 0.18508987128734589
0.85319989919662476 0.26564541459083557 0.21284042298793793
0.22009803354740143 0.42598038911819458 0.1977328360080719
0.23631536960601807 0.4353962242603302 0.20680147409439087
0.44571077823638916 0.43412989377975464 0.21390931308269501
0.73468136787414551 0.44215685129165649 0.22598038613796234
0.86008983850479126 0.46883168816566467 0.25968137383460999
0.30955880880355835 0.73799020051956177 0.32365196943283081
0.33343544602394104 0.73492646217346191 0.31409314274787903
0.51856619119644165 0.73382353782653809 0.31286764144897461
0.76507353782653809 0.73492646217346191 0.33382353186607361
0.88174021244049072 0.74883580207824707 0.36995506286621094
0.42920753359794617 0.86556375026702881 0.44087010622024536
0.45238971710205078 0.87683820724487305 0.44081565737724304
0.606781005859375 0.87318223714828491 0.44552695751190186
0.79805970191955566 0.87369281053543091 0.45341095328330994
0.88497412204742432 0.87081289291381836 0.48124319314956665
0.10314542800188065 0.19464869797229767 0.13623365759849548
0.13480392098426819 0.20405773818492889 0.14228621125221252
0.35990607738494873 0.2185661792755127 0.154023677110672
0.63792890310287476 0.24017564952373505 0.18192401528358459
0.74918299913406372 0.26577478647232056 0.20987880229949951
0.18289080262184143 0.19861790537834167 0.20082379877567291
0.20005218684673309 0.21082516014575958 0.20790894329547882
0.42820671200752258 0.21965549886226654 0.20987200736999512
0.73310869932174683 0.23765659332275391 0.22174562513828278
0.85239428281784058 0.26815992593765259 0.24896739423274994
0.22573529183864594 0.45112338662147522 0.29558822512626648
0.24163262546062469 0.4517701268196106 0.29183688759803772
0.45075571537017822 0.45381945371627808 0.29113560914993286
0.74068629741668701 0.45992645621299744 0.30189952254295349
0.86663264036178589 0.49067944288253784 0.32559233903884888
0.31919935345649719 0.75189948081970215 0.44076794385910034
0.34064540266990662 0.75293433666229248 0.43131127953529358
0.52977943420410156 0.75283908843994141 0.42138481140136719
0.77005714178085327 0.74897873401641846 0.42898285388946533
0.87828153371810913 0.76188045740127563 0.45357435941696167
0.43356484174728394 0.86588376760482788 0.5502314567565918
0.46332833170890808 0.87740564346313477 0.55805867910385132
0.61250680685043335 0.87647742033004761 0.55277776718139648
0.8001021146774292 0.87436681985855103 0.55719625949859619
0.88571393489837646 0.87438499927520752 0.57232892513275146
0.10735294222831726 0.19693627953529358 0.28057599067687988
0.13427288830280304 0.20477941632270813 0.27567401528358459
0.36084559559822083 0.22120098769664764 0.2814338207244873
0.64148283004760742 0.24270834028720856 0.30919116735458374
0.7524714469909668 0.27209967374801636 0.33899098634719849
0.18811275064945221 0.21529819071292877 0.39031863212585449
0.20530365407466888 0.22293028235435486 0.38254359364509583
0.42536765336990356 0.23069852590560913 0.36205068230628967
0.73325157165527344 0.25202205777168274 0.37363153696060181
0.84982979297637939 0.28125 0.39321893453598022
0.2344975471496582 0.47297793626785278 0.51200979948043823
0.25349265336990356 0.47673609852790833 0.50792479515075684
0.45931372046470642 0.47542890906333923 0.48596814274787903
0.74338233470916748 0.48927697539329529 0.48486518859863281
0.86987340450286865 0.51595181226730347 0.4986928403377533
0.32990196347236633 0.76715683937072754 0.62787991762161255
0.35529005527496338 0.76907676458358765 0.62930965423583984
0.54019606113433838 0.76537990570068359 0.61783087253570557
0.77389705181121826 0.76519608497619629 0.61268383264541626
0.87879902124404907 0.77763479948043823 0.61946487426757812
0.44634392857551575 0.87105798721313477 0.69644606113433838
0.46980530023574829 0.88175386190414429 0.70700573921203613
0.62273281812667847 0.8834763765335083 0.71002852916717529
0.80612742900848389 0.87751227617263794 0.71047794818878174
0.88717317581176758 0.87787991762161255 0.71468544006347656
0.11354167014360428 0.20686274766921997 0.51329654455184937
0.14315767586231232 0.2118055522441864 0.50745511054992676
0.36617645621299744 0.22616422176361084 0.50085783004760742
0.64522057771682739 0.24846813082695007 0.50876224040985107
0.75551468133926392 0.27428510785102844 0.5184028148651123
0.18903186917304993 0.23163807392120361 0.6465073823928833
0.21568627655506134 0.23998503386974335 0.64375680685043335
0.43368056416511536 0.2479575127363205 0.61245918273925781
0.7343137264251709 0.26619690656661987 0.61158090829849243
0.85313862562179565 0.29944851994514465 0.61461740732192993
0.25030636787414551 0.50073528289794922 0.7342524528503418
0.2676062285900116 0.50328844785690308 0.73276138305664062
0.48075979948043823 0.51145833730697632 0.72236520051956177
0.74546569585800171 0.51354163885116577 0.70514708757400513
0.86805552244186401 0.53941994905471802 0.71111112833023071
0.33535540103912354 0.77401959896087646 0.79246324300765991
0.36821892857551575 0.77996325492858887 0.79709964990615845
0.55312502384185791 0.77598041296005249 0.79221814870834351
0.77953433990478516 0.78174018859863281 0.78866422176361084
0.88167893886566162 0.78946077823638916 0.79246324300765991
0.45488154888153076 0.87230390310287476 0.81607437133789062
0.47947984933853149 0.88062363862991333 0.82647740840911865
0.63852125406265259 0.88388478755950928 0.82914626598358154
0.80657684803009033 0.87975895404815674 0.83231210708618164
0.88537585735321045 0.88152915239334106 0.83235293626785278
0.12381535768508911 0.21409313380718231 0.68331295251846313
0.16118600964546204 0.22628676891326904 0.69049561023712158
0.38067808747291565 0.23966503143310547 0.69033902883529663
0.65079659223556519 0.26270422339439392 0.69023686647415161
0.76330339908599854 0.29055008292198181 0.69579929113388062
0.19733114540576935 0.25414624810218811 0.8114311695098877
0.22525644302368164 0.26416122913360596 0.82176607847213745
0.44353213906288147 0.26657816767692566 0.80583471059799194
0.73774510622024536 0.28952884674072266 0.79841369390487671
0.85521060228347778 0.31868872046470642 0.80210381746292114
0.26348039507865906 0.52651137113571167 0.84464865922927856
0.28826251626014709 0.53169929981231689 0.8587418794631958
0.48841911554336548 0.53404814004898071 0.8485293984413147
0.75598448514938354 0.54464864730834961 0.84505724906921387
0.86934912204742432 0.56526416540145874 0.84306234121322632
0.3454861044883728 0.78135210275650024 0.86621725559234619
0.38445672392845154 0.78698259592056274 0.87750542163848877
0.56928098201751709 0.79297381639480591 0.87879902124404907
0.78835785388946533 0.79336190223693848 0.87471401691436768
0.88479709625244141 0.80298882722854614 0.87652504444122314
0.46374592185020447 0.87625956535339355 0.87536764144897461
0.49675473570823669 0.88438183069229126 0.88623589277267456
0.64449894428253174 0.88483798503875732 0.88589328527450562
0.81098181009292603 0.88063722848892212 0.88189005851745605
0.88433867692947388 0.8858410120010376 0.88464730978012085
