snapseed-lut/snapseed-film-x01.cube
# Created by: G'MIC (https://gmic.eu)
TITLE "snapseed-film-x01"
# LUT size
LUT_3D_SIZE 5
# Data domain
# LUT data points
DOMAIN_MIN 0.000000 0.000000 0.000000
DOMAIN_MAX 0.903226 0.903226 0.903226
0.0079044122248888016 0.045220587402582169 0.067401960492134094
0.039705883711576462 0.090502448379993439 0.11119280755519867
0.25741422176361084 0.11096813529729843 0.081924021244049072
0.47095587849617004 0.14129902422428131 0.035968136042356491
0.60451382398605347 0.14305555820465088 0.043709147721529007
0.049489378929138184 0.14462825655937195 0.14340278506278992
0.14910130202770233 0.16966912150382996 0.16845043003559113
0.36517566442489624 0.16862745583057404 0.12036355584859848
0.56278598308563232 0.17655228078365326 0.065645419061183929
0.69161903858184814 0.19008032977581024 0.068961054086685181
0.079963237047195435 0.39117646217346191 0.27359068393707275
0.1183619350194931 0.4040849506855011 0.27677696943283081
0.4376225471496582 0.4163602888584137 0.265625
0.67481619119644165 0.42426469922065735 0.23805147409439087
0.78470176458358765 0.4219975471496582 0.22150735557079315
0.12855392694473267 0.65055149793624878 0.43780636787414551
0.10341094434261322 0.64979571104049683 0.43263891339302063
0.43339461088180542 0.65533089637756348 0.42696079611778259
0.72481620311737061 0.69129902124404907 0.41194853186607361
0.8831290602684021 0.70232844352722168 0.42583742737770081
0.21889297664165497 0.80578029155731201 0.59023690223693848
0.21492373943328857 0.80975627899169922 0.59436959028244019
0.49914216995239258 0.81856620311737061 0.61856615543365479
0.7622753381729126 0.85108250379562378 0.61985296010971069
0.91926741600036621 0.87486380338668823 0.61439275741577148
0.0041462420485913754 0.081740193068981171 0.11035539209842682
0.0082380175590515137 0.12176606059074402 0.14630308747291565
0.23931780457496643 0.13506945967674255 0.14156453311443329
0.44299429655075073 0.1582312136888504 0.090502448379993439
0.57523143291473389 0.17299836874008179 0.089236102998256683
0.052982024848461151 0.15862609446048737 0.1979779452085495
0.13520106673240662 0.18938136100769043 0.22167076170444489
0.35314539074897766 0.18792891502380371 0.19441720843315125
0.5528254508972168 0.19112199544906616 0.12431236356496811
0.67642980813980103 0.21063454449176788 0.11437681317329407
0.078860297799110413 0.41025325655937195 0.34826391935348511
0.11988697946071625 0.43422523140907288 0.35823801159858704
0.43529412150382996 0.44238153100013733 0.34963235259056091
0.66742241382598877 0.44583332538604736 0.31589049100875854
0.7775803804397583 0.44871324300765991 0.29390659928321838
0.11633987724781036 0.66392970085144043 0.51613563299179077
0.1029888391494751 0.67078572511672974 0.51223450899124146
0.44513887166976929 0.67551064491271973 0.51284724473953247
0.72961604595184326 0.70767980813980103 0.50394201278686523
0.88519197702407837 0.72398555278778076 0.51651680469512939
0.21233661472797394 0.81581562757492065 0.63763618469238281
0.19426970183849335 0.82401508092880249 0.6521831750869751
0.52760076522827148 0.82798206806182861 0.6838303804397583
0.76911765336990356 0.85557597875595093 0.68794256448745728
0.92745554447174072 0.8832697868347168 0.69112199544906616
0.005392157007008791 0.10851715505123138 0.19699755311012268
0.024938724935054779 0.14297387003898621 0.23995098471641541
0.27751225233078003 0.16789215803146362 0.24908088147640228
0.45974263548851013 0.17432598769664764 0.22610294818878174
0.57604163885116577 0.17167074978351593 0.18688724935054779
0.064358651638031006 0.19374999403953552 0.30236929655075073
0.13903868198394775 0.20965413749217987 0.33458605408668518
0.40708741545677185 0.23754085600376129 0.33956289291381836
0.5673406720161438 0.22095587849617004 0.28525328636169434
0.6780773401260376 0.21488289535045624 0.23599536716938019
0.08799019455909729 0.42291668057441711 0.4476715624332428
0.14716094732284546 0.44409722089767456 0.47214049100875854
0.43817400932312012 0.47285538911819458 0.48069852590560913
0.64620095491409302 0.46237745881080627 0.44246324896812439
0.76272463798522949 0.46143791079521179 0.4042074978351593
0.12971813976764679 0.66299021244049072 0.59828430414199829
0.12741014361381531 0.67263072729110718 0.6051061749458313
0.45177695155143738 0.70183825492858887 0.62935048341751099
0.73547792434692383 0.7343137264251709 0.63982844352722168
0.88870507478713989 0.75676059722900391 0.64924424886703491
0.21836191415786743 0.81452208757400513 0.69140112400054932
0.18865740299224854 0.82702207565307617 0.70164757966995239
0.45917072892189026 0.8322712779045105 0.73531460762023926
0.78051471710205078 0.87081295251846313 0.78372138738632202
0.93293172121047974 0.89854985475540161 0.78724807500839233
0.0073529412038624287 0.15275734663009644 0.32996323704719543
0.017279412597417831 0.18633578717708588 0.36156043410301208
0.29074755311012268 0.23008579015731812 0.42898285388946533
0.53290438652038574 0.22591911256313324 0.41004902124404907
0.62422388792037964 0.25230804085731506 0.38933822512626648
0.058823529630899429 0.23613153398036957 0.44722220301628113
0.12465958297252655 0.25366964936256409 0.47039759159088135
0.40868055820465088 0.28543710708618164 0.50243055820465088
0.65361517667770386 0.30504494905471802 0.51627856492996216
0.73130446672439575 0.31078431010246277 0.47608250379562378
0.10551470518112183 0.45723038911819458 0.56807595491409302
0.1356004923582077 0.46625813841819763 0.58437502384185791
0.44074755907058716 0.51292890310287476 0.6094975471496582
0.70422792434692383 0.53743875026702881 0.6503676176071167
0.78935867547988892 0.51470589637756348 0.60281860828399658
0.15802696347236633 0.66470587253570557 0.68223041296005249
0.14070670306682587 0.67103755474090576 0.68572306632995605
0.46715685725212097 0.70398283004760742 0.71629899740219116
0.74325978755950928 0.75631129741668701 0.76862746477127075
0.87557190656661987 0.7581290602684021 0.75402367115020752
0.2344975471496582 0.80829250812530518 0.75255304574966431
0.20652234554290771 0.81757217645645142 0.76732712984085083
0.35265523195266724 0.83325165510177612 0.78580468893051147
0.77602118253707886 0.87647056579589844 0.85081696510314941
0.93696218729019165 0.92215412855148315 0.8718341588973999
0.010130718350410461 0.22201797366142273 0.47007760405540466
0.01576797291636467 0.2446078360080719 0.49706560373306274
0.28382351994514465 0.29703837633132935 0.5542483925819397
0.58752042055130005 0.3177083432674408 0.60159313678741455
0.69282406568527222 0.34570395946502686 0.58958333730697632
0.049305558204650879 0.31214597821235657 0.58781319856643677
0.10912082344293594 0.33301788568496704 0.61596542596817017
0.40568491816520691 0.36691859364509583 0.62533360719680786
0.68282270431518555 0.39123773574829102 0.70055145025253296
0.79962325096130371 0.42186817526817322 0.69667983055114746
0.10980392247438431 0.49769195914268494 0.6736723780632019
0.10518109798431396 0.50554877519607544 0.6823393702507019
0.460682213306427 0.57301872968673706 0.7204861044883728
0.7171364426612854 0.60986518859863281 0.78167891502380371
0.85783630609512329 0.63278865814208984 0.80127996206283569
0.18178103864192963 0.67389708757400513 0.75181782245635986
0.16206425428390503 0.68147462606430054 0.75989925861358643
0.42683824896812439 0.71323531866073608 0.78220993280410767
0.74946892261505127 0.78711187839508057 0.84507763385772705
0.90573251247406006 0.82190227508544922 0.88537579774856567
0.24508440494537354 0.80034041404724121 0.80373775959014893
0.22153231501579285 0.81340545415878296 0.81791716814041138
0.32706969976425171 0.82448935508728027 0.82393795251846313
0.76182597875595093 0.8830065131187439 0.89684772491455078
0.94097900390625 0.94198215007781982 0.94339364767074585
